P3
400 225
255
163 200 255
163 200 255
163 200 255
163 200 255
163 200 255
163 200 255
163 200 255
163 200 255
162 200 255
162 200 255
162 200 255
162 200 255
162 199 255
162 199 255
162 199 255
162 199 255
162 199 255
162 199 255
162 199 255
161 199 255
161 199 255
161 199 255
161 199 255
161 199 255
161 199 255
161 199 255
161 199 255
161 199 255
161 199 255
161 199 255
160 198 255
160 198 255
160 198 255
160 198 255
160 198 255
160 198 255
160 198 255
160 198 255
160 198 255
160 198 255
159 198 255
159 198 255
159 198 255
159 198 255
159 198 255
159 198 255
159 197 255
159 197 255
159 197 255
159 197 255
158 197 255
158 197 255
158 197 255
158 197 255
158 197 255
158 197 255
158 197 255
158 197 255
158 197 255
157 197 255
157 197 255
157 197 255
157 196 255
157 196 255
157 196 255
157 196 255
157 196 255
157 196 255
156 196 255
156 196 255
156 196 255
156 196 255
156 196 255
156 196 255
156 196 255
156 196 255
156 196 255
156 196 255
155 195 255
155 195 255
155 195 255
155 195 255
155 195 255
155 195 255
155 195 255
155 195 255
155 195 255
154 195 255
154 195 255
154 195 255
154 195 255
154 195 255
154 195 255
154 194 255
154 194 255
154 194 255
153 194 255
153 194 255
153 194 255
153 194 255
153 194 255
153 194 255
153 194 255
153 194 255
153 194 255
152 194 255
152 194 255
152 194 255
152 193 255
152 193 255
152 193 255
152 193 255
152 193 255
152 193 255
152 193 255
151 193 255
151 193 255
151 193 255
151 193 255
151 193 255
151 193 255
151 193 255
151 193 255
151 193 255
150 192 255
150 192 255
150 192 255
150 192 255
150 192 255
150 192 255
150 192 255
150 192 255
150 192 255
150 192 255
150 192 255
149 192 255
149 192 255
149 192 255
149 192 255
149 192 255
149 192 255
149 192 255
149 191 255
149 191 255
149 191 255
149 191 255
148 191 255
148 191 255
148 191 255
148 191 255
148 191 255
148 191 255
148 191 255
148 191 255
148 191 255
148 191 255
148 191 255
148 191 255
148 191 255
148 191 255
147 191 255
147 191 255
147 191 255
147 191 255
147 191 255
147 190 255
147 190 255
147 190 255
147 190 255
147 190 255
147 190 255
147 190 255
147 190 255
147 190 255
147 190 255
147 190 255
147 190 255
147 190 255
147 190 255
146 190 255
146 190 255
146 190 255
146 190 255
146 190 255
146 190 255
146 190 255
146 190 255
146 190 255
146 190 255
146 190 255
146 190 255
146 190 255
146 190 255
146 190 255
146 190 255
146 190 255
146 190 255
146 190 255
146 190 255
146 190 255
146 190 255
146 190 255
146 190 255
146 190 255
146 190 255
146 190 255
146 190 255
146 190 255
146 190 255
146 190 255
146 190 255
146 190 255
146 190 255
146 190 255
146 190 255
146 190 255
146 190 255
146 190 255
146 190 255
146 190 255
147 190 255
147 190 255
147 190 255
147 190 255
147 190 255
147 190 255
147 190 255
147 190 255
147 190 255
147 190 255
147 190 255
147 190 255
147 190 255
147 190 255
147 191 255
147 191 255
147 191 255
147 191 255
147 191 255
147 191 255
148 191 255
148 191 255
148 191 255
148 191 255
148 191 255
148 191 255
148 191 255
148 191 255
148 191 255
148 191 255
148 191 255
148 191 255
148 191 255
149 191 255
149 191 255
149 191 255
149 191 255
149 192 255
149 192 255
149 192 255
149 192 255
149 192 255
149 192 255
149 192 255
150 192 255
150 192 255
150 192 255
150 192 255
150 192 255
150 192 255
150 192 255
150 192 255
150 192 255
150 192 255
150 192 255
151 193 255
151 193 255
151 193 255
151 193 255
151 193 255
151 193 255
151 193 255
151 193 255
151 193 255
152 193 255
152 193 255
152 193 255
152 193 255
152 193 255
152 193 255
152 193 255
152 194 255
152 194 255
152 194 255
153 194 255
153 194 255
153 194 255
153 194 255
153 194 255
153 194 255
153 194 255
153 194 255
153 194 255
154 194 255
154 194 255
154 194 255
154 195 255
154 195 255
154 195 255
154 195 255
154 195 255
154 195 255
155 195 255
155 195 255
155 195 255
155 195 255
155 195 255
155 195 255
155 195 255
155 195 255
155 195 255
156 196 255
156 196 255
156 196 255
156 196 255
156 196 255
156 196 255
156 196 255
156 196 255
156 196 255
156 196 255
157 196 255
157 196 255
157 196 255
157 196 255
157 196 255
157 196 255
157 197 255
157 197 255
157 197 255
158 197 255
158 197 255
158 197 255
158 197 255
158 197 255
158 197 255
158 197 255
158 197 255
158 197 255
159 197 255
159 197 255
159 197 255
159 197 255
159 198 255
159 198 255
159 198 255
159 198 255
159 198 255
159 198 255
160 198 255
160 198 255
160 198 255
160 198 255
160 198 255
160 198 255
160 198 255
160 198 255
160 198 255
160 198 255
161 199 255
161 199 255
161 199 255
161 199 255
161 199 255
161 199 255
161 199 255
161 199 255
161 199 255
161 199 255
161 199 255
162 199 255
162 199 255
162 199 255
162 199 255
162 199 255
162 199 255
162 199 255
162 200 255
162 200 255
162 200 255
162 200 255
163 200 255
163 200 255
163 200 255
163 200 255
163 200 255
163 200 255
163 200 255
163 200 255
163 200 255
163 200 255
163 200 255
163 200 255
163 200 255
163 200 255
163 200 255
163 200 255
163 200 255
163 200 255
163 200 255
162 200 255
162 200 255
162 200 255
162 200 255
162 199 255
162 199 255
162 199 255
162 199 255
162 199 255
162 199 255
162 199 255
161 199 255
161 199 255
161 199 255
161 199 255
161 199 255
161 199 255
161 199 255
161 199 255
161 199 255
161 199 255
161 199 255
160 198 255
160 198 255
160 198 255
160 198 255
160 198 255
160 198 255
160 198 255
160 198 255
160 198 255
160 198 255
159 198 255
159 198 255
159 198 255
159 198 255
159 198 255
159 198 255
159 197 255
159 197 255
159 197 255
159 197 255
158 197 255
158 197 255
158 197 255
158 197 255
158 197 255
158 197 255
158 197 255
158 197 255
158 197 255
157 197 255
157 197 255
157 197 255
157 196 255
157 196 255
157 196 255
157 196 255
157 196 255
157 196 255
156 196 255
156 196 255
156 196 255
156 196 255
156 196 255
156 196 255
156 196 255
156 196 255
156 196 255
156 196 255
155 195 255
155 195 255
155 195 255
155 195 255
155 195 255
155 195 255
155 195 255
155 195 255
155 195 255
154 195 255
154 195 255
154 195 255
154 195 255
154 195 255
154 195 255
154 194 255
154 194 255
154 194 255
153 194 255
153 194 255
153 194 255
153 194 255
153 194 255
153 194 255
153 194 255
153 194 255
153 194 255
152 194 255
152 194 255
152 194 255
152 193 255
152 193 255
152 193 255
152 193 255
152 193 255
152 193 255
152 193 255
151 193 255
151 193 255
151 193 255
151 193 255
151 193 255
151 193 255
151 193 255
151 193 255
151 193 255
151 193 255
150 192 255
150 192 255
150 192 255
150 192 255
150 192 255
150 192 255
150 192 255
150 192 255
150 192 255
150 192 255
149 192 255
149 192 255
149 192 255
149 192 255
149 192 255
149 192 255
149 192 255
149 192 255
149 191 255
149 191 255
149 191 255
149 191 255
148 191 255
148 191 255
148 191 255
148 191 255
148 191 255
148 191 255
148 191 255
148 191 255
148 191 255
148 191 255
148 191 255
148 191 255
148 191 255
148 191 255
147 191 255
147 191 255
147 191 255
147 191 255
147 191 255
147 191 255
147 190 255
147 190 255
147 190 255
147 190 255
147 190 255
147 190 255
147 190 255
147 190 255
147 190 255
147 190 255
147 190 255
147 190 255
147 190 255
147 190 255
147 190 255
147 190 255
147 190 255
146 190 255
146 190 255
146 190 255
146 190 255
146 190 255
146 190 255
146 190 255
146 190 255
146 190 255
146 190 255
146 190 255
146 190 255
146 190 255
146 190 255
146 190 255
146 190 255
146 190 255
146 190 255
146 190 255
146 190 255
146 190 255
146 190 255
146 190 255
146 190 255
146 190 255
146 190 255
147 190 255
147 190 255
147 190 255
147 190 255
147 190 255
147 190 255
147 190 255
147 190 255
147 190 255
147 190 255
147 190 255
147 190 255
147 190 255
147 190 255
147 190 255
147 190 255
147 190 255
147 190 255
147 191 255
147 191 255
147 191 255
147 191 255
147 191 255
147 191 255
148 191 255
148 191 255
148 191 255
148 191 255
148 191 255
148 191 255
148 191 255
148 191 255
148 191 255
148 191 255
148 191 255
148 191 255
148 191 255
148 191 255
149 191 255
149 191 255
149 191 255
149 191 255
149 192 255
149 192 255
149 192 255
149 192 255
149 192 255
149 192 255
149 192 255
149 192 255
150 192 255
150 192 255
150 192 255
150 192 255
150 192 255
150 192 255
150 192 255
150 192 255
150 192 255
150 192 255
151 193 255
151 193 255
151 193 255
151 193 255
151 193 255
151 193 255
151 193 255
151 193 255
151 193 255
151 193 255
152 193 255
152 193 255
152 193 255
152 193 255
152 193 255
152 193 255
152 193 255
152 194 255
152 194 255
152 194 255
153 194 255
153 194 255
153 194 255
153 194 255
153 194 255
153 194 255
153 194 255
153 194 255
153 194 255
154 194 255
154 194 255
154 194 255
154 195 255
154 195 255
154 195 255
154 195 255
154 195 255
154 195 255
155 195 255
155 195 255
155 195 255
155 195 255
155 195 255
155 195 255
155 195 255
155 195 255
155 195 255
156 196 255
156 196 255
156 196 255
156 196 255
156 196 255
156 196 255
156 196 255
156 196 255
156 196 255
157 196 255
157 196 255
157 196 255
157 196 255
157 196 255
157 196 255
157 196 255
157 197 255
157 197 255
157 197 255
158 197 255
158 197 255
158 197 255
158 197 255
158 197 255
158 197 255
158 197 255
158 197 255
158 197 255
159 197 255
159 197 255
159 197 255
159 197 255
159 198 255
159 198 255
159 198 255
159 198 255
159 198 255
159 198 255
160 198 255
160 198 255
160 198 255
160 198 255
160 198 255
160 198 255
160 198 255
160 198 255
160 198 255
160 198 255
161 199 255
161 199 255
161 199 255
161 199 255
161 199 255
161 199 255
161 199 255
161 199 255
161 199 255
161 199 255
161 199 255
162 199 255
162 199 255
162 199 255
162 199 255
162 199 255
162 199 255
162 199 255
162 200 255
162 200 255
162 200 255
162 200 255
163 200 255
163 200 255
163 200 255
163 200 255
163 200 255
163 200 255
163 200 255
163 200 255
163 200 255
163 200 255
163 200 255
164 200 255
164 200 255
163 200 255
163 200 255
163 200 255
163 200 255
163 200 255
163 200 255
163 200 255
163 200 255
163 200 255
163 200 255
163 200 255
162 200 255
162 200 255
162 200 255
162 200 255
162 199 255
162 199 255
162 199 255
162 199 255
162 199 255
162 199 255
162 199 255
161 199 255
161 199 255
161 199 255
161 199 255
161 199 255
161 199 255
161 199 255
161 199 255
161 199 255
161 199 255
160 198 255
160 198 255
160 198 255
160 198 255
160 198 255
160 198 255
160 198 255
160 198 255
160 198 255
160 198 255
159 198 255
159 198 255
159 198 255
159 198 255
159 198 255
159 198 255
159 197 255
159 197 255
159 197 255
159 197 255
158 197 255
158 197 255
158 197 255
158 197 255
158 197 255
158 197 255
158 197 255
158 197 255
158 197 255
157 197 255
157 197 255
157 197 255
157 196 255
157 196 255
157 196 255
157 196 255
157 196 255
157 196 255
156 196 255
156 196 255
156 196 255
156 196 255
156 196 255
156 196 255
156 196 255
156 196 255
156 196 255
155 195 255
155 195 255
155 195 255
155 195 255
155 195 255
155 195 255
155 195 255
155 195 255
155 195 255
155 195 255
154 195 255
154 195 255
154 195 255
154 195 255
154 195 255
154 195 255
154 194 255
154 194 255
154 194 255
153 194 255
153 194 255
153 194 255
153 194 255
153 194 255
153 194 255
153 194 255
153 194 255
153 194 255
152 194 255
152 194 255
152 194 255
152 193 255
152 193 255
152 193 255
152 193 255
152 193 255
152 193 255
152 193 255
151 193 255
151 193 255
151 193 255
151 193 255
151 193 255
151 193 255
151 193 255
151 193 255
151 193 255
151 193 255
150 192 255
150 192 255
150 192 255
150 192 255
150 192 255
150 192 255
150 192 255
150 192 255
150 192 255
150 192 255
149 192 255
149 192 255
149 192 255
149 192 255
149 192 255
149 192 255
149 192 255
149 192 255
149 191 255
149 191 255
149 191 255
149 191 255
148 191 255
148 191 255
148 191 255
148 191 255
148 191 255
148 191 255
148 191 255
148 191 255
148 191 255
148 191 255
148 191 255
148 191 255
148 191 255
148 191 255
148 191 255
147 191 255
147 191 255
147 191 255
147 191 255
147 191 255
147 191 255
147 191 255
147 190 255
147 190 255
147 190 255
147 190 255
147 190 255
147 190 255
147 190 255
147 190 255
147 190 255
147 190 255
147 190 255
147 190 255
147 190 255
147 190 255
147 190 255
147 190 255
147 190 255
147 190 255
147 190 255
147 190 255
147 190 255
147 190 255
147 190 255
147 190 255
147 190 255
147 190 255
147 190 255
147 190 255
147 190 255
147 190 255
147 190 255
147 190 255
147 190 255
147 190 255
147 190 255
147 190 255
147 190 255
147 190 255
147 190 255
147 190 255
147 190 255
147 190 255
147 190 255
147 190 255
147 190 255
147 190 255
147 190 255
147 190 255
147 190 255
147 190 255
147 190 255
147 190 255
147 191 255
147 191 255
147 191 255
147 191 255
147 191 255
147 191 255
147 191 255
148 191 255
148 191 255
148 191 255
148 191 255
148 191 255
148 191 255
148 191 255
148 191 255
148 191 255
148 191 255
148 191 255
148 191 255
148 191 255
148 191 255
148 191 255
148 191 255
149 191 255
149 191 255
149 191 255
149 191 255
149 192 255
149 192 255
149 192 255
149 192 255
149 192 255
149 192 255
149 192 255
149 192 255
150 192 255
150 192 255
150 192 255
150 192 255
150 192 255
150 192 255
150 192 255
150 192 255
150 192 255
150 192 255
151 193 255
151 193 255
151 193 255
151 193 255
151 193 255
151 193 255
151 193 255
151 193 255
151 193 255
151 193 255
152 193 255
152 193 255
152 193 255
152 193 255
152 193 255
152 193 255
152 193 255
152 194 255
152 194 255
152 194 255
153 194 255
153 194 255
153 194 255
153 194 255
153 194 255
153 194 255
153 194 255
153 194 255
153 194 255
154 194 255
154 194 255
154 194 255
154 195 255
154 195 255
154 195 255
154 195 255
154 195 255
154 195 255
155 195 255
155 195 255
155 195 255
155 195 255
155 195 255
155 195 255
155 195 255
155 195 255
155 195 255
156 196 255
156 196 255
156 196 255
156 196 255
156 196 255
156 196 255
156 196 255
156 196 255
156 196 255
157 196 255
157 196 255
157 196 255
157 196 255
157 196 255
157 196 255
157 196 255
157 197 255
157 197 255
157 197 255
158 197 255
158 197 255
158 197 255
158 197 255
158 197 255
158 197 255
158 197 255
158 197 255
158 197 255
159 197 255
159 197 255
159 197 255
159 198 255
159 198 255
159 198 255
159 198 255
159 198 255
159 198 255
159 198 255
160 198 255
160 198 255
160 198 255
160 198 255
160 198 255
160 198 255
160 198 255
160 198 255
160 198 255
160 198 255
161 199 255
161 199 255
161 199 255
161 199 255
161 199 255
161 199 255
161 199 255
161 199 255
161 199 255
161 199 255
162 199 255
162 199 255
162 199 255
162 199 255
162 199 255
162 199 255
162 199 255
162 199 255
162 200 255
162 200 255
162 200 255
163 200 255
163 200 255
163 200 255
163 200 255
163 200 255
163 200 255
163 200 255
163 200 255
163 200 255
163 200 255
163 200 255
164 200 255
164 200 255
164 200 255
164 200 255
164 200 255
164 200 255
164 200 255
163 200 255
163 200 255
163 200 255
163 200 255
163 200 255
163 200 255
163 200 255
163 200 255
163 200 255
163 200 255
163 200 255
162 200 255
162 200 255
162 200 255
162 200 255
162 199 255
162 199 255
162 199 255
162 199 255
162 199 255
162 199 255
162 199 255
161 199 255
161 199 255
161 199 255
161 199 255
161 199 255
161 199 255
161 199 255
161 199 255
161 199 255
161 199 255
160 198 255
160 198 255
160 198 255
160 198 255
160 198 255
160 198 255
160 198 255
160 198 255
160 198 255
160 198 255
159 198 255
159 198 255
159 198 255
159 198 255
159 198 255
159 198 255
159 198 255
159 197 255
159 197 255
159 197 255
158 197 255
158 197 255
158 197 255
158 197 255
158 197 255
158 197 255
158 197 255
158 197 255
158 197 255
157 197 255
157 197 255
157 197 255
157 196 255
157 196 255
157 196 255
157 196 255
157 196 255
157 196 255
156 196 255
156 196 255
156 196 255
156 196 255
156 196 255
156 196 255
156 196 255
156 196 255
156 196 255
156 196 255
155 195 255
155 195 255
155 195 255
155 195 255
155 195 255
155 195 255
155 195 255
155 195 255
155 195 255
154 195 255
154 195 255
154 195 255
154 195 255
154 195 255
154 195 255
154 194 255
154 194 255
154 194 255
153 194 255
153 194 255
153 194 255
153 194 255
153 194 255
153 194 255
153 194 255
153 194 255
153 194 255
152 194 255
152 194 255
152 194 255
152 193 255
152 193 255
152 193 255
152 193 255
152 193 255
152 193 255
152 193 255
151 193 255
151 193 255
151 193 255
151 193 255
151 193 255
151 193 255
151 193 255
151 193 255
151 193 255
151 193 255
150 192 255
150 192 255
150 192 255
150 192 255
150 192 255
150 192 255
150 192 255
150 192 255
150 192 255
150 192 255
150 192 255
149 192 255
149 192 255
149 192 255
149 192 255
149 192 255
149 192 255
149 192 255
149 192 255
149 191 255
149 191 255
149 191 255
149 191 255
148 191 255
148 191 255
148 191 255
148 191 255
148 191 255
148 191 255
148 191 255
148 191 255
148 191 255
148 191 255
148 191 255
148 191 255
148 191 255
148 191 255
148 191 255
148 191 255
148 191 255
147 191 255
147 191 255
147 191 255
147 191 255
147 191 255
147 191 255
147 191 255
147 190 255
147 190 255
147 190 255
147 190 255
147 190 255
147 190 255
147 190 255
147 190 255
147 190 255
147 190 255
147 190 255
147 190 255
147 190 255
147 190 255
147 190 255
147 190 255
147 190 255
147 190 255
147 190 255
147 190 255
147 190 255
147 190 255
147 190 255
147 190 255
147 190 255
147 190 255
147 190 255
147 190 255
147 190 255
147 190 255
147 190 255
147 190 255
147 190 255
147 190 255
147 190 255
147 190 255
147 190 255
147 190 255
147 190 255
147 190 255
147 190 255
147 190 255
147 190 255
147 191 255
147 191 255
147 191 255
147 191 255
147 191 255
147 191 255
147 191 255
148 191 255
148 191 255
148 191 255
148 191 255
148 191 255
148 191 255
148 191 255
148 191 255
148 191 255
148 191 255
148 191 255
148 191 255
148 191 255
148 191 255
148 191 255
148 191 255
148 191 255
149 191 255
149 191 255
149 191 255
149 191 255
149 192 255
149 192 255
149 192 255
149 192 255
149 192 255
149 192 255
149 192 255
149 192 255
150 192 255
150 192 255
150 192 255
150 192 255
150 192 255
150 192 255
150 192 255
150 192 255
150 192 255
150 192 255
150 192 255
151 193 255
151 193 255
151 193 255
151 193 255
151 193 255
151 193 255
151 193 255
151 193 255
151 193 255
151 193 255
152 193 255
152 193 255
152 193 255
152 193 255
152 193 255
152 193 255
152 194 255
152 194 255
152 194 255
152 194 255
153 194 255
153 194 255
153 194 255
153 194 255
153 194 255
153 194 255
153 194 255
153 194 255
153 194 255
154 194 255
154 194 255
154 194 255
154 195 255
154 195 255
154 195 255
154 195 255
154 195 255
154 195 255
155 195 255
155 195 255
155 195 255
155 195 255
155 195 255
155 195 255
155 195 255
155 195 255
155 195 255
156 196 255
156 196 255
156 196 255
156 196 255
156 196 255
156 196 255
156 196 255
156 196 255
156 196 255
157 196 255
157 196 255
157 196 255
157 196 255
157 196 255
157 196 255
157 196 255
157 197 255
157 197 255
157 197 255
158 197 255
158 197 255
158 197 255
158 197 255
158 197 255
158 197 255
158 197 255
158 197 255
158 197 255
159 197 255
159 197 255
159 197 255
159 197 255
159 198 255
159 198 255
159 198 255
159 198 255
159 198 255
159 198 255
160 198 255
160 198 255
160 198 255
160 198 255
160 198 255
160 198 255
160 198 255
160 198 255
160 198 255
160 198 255
161 199 255
161 199 255
161 199 255
161 199 255
161 199 255
161 199 255
161 199 255
161 199 255
161 199 255
161 199 255
162 199 255
162 199 255
162 199 255
162 199 255
162 199 255
162 199 255
162 199 255
162 200 255
162 200 255
162 200 255
162 200 255
163 200 255
163 200 255
163 200 255
163 200 255
163 200 255
163 200 255
163 200 255
163 200 255
163 200 255
163 200 255
163 200 255
164 200 255
164 200 255
164 200 255
164 200 255
164 201 255
164 201 255
164 201 255
164 200 255
164 200 255
164 200 255
164 200 255
163 200 255
163 200 255
163 200 255
163 200 255
163 200 255
163 200 255
163 200 255
163 200 255
163 200 255
163 200 255
163 200 255
162 200 255
162 200 255
162 200 255
162 200 255
162 199 255
162 199 255
162 199 255
162 199 255
162 199 255
162 199 255
162 199 255
161 199 255
161 199 255
161 199 255
161 199 255
161 199 255
161 199 255
161 199 255
161 199 255
161 199 255
161 199 255
160 198 255
160 198 255
160 198 255
160 198 255
160 198 255
160 198 255
160 198 255
160 198 255
160 198 255
160 198 255
159 198 255
159 198 255
159 198 255
159 198 255
159 198 255
159 198 255
159 198 255
159 197 255
159 197 255
159 197 255
158 197 255
158 197 255
158 197 255
158 197 255
158 197 255
158 197 255
158 197 255
158 197 255
158 197 255
158 197 255
157 197 255
157 197 255
157 197 255
157 196 255
157 196 255
157 196 255
157 196 255
157 196 255
157 196 255
156 196 255
156 196 255
156 196 255
156 196 255
156 196 255
156 196 255
156 196 255
156 196 255
156 196 255
155 195 255
155 195 255
155 195 255
155 195 255
155 195 255
155 195 255
155 195 255
155 195 255
155 195 255
154 195 255
154 195 255
154 195 255
154 195 255
154 195 255
154 195 255
154 194 255
154 194 255
154 194 255
153 194 255
153 194 255
153 194 255
153 194 255
153 194 255
153 194 255
153 194 255
153 194 255
153 194 255
152 194 255
152 194 255
152 194 255
152 194 255
152 193 255
152 193 255
152 193 255
152 193 255
152 193 255
152 193 255
151 193 255
151 193 255
151 193 255
151 193 255
151 193 255
151 193 255
151 193 255
151 193 255
151 193 255
151 193 255
150 192 255
150 192 255
150 192 255
150 192 255
150 192 255
150 192 255
150 192 255
150 192 255
150 192 255
150 192 255
150 192 255
149 192 255
149 192 255
149 192 255
149 192 255
149 192 255
149 192 255
149 192 255
149 192 255
149 192 255
149 191 255
149 191 255
149 191 255
149 191 255
148 191 255
148 191 255
148 191 255
148 191 255
148 191 255
148 191 255
148 191 255
148 191 255
148 191 255
148 191 255
148 191 255
148 191 255
148 191 255
148 191 255
148 191 255
148 191 255
148 191 255
148 191 255
147 191 255
147 191 255
147 191 255
147 191 255
147 191 255
147 191 255
147 191 255
147 191 255
147 191 255
147 191 255
147 190 255
147 190 255
147 190 255
147 190 255
147 190 255
147 190 255
147 190 255
147 190 255
147 190 255
147 190 255
147 190 255
147 190 255
147 190 255
147 190 255
147 190 255
147 190 255
147 190 255
147 190 255
147 190 255
147 190 255
147 190 255
147 190 255
147 190 255
147 190 255
147 190 255
147 190 255
147 190 255
147 190 255
147 190 255
147 191 255
147 191 255
147 191 255
147 191 255
147 191 255
147 191 255
147 191 255
147 191 255
147 191 255
147 191 255
148 191 255
148 191 255
148 191 255
148 191 255
148 191 255
148 191 255
148 191 255
148 191 255
148 191 255
148 191 255
148 191 255
148 191 255
148 191 255
148 191 255
148 191 255
148 191 255
148 191 255
149 191 255
149 191 255
149 191 255
149 191 255
149 191 255
149 192 255
149 192 255
149 192 255
149 192 255
149 192 255
149 192 255
149 192 255
149 192 255
149 192 255
150 192 255
150 192 255
150 192 255
150 192 255
150 192 255
150 192 255
150 192 255
150 192 255
150 192 255
150 192 255
150 192 255
151 193 255
151 193 255
151 193 255
151 193 255
151 193 255
151 193 255
151 193 255
151 193 255
151 193 255
151 193 255
152 193 255
152 193 255
152 193 255
152 193 255
152 193 255
152 193 255
152 194 255
152 194 255
152 194 255
152 194 255
153 194 255
153 194 255
153 194 255
153 194 255
153 194 255
153 194 255
153 194 255
153 194 255
153 194 255
154 194 255
154 194 255
154 194 255
154 195 255
154 195 255
154 195 255
154 195 255
154 195 255
154 195 255
155 195 255
155 195 255
155 195 255
155 195 255
155 195 255
155 195 255
155 195 255
155 195 255
155 195 255
156 196 255
156 196 255
156 196 255
156 196 255
156 196 255
156 196 255
156 196 255
156 196 255
156 196 255
157 196 255
157 196 255
157 196 255
157 196 255
157 196 255
157 196 255
157 197 255
157 197 255
157 197 255
157 197 255
158 197 255
158 197 255
158 197 255
158 197 255
158 197 255
158 197 255
158 197 255
158 197 255
158 197 255
159 197 255
159 197 255
159 197 255
159 198 255
159 198 255
159 198 255
159 198 255
159 198 255
159 198 255
159 198 255
160 198 255
160 198 255
160 198 255
160 198 255
160 198 255
160 198 255
160 198 255
160 198 255
160 198 255
160 198 255
161 199 255
161 199 255
161 199 255
161 199 255
161 199 255
161 199 255
161 199 255
161 199 255
161 199 255
161 199 255
162 199 255
162 199 255
162 199 255
162 199 255
162 199 255
162 199 255
162 199 255
162 200 255
162 200 255
162 200 255
162 200 255
163 200 255
163 200 255
163 200 255
163 200 255
163 200 255
163 200 255
163 200 255
163 200 255
163 200 255
163 200 255
163 200 255
164 200 255
164 200 255
164 200 255
164 200 255
164 201 255
164 201 255
164 201 255
164 201 255
164 201 255
164 201 255
164 201 255
164 201 255
164 200 255
164 200 255
164 200 255
164 200 255
163 200 255
163 200 255
163 200 255
163 200 255
163 200 255
163 200 255
163 200 255
163 200 255
163 200 255
163 200 255
163 200 255
162 200 255
162 200 255
162 200 255
162 200 255
162 199 255
162 199 255
162 199 255
162 199 255
162 199 255
162 199 255
161 199 255
161 199 255
161 199 255
161 199 255
161 199 255
161 199 255
161 199 255
161 199 255
161 199 255
161 199 255
161 199 255
160 198 255
160 198 255
160 198 255
160 198 255
160 198 255
160 198 255
160 198 255
160 198 255
160 198 255
160 198 255
159 198 255
159 198 255
159 198 255
159 198 255
159 198 255
159 198 255
159 197 255
159 197 255
159 197 255
158 197 255
158 197 255
158 197 255
158 197 255
158 197 255
158 197 255
158 197 255
158 197 255
158 197 255
157 197 255
157 197 255
157 197 255
157 197 255
157 196 255
157 196 255
157 196 255
157 196 255
157 196 255
157 196 255
156 196 255
156 196 255
156 196 255
156 196 255
156 196 255
156 196 255
156 196 255
156 196 255
156 196 255
155 195 255
155 195 255
155 195 255
155 195 255
155 195 255
155 195 255
155 195 255
155 195 255
155 195 255
154 195 255
154 195 255
154 195 255
154 195 255
154 195 255
154 195 255
154 194 255
154 194 255
154 194 255
153 194 255
153 194 255
153 194 255
153 194 255
153 194 255
153 194 255
153 194 255
153 194 255
153 194 255
153 194 255
152 194 255
152 194 255
152 194 255
152 193 255
152 193 255
152 193 255
152 193 255
152 193 255
152 193 255
152 193 255
151 193 255
151 193 255
151 193 255
151 193 255
151 193 255
151 193 255
151 193 255
151 193 255
151 193 255
151 193 255
150 192 255
150 192 255
150 192 255
150 192 255
150 192 255
150 192 255
150 192 255
150 192 255
150 192 255
150 192 255
150 192 255
149 192 255
149 192 255
149 192 255
149 192 255
149 192 255
149 192 255
149 192 255
149 192 255
149 192 255
149 191 255
149 191 255
149 191 255
149 191 255
149 191 255
148 191 255
148 191 255
148 191 255
148 191 255
148 191 255
148 191 255
148 191 255
148 191 255
148 191 255
148 191 255
148 191 255
148 191 255
148 191 255
148 191 255
148 191 255
148 191 255
148 191 255
148 191 255
148 191 255
148 191 255
147 191 255
147 191 255
147 191 255
147 191 255
147 191 255
147 191 255
147 191 255
147 191 255
147 191 255
147 191 255
147 191 255
147 191 255
147 191 255
147 191 255
147 191 255
147 191 255
147 191 255
147 191 255
147 191 255
147 191 255
147 191 255
147 191 255
147 191 255
147 191 255
147 191 255
147 191 255
147 191 255
147 191 255
147 191 255
147 191 255
147 191 255
147 191 255
147 191 255
147 191 255
147 191 255
147 191 255
147 191 255
148 191 255
148 191 255
148 191 255
148 191 255
148 191 255
148 191 255
148 191 255
148 191 255
148 191 255
148 191 255
148 191 255
148 191 255
148 191 255
148 191 255
148 191 255
148 191 255
148 191 255
148 191 255
148 191 255
148 191 255
149 191 255
149 191 255
149 191 255
149 191 255
149 191 255
149 192 255
149 192 255
149 192 255
149 192 255
149 192 255
149 192 255
149 192 255
149 192 255
149 192 255
150 192 255
150 192 255
150 192 255
150 192 255
150 192 255
150 192 255
150 192 255
150 192 255
150 192 255
150 192 255
150 192 255
151 193 255
151 193 255
151 193 255
151 193 255
151 193 255
151 193 255
151 193 255
151 193 255
151 193 255
151 193 255
151 193 255
152 193 255
152 193 255
152 193 255
152 193 255
152 193 255
152 193 255
152 194 255
152 194 255
152 194 255
153 194 255
153 194 255
153 194 255
153 194 255
153 194 255
153 194 255
153 194 255
153 194 255
153 194 255
153 194 255
154 194 255
154 194 255
154 194 255
154 195 255
154 195 255
154 195 255
154 195 255
154 195 255
154 195 255
155 195 255
155 195 255
155 195 255
155 195 255
155 195 255
155 195 255
155 195 255
155 195 255
155 195 255
156 196 255
156 196 255
156 196 255
156 196 255
156 196 255
156 196 255
156 196 255
156 196 255
156 196 255
157 196 255
157 196 255
157 196 255
157 196 255
157 196 255
157 196 255
157 196 255
157 197 255
157 197 255
157 197 255
158 197 255
158 197 255
158 197 255
158 197 255
158 197 255
158 197 255
158 197 255
158 197 255
158 197 255
159 197 255
159 197 255
159 197 255
159 198 255
159 198 255
159 198 255
159 198 255
159 198 255
159 198 255
160 198 255
160 198 255
160 198 255
160 198 255
160 198 255
160 198 255
160 198 255
160 198 255
160 198 255
160 198 255
161 199 255
161 199 255
161 199 255
161 199 255
161 199 255
161 199 255
161 199 255
161 199 255
161 199 255
161 199 255
161 199 255
162 199 255
162 199 255
162 199 255
162 199 255
162 199 255
162 199 255
162 199 255
162 200 255
162 200 255
162 200 255
163 200 255
163 200 255
163 200 255
163 200 255
163 200 255
163 200 255
163 200 255
163 200 255
163 200 255
163 200 255
163 200 255
164 200 255
164 200 255
164 200 255
164 200 255
164 201 255
164 201 255
164 201 255
164 201 255
164 201 255
164 201 255
164 201 255
164 201 255
164 201 255
164 201 255
164 201 255
164 201 255
164 201 255
164 200 255
164 200 255
164 200 255
164 200 255
163 200 255
163 200 255
163 200 255
163 200 255
163 200 255
163 200 255
163 200 255
163 200 255
163 200 255
163 200 255
163 200 255
162 200 255
162 200 255
162 200 255
162 200 255
162 199 255
162 199 255
162 199 255
162 199 255
162 199 255
162 199 255
162 199 255
161 199 255
161 199 255
161 199 255
161 199 255
161 199 255
161 199 255
161 199 255
161 199 255
161 199 255
161 199 255
160 198 255
160 198 255
160 198 255
160 198 255
160 198 255
160 198 255
160 198 255
160 198 255
160 198 255
160 198 255
159 198 255
159 198 255
159 198 255
159 198 255
159 198 255
159 198 255
159 197 255
159 197 255
159 197 255
158 197 255
158 197 255
158 197 255
158 197 255
158 197 255
158 197 255
158 197 255
158 197 255
158 197 255
158 197 255
157 197 255
157 197 255
157 197 255
157 196 255
157 196 255
157 196 255
157 196 255
157 196 255
157 196 255
156 196 255
156 196 255
156 196 255
156 196 255
156 196 255
156 196 255
156 196 255
156 196 255
156 196 255
155 195 255
155 195 255
155 195 255
155 195 255
155 195 255
155 195 255
155 195 255
155 195 255
155 195 255
154 195 255
154 195 255
154 195 255
154 195 255
154 195 255
154 195 255
154 194 255
154 194 255
154 194 255
153 194 255
153 194 255
153 194 255
153 194 255
153 194 255
153 194 255
153 194 255
153 194 255
153 194 255
153 194 255
152 194 255
152 194 255
152 194 255
152 193 255
152 193 255
152 193 255
152 193 255
152 193 255
152 193 255
152 193 255
151 193 255
151 193 255
151 193 255
151 193 255
151 193 255
151 193 255
151 193 255
151 193 255
151 193 255
151 193 255
150 192 255
150 192 255
150 192 255
150 192 255
150 192 255
150 192 255
150 192 255
150 192 255
150 192 255
150 192 255
150 192 255
150 192 255
149 192 255
149 192 255
149 192 255
149 192 255
149 192 255
149 192 255
149 192 255
149 192 255
149 192 255
149 191 255
149 191 255
149 191 255
149 191 255
149 191 255
148 191 255
148 191 255
148 191 255
148 191 255
148 191 255
148 191 255
148 191 255
148 191 255
148 191 255
148 191 255
148 191 255
148 191 255
148 191 255
148 191 255
148 191 255
148 191 255
148 191 255
148 191 255
148 191 255
148 191 255
148 191 255
148 191 255
148 191 255
148 191 255
148 191 255
147 191 255
147 191 255
147 191 255
147 191 255
147 191 255
147 191 255
147 191 255
147 191 255
147 191 255
147 191 255
147 191 255
147 191 255
147 191 255
147 191 255
147 191 255
147 191 255
147 191 255
147 191 255
147 191 255
147 191 255
148 191 255
148 191 255
148 191 255
148 191 255
148 191 255
148 191 255
148 191 255
148 191 255
148 191 255
148 191 255
148 191 255
148 191 255
148 191 255
148 191 255
148 191 255
148 191 255
148 191 255
148 191 255
148 191 255
148 191 255
148 191 255
148 191 255
148 191 255
148 191 255
148 191 255
149 191 255
149 191 255
149 191 255
149 191 255
149 191 255
149 191 255
149 192 255
149 192 255
149 192 255
149 192 255
149 192 255
149 192 255
149 192 255
149 192 255
149 192 255
150 192 255
150 192 255
150 192 255
150 192 255
150 192 255
150 192 255
150 192 255
150 192 255
150 192 255
150 192 255
150 192 255
150 192 255
151 193 255
151 193 255
151 193 255
151 193 255
151 193 255
151 193 255
151 193 255
151 193 255
151 193 255
151 193 255
151 193 255
152 193 255
152 193 255
152 193 255
152 193 255
152 193 255
152 193 255
152 194 255
152 194 255
152 194 255
153 194 255
153 194 255
153 194 255
153 194 255
153 194 255
153 194 255
153 194 255
153 194 255
153 194 255
153 194 255
154 194 255
154 194 255
154 194 255
154 195 255
154 195 255
154 195 255
154 195 255
154 195 255
154 195 255
155 195 255
155 195 255
155 195 255
155 195 255
155 195 255
155 195 255
155 195 255
155 195 255
155 195 255
156 196 255
156 196 255
156 196 255
156 196 255
156 196 255
156 196 255
156 196 255
156 196 255
156 196 255
157 196 255
157 196 255
157 196 255
157 196 255
157 196 255
157 196 255
157 197 255
157 197 255
157 197 255
158 197 255
158 197 255
158 197 255
158 197 255
158 197 255
158 197 255
158 197 255
158 197 255
158 197 255
158 197 255
159 197 255
159 197 255
159 197 255
159 198 255
159 198 255
159 198 255
159 198 255
159 198 255
159 198 255
160 198 255
160 198 255
160 198 255
160 198 255
160 198 255
160 198 255
160 198 255
160 198 255
160 198 255
160 198 255
161 199 255
161 199 255
161 199 255
161 199 255
161 199 255
161 199 255
161 199 255
161 199 255
161 199 255
161 199 255
162 199 255
162 199 255
162 199 255
162 199 255
162 199 255
162 199 255
162 199 255
162 200 255
162 200 255
162 200 255
162 200 255
163 200 255
163 200 255
163 200 255
163 200 255
163 200 255
163 200 255
163 200 255
163 200 255
163 200 255
163 200 255
163 200 255
164 200 255
164 200 255
164 200 255
164 200 255
164 201 255
164 201 255
164 201 255
164 201 255
164 201 255
164 201 255
164 201 255
165 201 255
165 201 255
165 201 255
164 201 255
164 201 255
164 201 255
164 201 255
164 201 255
164 201 255
164 201 255
164 201 255
164 200 255
164 200 255
164 200 255
164 200 255
163 200 255
163 200 255
163 200 255
163 200 255
163 200 255
163 200 255
163 200 255
163 200 255
163 200 255
163 200 255
162 200 255
162 200 255
162 200 255
162 200 255
162 199 255
162 199 255
162 199 255
162 199 255
162 199 255
162 199 255
162 199 255
161 199 255
161 199 255
161 199 255
161 199 255
161 199 255
161 199 255
161 199 255
161 199 255
161 199 255
161 199 255
160 198 255
160 198 255
160 198 255
160 198 255
160 198 255
160 198 255
160 198 255
160 198 255
160 198 255
160 198 255
159 198 255
159 198 255
159 198 255
159 198 255
159 198 255
159 198 255
159 197 255
159 197 255
159 197 255
158 197 255
158 197 255
158 197 255
158 197 255
158 197 255
158 197 255
158 197 255
158 197 255
158 197 255
158 197 255
157 197 255
157 197 255
157 197 255
157 196 255
157 196 255
157 196 255
157 196 255
157 196 255
157 196 255
156 196 255
156 196 255
156 196 255
156 196 255
156 196 255
156 196 255
156 196 255
156 196 255
156 196 255
155 195 255
155 195 255
155 195 255
155 195 255
155 195 255
155 195 255
155 195 255
155 195 255
155 195 255
154 195 255
154 195 255
154 195 255
154 195 255
154 195 255
154 195 255
154 194 255
154 194 255
154 194 255
153 194 255
153 194 255
153 194 255
153 194 255
153 194 255
153 194 255
153 194 255
153 194 255
153 194 255
153 194 255
152 194 255
152 194 255
152 194 255
152 193 255
152 193 255
152 193 255
152 193 255
152 193 255
152 193 255
152 193 255
151 193 255
151 193 255
151 193 255
151 193 255
151 193 255
151 193 255
151 193 255
151 193 255
151 193 255
151 193 255
151 193 255
150 192 255
150 192 255
150 192 255
150 192 255
150 192 255
150 192 255
150 192 255
150 192 255
150 192 255
150 192 255
150 192 255
150 192 255
149 192 255
149 192 255
149 192 255
149 192 255
149 192 255
149 192 255
149 192 255
149 192 255
149 192 255
149 191 255
149 191 255
149 191 255
149 191 255
149 191 255
149 191 255
148 191 255
148 191 255
148 191 255
148 191 255
148 191 255
148 191 255
148 191 255
148 191 255
148 191 255
148 191 255
148 191 255
148 191 255
148 191 255
148 191 255
148 191 255
148 191 255
148 191 255
148 191 255
148 191 255
148 191 255
148 191 255
148 191 255
148 191 255
148 191 255
148 191 255
148 191 255
148 191 255
148 191 255
148 191 255
148 191 255
148 191 255
148 191 255
148 191 255
148 191 255
148 191 255
148 191 255
148 191 255
148 191 255
148 191 255
148 191 255
148 191 255
148 191 255
148 191 255
148 191 255
148 191 255
148 191 255
148 191 255
148 191 255
148 191 255
148 191 255
148 191 255
148 191 255
148 191 255
148 191 255
148 191 255
148 191 255
148 191 255
148 191 255
148 191 255
148 191 255
148 191 255
148 191 255
148 191 255
149 191 255
149 191 255
149 191 255
149 191 255
149 191 255
149 192 255
149 192 255
149 192 255
149 192 255
149 192 255
149 192 255
149 192 255
149 192 255
149 192 255
149 192 255
150 192 255
150 192 255
150 192 255
150 192 255
150 192 255
150 192 255
150 192 255
150 192 255
150 192 255
150 192 255
150 192 255
150 192 255
151 193 255
151 193 255
151 193 255
151 193 255
151 193 255
151 193 255
151 193 255
151 193 255
151 193 255
151 193 255
151 193 255
152 193 255
152 193 255
152 193 255
152 193 255
152 193 255
152 193 255
152 193 255
152 194 255
152 194 255
152 194 255
153 194 255
153 194 255
153 194 255
153 194 255
153 194 255
153 194 255
153 194 255
153 194 255
153 194 255
154 194 255
154 194 255
154 194 255
154 194 255
154 195 255
154 195 255
154 195 255
154 195 255
154 195 255
154 195 255
155 195 255
155 195 255
155 195 255
155 195 255
155 195 255
155 195 255
155 195 255
155 195 255
155 195 255
156 196 255
156 196 255
156 196 255
156 196 255
156 196 255
156 196 255
156 196 255
156 196 255
156 196 255
157 196 255
157 196 255
157 196 255
157 196 255
157 196 255
157 196 255
157 197 255
157 197 255
157 197 255
158 197 255
158 197 255
158 197 255
158 197 255
158 197 255
158 197 255
158 197 255
158 197 255
158 197 255
158 197 255
159 197 255
159 197 255
159 197 255
159 198 255
159 198 255
159 198 255
159 198 255
159 198 255
159 198 255
160 198 255
160 198 255
160 198 255
160 198 255
160 198 255
160 198 255
160 198 255
160 198 255
160 198 255
160 198 255
161 199 255
161 199 255
161 199 255
161 199 255
161 199 255
161 199 255
161 199 255
161 199 255
161 199 255
161 199 255
162 199 255
162 199 255
162 199 255
162 199 255
162 199 255
162 199 255
162 199 255
162 200 255
162 200 255
162 200 255
163 200 255
163 200 255
163 200 255
163 200 255
163 200 255
163 200 255
163 200 255
163 200 255
163 200 255
163 200 255
163 200 255
163 200 255
164 200 255
164 200 255
164 200 255
164 201 255
164 201 255
164 201 255
164 201 255
164 201 255
164 201 255
164 201 255
164 201 255
165 201 255
165 201 255
165 201 255
165 201 255
165 201 255
165 201 255
165 201 255
165 201 255
164 201 255
164 201 255
164 201 255
164 201 255
164 201 255
164 201 255
164 201 255
164 200 255
164 200 255
164 200 255
164 200 255
163 200 255
163 200 255
163 200 255
163 200 255
163 200 255
163 200 255
163 200 255
163 200 255
163 200 255
163 200 255
163 200 255
162 200 255
162 200 255
162 200 255
162 199 255
162 199 255
162 199 255
162 199 255
162 199 255
162 199 255
162 199 255
161 199 255
161 199 255
161 199 255
161 199 255
161 199 255
161 199 255
161 199 255
161 199 255
161 199 255
161 199 255
160 198 255
160 198 255
160 198 255
160 198 255
160 198 255
160 198 255
160 198 255
160 198 255
160 198 255
160 198 255
159 198 255
159 198 255
159 198 255
159 198 255
159 198 255
159 198 255
159 197 255
159 197 255
159 197 255
159 197 255
158 197 255
158 197 255
158 197 255
158 197 255
158 197 255
158 197 255
158 197 255
158 197 255
158 197 255
157 197 255
157 197 255
157 197 255
157 196 255
157 196 255
157 196 255
157 196 255
157 196 255
157 196 255
156 196 255
156 196 255
156 196 255
156 196 255
156 196 255
156 196 255
156 196 255
156 196 255
156 196 255
155 195 255
155 195 255
155 195 255
155 195 255
155 195 255
155 195 255
155 195 255
155 195 255
155 195 255
154 195 255
154 195 255
154 195 255
154 195 255
154 195 255
154 195 255
154 194 255
154 194 255
154 194 255
154 194 255
153 194 255
153 194 255
153 194 255
153 194 255
153 194 255
153 194 255
153 194 255
153 194 255
153 194 255
152 194 255
152 194 255
152 194 255
152 194 255
152 193 255
152 193 255
152 193 255
152 193 255
152 193 255
152 193 255
151 193 255
151 193 255
151 193 255
151 193 255
151 193 255
151 193 255
151 193 255
151 193 255
151 193 255
151 193 255
151 193 255
150 192 255
150 192 255
150 192 255
150 192 255
150 192 255
150 192 255
150 192 255
150 192 255
150 192 255
150 192 255
150 192 255
150 192 255
150 192 255
149 192 255
149 192 255
149 192 255
149 192 255
149 192 255
149 192 255
149 192 255
149 192 255
149 192 255
149 192 255
149 191 255
149 191 255
149 191 255
149 191 255
149 191 255
149 191 255
149 191 255
148 191 255
148 191 255
148 191 255
148 191 255
148 191 255
148 191 255
148 191 255
148 191 255
148 191 255
148 191 255
148 191 255
148 191 255
148 191 255
148 191 255
148 191 255
148 191 255
148 191 255
148 191 255
148 191 255
148 191 255
148 191 255
148 191 255
148 191 255
148 191 255
148 191 255
148 191 255
148 191 255
148 191 255
148 191 255
148 191 255
148 191 255
148 191 255
148 191 255
148 191 255
148 191 255
148 191 255
148 191 255
148 191 255
148 191 255
148 191 255
148 191 255
148 191 255
148 191 255
148 191 255
148 191 255
148 191 255
148 191 255
148 191 255
148 191 255
148 191 255
148 191 255
148 191 255
148 191 255
149 191 255
149 191 255
149 191 255
149 191 255
149 191 255
149 191 255
149 191 255
149 192 255
149 192 255
149 192 255
149 192 255
149 192 255
149 192 255
149 192 255
149 192 255
149 192 255
149 192 255
150 192 255
150 192 255
150 192 255
150 192 255
150 192 255
150 192 255
150 192 255
150 192 255
150 192 255
150 192 255
150 192 255
150 192 255
150 192 255
151 193 255
151 193 255
151 193 255
151 193 255
151 193 255
151 193 255
151 193 255
151 193 255
151 193 255
151 193 255
151 193 255
152 193 255
152 193 255
152 193 255
152 193 255
152 193 255
152 193 255
152 193 255
152 194 255
152 194 255
152 194 255
153 194 255
153 194 255
153 194 255
153 194 255
153 194 255
153 194 255
153 194 255
153 194 255
153 194 255
154 194 255
154 194 255
154 194 255
154 195 255
154 195 255
154 195 255
154 195 255
154 195 255
154 195 255
154 195 255
155 195 255
155 195 255
155 195 255
155 195 255
155 195 255
155 195 255
155 195 255
155 195 255
155 195 255
156 196 255
156 196 255
156 196 255
156 196 255
156 196 255
156 196 255
156 196 255
156 196 255
156 196 255
157 196 255
157 196 255
157 196 255
157 196 255
157 196 255
157 196 255
157 197 255
157 197 255
157 197 255
158 197 255
158 197 255
158 197 255
158 197 255
158 197 255
158 197 255
158 197 255
158 197 255
158 197 255
158 197 255
159 197 255
159 197 255
159 197 255
159 198 255
159 198 255
159 198 255
159 198 255
159 198 255
159 198 255
160 198 255
160 198 255
160 198 255
160 198 255
160 198 255
160 198 255
160 198 255
160 198 255
160 198 255
160 198 255
161 199 255
161 199 255
161 199 255
161 199 255
161 199 255
161 199 255
161 199 255
161 199 255
161 199 255
161 199 255
162 199 255
162 199 255
162 199 255
162 199 255
162 199 255
162 199 255
162 199 255
162 200 255
162 200 255
162 200 255
163 200 255
163 200 255
163 200 255
163 200 255
163 200 255
163 200 255
163 200 255
163 200 255
163 200 255
163 200 255
163 200 255
164 200 255
164 200 255
164 200 255
164 200 255
164 201 255
164 201 255
164 201 255
164 201 255
164 201 255
164 201 255
164 201 255
164 201 255
165 201 255
165 201 255
165 201 255
165 201 255
165 201 255
165 201 255
165 201 255
165 201 255
165 201 255
165 201 255
165 201 255
165 201 255
164 201 255
164 201 255
164 201 255
164 201 255
164 201 255
164 201 255
164 201 255
164 201 255
164 200 255
164 200 255
164 200 255
163 200 255
163 200 255
163 200 255
163 200 255
163 200 255
163 200 255
163 200 255
163 200 255
163 200 255
163 200 255
163 200 255
162 200 255
162 200 255
162 200 255
162 199 255
162 199 255
162 199 255
162 199 255
162 199 255
162 199 255
162 199 255
162 199 255
161 199 255
161 199 255
161 199 255
161 199 255
161 199 255
161 199 255
161 199 255
161 199 255
161 199 255
161 199 255
160 198 255
160 198 255
160 198 255
160 198 255
160 198 255
160 198 255
160 198 255
160 198 255
160 198 255
159 198 255
159 198 255
159 198 255
159 198 255
159 198 255
159 198 255
159 198 255
159 197 255
159 197 255
159 197 255
158 197 255
158 197 255
158 197 255
158 197 255
158 197 255
158 197 255
158 197 255
158 197 255
158 197 255
157 197 255
157 197 255
157 197 255
157 196 255
157 196 255
157 196 255
157 196 255
157 196 255
157 196 255
156 196 255
156 196 255
156 196 255
156 196 255
156 196 255
156 196 255
156 196 255
156 196 255
156 196 255
155 195 255
155 195 255
155 195 255
155 195 255
155 195 255
155 195 255
155 195 255
155 195 255
155 195 255
154 195 255
154 195 255
154 195 255
154 195 255
154 195 255
154 195 255
154 195 255
154 194 255
154 194 255
154 194 255
153 194 255
153 194 255
153 194 255
153 194 255
153 194 255
153 194 255
153 194 255
153 194 255
153 194 255
153 194 255
152 194 255
152 194 255
152 194 255
152 193 255
152 193 255
152 193 255
152 193 255
152 193 255
152 193 255
152 193 255
151 193 255
151 193 255
151 193 255
151 193 255
151 193 255
151 193 255
151 193 255
151 193 255
151 193 255
151 193 255
151 193 255
150 192 255
150 192 255
150 192 255
150 192 255
150 192 255
150 192 255
150 192 255
150 192 255
150 192 255
150 192 255
150 192 255
150 192 255
150 192 255
149 192 255
149 192 255
149 192 255
149 192 255
149 192 255
149 192 255
149 192 255
149 192 255
149 192 255
149 192 255
149 192 255
149 191 255
149 191 255
149 191 255
149 191 255
149 191 255
149 191 255
149 191 255
149 191 255
148 191 255
148 191 255
148 191 255
148 191 255
148 191 255
148 191 255
148 191 255
148 191 255
148 191 255
148 191 255
148 191 255
148 191 255
148 191 255
148 191 255
148 191 255
148 191 255
148 191 255
148 191 255
148 191 255
148 191 255
148 191 255
148 191 255
148 191 255
148 191 255
148 191 255
148 191 255
148 191 255
148 191 255
148 191 255
148 191 255
148 191 255
148 191 255
148 191 255
148 191 255
148 191 255
148 191 255
148 191 255
148 191 255
148 191 255
148 191 255
148 191 255
148 191 255
148 191 255
149 191 255
149 191 255
149 191 255
149 191 255
149 191 255
149 191 255
149 191 255
149 191 255
149 192 255
149 192 255
149 192 255
149 192 255
149 192 255
149 192 255
149 192 255
149 192 255
149 192 255
149 192 255
149 192 255
150 192 255
150 192 255
150 192 255
150 192 255
150 192 255
150 192 255
150 192 255
150 192 255
150 192 255
150 192 255
150 192 255
150 192 255
150 192 255
151 193 255
151 193 255
151 193 255
151 193 255
151 193 255
151 193 255
151 193 255
151 193 255
151 193 255
151 193 255
151 193 255
152 193 255
152 193 255
152 193 255
152 193 255
152 193 255
152 193 255
152 193 255
152 194 255
152 194 255
152 194 255
153 194 255
153 194 255
153 194 255
153 194 255
153 194 255
153 194 255
153 194 255
153 194 255
153 194 255
153 194 255
154 194 255
154 194 255
154 194 255
154 195 255
154 195 255
154 195 255
154 195 255
154 195 255
154 195 255
155 195 255
155 195 255
155 195 255
155 195 255
155 195 255
155 195 255
155 195 255
155 195 255
155 195 255
155 195 255
156 196 255
156 196 255
156 196 255
156 196 255
156 196 255
156 196 255
156 196 255
156 196 255
156 196 255
157 196 255
157 196 255
157 196 255
157 196 255
157 196 255
157 196 255
157 197 255
157 197 255
157 197 255
158 197 255
158 197 255
158 197 255
158 197 255
158 197 255
158 197 255
158 197 255
158 197 255
158 197 255
159 197 255
159 197 255
159 197 255
159 198 255
159 198 255
159 198 255
159 198 255
159 198 255
159 198 255
159 198 255
160 198 255
160 198 255
160 198 255
160 198 255
160 198 255
160 198 255
160 198 255
160 198 255
160 198 255
160 198 255
161 199 255
161 199 255
161 199 255
161 199 255
161 199 255
161 199 255
161 199 255
161 199 255
161 199 255
162 199 255
162 199 255
162 199 255
162 199 255
162 199 255
162 199 255
162 199 255
162 200 255
162 200 255
162 200 255
162 200 255
163 200 255
163 200 255
163 200 255
163 200 255
163 200 255
163 200 255
163 200 255
163 200 255
163 200 255
163 200 255
163 200 255
164 200 255
164 200 255
164 200 255
164 201 255
164 201 255
164 201 255
164 201 255
164 201 255
164 201 255
164 201 255
164 201 255
165 201 255
165 201 255
165 201 255
165 201 255
165 201 255
165 201 255
165 201 255
165 201 255
165 201 255
165 201 255
165 201 255
165 201 255
165 201 255
165 201 255
165 201 255
165 201 255
165 201 255
164 201 255
164 201 255
164 201 255
164 201 255
164 201 255
164 201 255
164 201 255
164 201 255
164 200 255
164 200 255
164 200 255
164 200 255
163 200 255
163 200 255
163 200 255
163 200 255
163 200 255
163 200 255
163 200 255
163 200 255
163 200 255
163 200 255
162 200 255
162 200 255
162 200 255
162 200 255
162 199 255
162 199 255
162 199 255
162 199 255
162 199 255
162 199 255
162 199 255
161 199 255
161 199 255
161 199 255
161 199 255
161 199 255
161 199 255
161 199 255
161 199 255
161 199 255
161 199 255
160 198 255
160 198 255
160 198 255
160 198 255
160 198 255
160 198 255
160 198 255
160 198 255
160 198 255
159 198 255
159 198 255
159 198 255
159 198 255
159 198 255
159 198 255
159 198 255
159 197 255
159 197 255
159 197 255
158 197 255
158 197 255
158 197 255
158 197 255
158 197 255
158 197 255
158 197 255
158 197 255
158 197 255
157 197 255
157 197 255
157 197 255
157 196 255
157 196 255
157 196 255
157 196 255
157 196 255
157 196 255
157 196 255
156 196 255
156 196 255
156 196 255
156 196 255
156 196 255
156 196 255
156 196 255
156 196 255
156 196 255
155 195 255
155 195 255
155 195 255
155 195 255
155 195 255
155 195 255
155 195 255
155 195 255
155 195 255
154 195 255
154 195 255
154 195 255
154 195 255
154 195 255
154 195 255
154 194 255
154 194 255
154 194 255
153 194 255
153 194 255
153 194 255
153 194 255
153 194 255
153 194 255
153 194 255
153 194 255
153 194 255
153 194 255
152 194 255
152 194 255
152 194 255
152 193 255
152 193 255
152 193 255
152 193 255
152 193 255
152 193 255
152 193 255
151 193 255
151 193 255
151 193 255
151 193 255
151 193 255
151 193 255
151 193 255
151 193 255
151 193 255
151 193 255
151 193 255
151 193 255
150 192 255
150 192 255
150 192 255
150 192 255
150 192 255
150 192 255
150 192 255
150 192 255
150 192 255
150 192 255
150 192 255
150 192 255
150 192 255
150 192 255
149 192 255
149 192 255
149 192 255
149 192 255
149 192 255
149 192 255
149 192 255
149 192 255
149 192 255
149 192 255
149 192 255
149 192 255
149 191 255
149 191 255
149 191 255
149 191 255
149 191 255
149 191 255
149 191 255
149 191 255
149 191 255
149 191 255
148 191 255
148 191 255
148 191 255
148 191 255
148 191 255
148 191 255
148 191 255
148 191 255
148 191 255
148 191 255
148 191 255
148 191 255
148 191 255
148 191 255
148 191 255
148 191 255
148 191 255
148 191 255
148 191 255
148 191 255
148 191 255
148 191 255
148 191 255
148 191 255
148 191 255
148 191 255
148 191 255
148 191 255
148 191 255
149 191 255
149 191 255
149 191 255
149 191 255
149 191 255
149 191 255
149 191 255
149 191 255
149 191 255
149 191 255
149 192 255
149 192 255
149 192 255
149 192 255
149 192 255
149 192 255
149 192 255
149 192 255
149 192 255
149 192 255
149 192 255
149 192 255
150 192 255
150 192 255
150 192 255
150 192 255
150 192 255
150 192 255
150 192 255
150 192 255
150 192 255
150 192 255
150 192 255
150 192 255
150 192 255
150 192 255
151 193 255
151 193 255
151 193 255
151 193 255
151 193 255
151 193 255
151 193 255
151 193 255
151 193 255
151 193 255
151 193 255
152 193 255
152 193 255
152 193 255
152 193 255
152 193 255
152 193 255
152 193 255
152 193 255
152 194 255
152 194 255
152 194 255
153 194 255
153 194 255
153 194 255
153 194 255
153 194 255
153 194 255
153 194 255
153 194 255
153 194 255
153 194 255
154 194 255
154 194 255
154 194 255
154 195 255
154 195 255
154 195 255
154 195 255
154 195 255
154 195 255
155 195 255
155 195 255
155 195 255
155 195 255
155 195 255
155 195 255
155 195 255
155 195 255
155 195 255
156 196 255
156 196 255
156 196 255
156 196 255
156 196 255
156 196 255
156 196 255
156 196 255
156 196 255
156 196 255
157 196 255
157 196 255
157 196 255
157 196 255
157 196 255
157 196 255
157 197 255
157 197 255
157 197 255
158 197 255
158 197 255
158 197 255
158 197 255
158 197 255
158 197 255
158 197 255
158 197 255
158 197 255
159 197 255
159 197 255
159 197 255
159 198 255
159 198 255
159 198 255
159 198 255
159 198 255
159 198 255
159 198 255
160 198 255
160 198 255
160 198 255
160 198 255
160 198 255
160 198 255
160 198 255
160 198 255
160 198 255
161 199 255
161 199 255
161 199 255
161 199 255
161 199 255
161 199 255
161 199 255
161 199 255
161 199 255
161 199 255
162 199 255
162 199 255
162 199 255
162 199 255
162 199 255
162 199 255
162 199 255
162 200 255
162 200 255
162 200 255
162 200 255
163 200 255
163 200 255
163 200 255
163 200 255
163 200 255
163 200 255
163 200 255
163 200 255
163 200 255
163 200 255
164 200 255
164 200 255
164 200 255
164 200 255
164 201 255
164 201 255
164 201 255
164 201 255
164 201 255
164 201 255
164 201 255
165 201 255
165 201 255
165 201 255
165 201 255
165 201 255
165 201 255
165 201 255
165 201 255
165 201 255
165 201 255
165 201 255
165 201 255
165 201 255
165 201 255
165 201 255
165 201 255
165 201 255
165 201 255
165 201 255
165 201 255
165 201 255
165 201 255
165 201 255
164 201 255
164 201 255
164 201 255
164 201 255
164 201 255
164 201 255
164 201 255
164 201 255
164 200 255
164 200 255
164 200 255
163 200 255
163 200 255
163 200 255
163 200 255
163 200 255
163 200 255
163 200 255
163 200 255
163 200 255
163 200 255
163 200 255
162 200 255
162 200 255
162 200 255
162 199 255
162 199 255
162 199 255
162 199 255
162 199 255
162 199 255
162 199 255
161 199 255
161 199 255
161 199 255
161 199 255
161 199 255
161 199 255
161 199 255
161 199 255
161 199 255
161 199 255
160 198 255
160 198 255
160 198 255
160 198 255
160 198 255
160 198 255
160 198 255
160 198 255
160 198 255
160 198 255
159 198 255
159 198 255
159 198 255
159 198 255
159 198 255
159 198 255
159 197 255
159 197 255
159 197 255
158 197 255
158 197 255
158 197 255
158 197 255
158 197 255
158 197 255
158 197 255
158 197 255
158 197 255
158 197 255
157 197 255
157 197 255
157 196 255
157 196 255
157 196 255
157 196 255
157 196 255
157 196 255
156 196 255
156 196 255
156 196 255
156 196 255
156 196 255
156 196 255
156 196 255
156 196 255
156 196 255
156 196 255
155 195 255
155 195 255
155 195 255
155 195 255
155 195 255
155 195 255
155 195 255
155 195 255
155 195 255
154 195 255
154 195 255
154 195 255
154 195 255
154 195 255
154 195 255
154 194 255
154 194 255
154 194 255
154 194 255
153 194 255
153 194 255
153 194 255
153 194 255
153 194 255
153 194 255
153 194 255
153 194 255
153 194 255
152 194 255
152 194 255
152 194 255
152 194 255
152 193 255
152 193 255
152 193 255
152 193 255
152 193 255
152 193 255
152 193 255
151 193 255
151 193 255
151 193 255
151 193 255
151 193 255
151 193 255
151 193 255
151 193 255
151 193 255
151 193 255
151 193 255
151 193 255
150 192 255
150 192 255
150 192 255
150 192 255
150 192 255
150 192 255
150 192 255
150 192 255
150 192 255
150 192 255
150 192 255
150 192 255
150 192 255
150 192 255
150 192 255
149 192 255
149 192 255
149 192 255
149 192 255
149 192 255
149 192 255
149 192 255
149 192 255
149 192 255
149 192 255
149 192 255
149 192 255
149 192 255
149 192 255
149 192 255
149 191 255
149 191 255
149 191 255
149 191 255
149 191 255
149 191 255
149 191 255
149 191 255
149 191 255
149 191 255
149 191 255
149 191 255
149 191 255
149 191 255
149 191 255
149 191 255
149 191 255
149 191 255
149 191 255
149 191 255
149 191 255
149 191 255
149 191 255
149 191 255
149 191 255
149 191 255
149 191 255
149 191 255
149 191 255
149 191 255
149 191 255
149 191 255
149 191 255
149 191 255
149 191 255
149 191 255
149 192 255
149 192 255
149 192 255
149 192 255
149 192 255
149 192 255
149 192 255
149 192 255
149 192 255
149 192 255
149 192 255
149 192 255
149 192 255
149 192 255
150 192 255
150 192 255
150 192 255
150 192 255
150 192 255
150 192 255
150 192 255
150 192 255
150 192 255
150 192 255
150 192 255
150 192 255
150 192 255
150 192 255
150 192 255
151 193 255
151 193 255
151 193 255
151 193 255
151 193 255
151 193 255
151 193 255
151 193 255
151 193 255
151 193 255
151 193 255
151 193 255
152 193 255
152 193 255
152 193 255
152 193 255
152 193 255
152 193 255
152 193 255
152 193 255
152 194 255
152 194 255
152 194 255
153 194 255
153 194 255
153 194 255
153 194 255
153 194 255
153 194 255
153 194 255
153 194 255
153 194 255
154 194 255
154 194 255
154 194 255
154 194 255
154 195 255
154 195 255
154 195 255
154 195 255
154 195 255
154 195 255
155 195 255
155 195 255
155 195 255
155 195 255
155 195 255
155 195 255
155 195 255
155 195 255
155 195 255
156 196 255
156 196 255
156 196 255
156 196 255
156 196 255
156 196 255
156 196 255
156 196 255
156 196 255
157 196 255
157 196 255
157 196 255
157 196 255
157 196 255
157 196 255
157 196 255
157 197 255
157 197 255
157 197 255
158 197 255
158 197 255
158 197 255
158 197 255
158 197 255
158 197 255
158 197 255
158 197 255
158 197 255
159 197 255
159 197 255
159 197 255
159 198 255
159 198 255
159 198 255
159 198 255
159 198 255
159 198 255
160 198 255
160 198 255
160 198 255
160 198 255
160 198 255
160 198 255
160 198 255
160 198 255
160 198 255
160 198 255
161 199 255
161 199 255
161 199 255
161 199 255
161 199 255
161 199 255
161 199 255
161 199 255
161 199 255
161 199 255
162 199 255
162 199 255
162 199 255
162 199 255
162 199 255
162 199 255
162 199 255
162 200 255
162 200 255
162 200 255
163 200 255
163 200 255
163 200 255
163 200 255
163 200 255
163 200 255
163 200 255
163 200 255
163 200 255
163 200 255
163 200 255
164 200 255
164 200 255
164 200 255
164 200 255
164 201 255
164 201 255
164 201 255
164 201 255
164 201 255
164 201 255
164 201 255
165 201 255
165 201 255
165 201 255
165 201 255
165 201 255
165 201 255
165 201 255
165 201 255
165 201 255
165 201 255
165 201 255
165 201 255
166 202 255
166 202 255
166 202 255
166 202 255
165 201 255
165 201 255
165 201 255
165 201 255
165 201 255
165 201 255
165 201 255
165 201 255
165 201 255
165 201 255
165 201 255
164 201 255
164 201 255
164 201 255
164 201 255
164 201 255
164 201 255
164 201 255
164 201 255
164 200 255
164 200 255
164 200 255
164 200 255
163 200 255
163 200 255
163 200 255
163 200 255
163 200 255
163 200 255
163 200 255
163 200 255
163 200 255
163 200 255
162 200 255
162 200 255
162 200 255
162 200 255
162 199 255
162 199 255
162 199 255
162 199 255
162 199 255
162 199 255
162 199 255
161 199 255
161 199 255
161 199 255
161 199 255
161 199 255
161 199 255
161 199 255
161 199 255
161 199 255
161 199 255
160 198 255
160 198 255
160 198 255
160 198 255
160 198 255
160 198 255
160 198 255
160 198 255
160 198 255
159 198 255
159 198 255
159 198 255
159 198 255
159 198 255
159 198 255
159 197 255
159 197 255
159 197 255
158 197 255
158 197 255
158 197 255
158 197 255
158 197 255
158 197 255
158 197 255
158 197 255
158 197 255
158 197 255
157 197 255
157 197 255
157 197 255
157 196 255
157 196 255
157 196 255
157 196 255
157 196 255
157 196 255
156 196 255
156 196 255
156 196 255
156 196 255
156 196 255
156 196 255
156 196 255
156 196 255
156 196 255
155 195 255
155 195 255
155 195 255
155 195 255
155 195 255
155 195 255
155 195 255
155 195 255
155 195 255
155 195 255
154 195 255
154 195 255
154 195 255
154 195 255
154 195 255
154 195 255
154 194 255
154 194 255
154 194 255
153 194 255
153 194 255
153 194 255
153 194 255
153 194 255
153 194 255
153 194 255
153 194 255
153 194 255
153 194 255
152 194 255
152 194 255
152 194 255
152 194 255
152 193 255
152 193 255
152 193 255
152 193 255
152 193 255
152 193 255
152 193 255
151 193 255
151 193 255
151 193 255
151 193 255
151 193 255
151 193 255
151 193 255
151 193 255
151 193 255
151 193 255
151 193 255
151 193 255
150 192 255
150 192 255
150 192 255
150 192 255
150 192 255
150 192 255
150 192 255
150 192 255
150 192 255
150 192 255
150 192 255
150 192 255
150 192 255
150 192 255
150 192 255
150 192 255
149 192 255
149 192 255
149 192 255
149 192 255
149 192 255
149 192 255
149 192 255
149 192 255
149 192 255
149 192 255
149 192 255
149 192 255
149 192 255
149 192 255
149 192 255
149 192 255
149 192 255
149 192 255
149 192 255
149 192 255
149 191 255
149 191 255
149 191 255
149 191 255
149 191 255
149 191 255
149 191 255
149 191 255
149 191 255
149 191 255
149 191 255
149 191 255
149 191 255
149 191 255
149 191 255
149 191 255
149 191 255
149 191 255
149 192 255
149 192 255
149 192 255
149 192 255
149 192 255
149 192 255
149 192 255
149 192 255
149 192 255
149 192 255
149 192 255
149 192 255
149 192 255
149 192 255
149 192 255
149 192 255
149 192 255
149 192 255
149 192 255
150 192 255
150 192 255
150 192 255
150 192 255
150 192 255
150 192 255
150 192 255
150 192 255
150 192 255
150 192 255
150 192 255
150 192 255
150 192 255
150 192 255
150 192 255
150 192 255
151 193 255
151 193 255
151 193 255
151 193 255
151 193 255
151 193 255
151 193 255
151 193 255
151 193 255
151 193 255
151 193 255
151 193 255
152 193 255
152 193 255
152 193 255
152 193 255
152 193 255
152 193 255
152 193 255
152 193 255
152 194 255
152 194 255
152 194 255
153 194 255
153 194 255
153 194 255
153 194 255
153 194 255
153 194 255
153 194 255
153 194 255
153 194 255
153 194 255
154 194 255
154 194 255
154 194 255
154 195 255
154 195 255
154 195 255
154 195 255
154 195 255
154 195 255
154 195 255
155 195 255
155 195 255
155 195 255
155 195 255
155 195 255
155 195 255
155 195 255
155 195 255
155 195 255
156 196 255
156 196 255
156 196 255
156 196 255
156 196 255
156 196 255
156 196 255
156 196 255
156 196 255
157 196 255
157 196 255
157 196 255
157 196 255
157 196 255
157 196 255
157 197 255
157 197 255
157 197 255
157 197 255
158 197 255
158 197 255
158 197 255
158 197 255
158 197 255
158 197 255
158 197 255
158 197 255
158 197 255
159 197 255
159 197 255
159 197 255
159 198 255
159 198 255
159 198 255
159 198 255
159 198 255
159 198 255
160 198 255
160 198 255
160 198 255
160 198 255
160 198 255
160 198 255
160 198 255
160 198 255
160 198 255
160 198 255
161 199 255
161 199 255
161 199 255
161 199 255
161 199 255
161 199 255
161 199 255
161 199 255
161 199 255
161 199 255
162 199 255
162 199 255
162 199 255
162 199 255
162 199 255
162 199 255
162 200 255
162 200 255
162 200 255
162 200 255
163 200 255
163 200 255
163 200 255
163 200 255
163 200 255
163 200 255
163 200 255
163 200 255
163 200 255
163 200 255
163 200 255
164 200 255
164 200 255
164 200 255
164 201 255
164 201 255
164 201 255
164 201 255
164 201 255
164 201 255
164 201 255
164 201 255
165 201 255
165 201 255
165 201 255
165 201 255
165 201 255
165 201 255
165 201 255
165 201 255
165 201 255
165 201 255
165 201 255
166 202 255
166 202 255
166 202 255
166 202 255
166 202 255
166 202 255
166 202 255
166 202 255
166 202 255
165 201 255
165 201 255
165 201 255
165 201 255
165 201 255
165 201 255
165 201 255
165 201 255
165 201 255
165 201 255
165 201 255
165 201 255
164 201 255
164 201 255
164 201 255
164 201 255
164 201 255
164 201 255
164 201 255
164 200 255
164 200 255
164 200 255
164 200 255
163 200 255
163 200 255
163 200 255
163 200 255
163 200 255
163 200 255
163 200 255
163 200 255
163 200 255
163 200 255
163 200 255
162 200 255
162 200 255
162 200 255
162 199 255
162 199 255
162 199 255
162 199 255
162 199 255
162 199 255
162 199 255
161 199 255
161 199 255
161 199 255
161 199 255
161 199 255
161 199 255
161 199 255
161 199 255
161 199 255
161 199 255
160 198 255
160 198 255
160 198 255
160 198 255
160 198 255
160 198 255
160 198 255
160 198 255
160 198 255
159 198 255
159 198 255
159 198 255
159 198 255
159 198 255
159 198 255
159 198 255
159 197 255
159 197 255
159 197 255
158 197 255
158 197 255
158 197 255
158 197 255
158 197 255
158 197 255
158 197 255
158 197 255
158 197 255
157 197 255
157 197 255
157 197 255
157 196 255
157 196 255
157 196 255
157 196 255
157 196 255
157 196 255
156 196 255
156 196 255
156 196 255
156 196 255
156 196 255
156 196 255
156 196 255
156 196 255
156 196 255
155 195 255
155 195 255
155 195 255
155 195 255
155 195 255
155 195 255
155 195 255
155 195 255
155 195 255
155 195 255
154 195 255
154 195 255
154 195 255
154 195 255
154 195 255
154 195 255
154 194 255
154 194 255
154 194 255
153 194 255
153 194 255
153 194 255
153 194 255
153 194 255
153 194 255
153 194 255
153 194 255
153 194 255
153 194 255
153 194 255
152 194 255
152 194 255
152 194 255
152 193 255
152 193 255
152 193 255
152 193 255
152 193 255
152 193 255
152 193 255
152 193 255
151 193 255
151 193 255
151 193 255
151 193 255
151 193 255
151 193 255
151 193 255
151 193 255
151 193 255
151 193 255
151 193 255
151 193 255
150 192 255
150 192 255
150 192 255
150 192 255
150 192 255
150 192 255
150 192 255
150 192 255
150 192 255
150 192 255
150 192 255
150 192 255
150 192 255
150 192 255
150 192 255
150 192 255
150 192 255
150 192 255
149 192 255
149 192 255
149 192 255
149 192 255
149 192 255
149 192 255
149 192 255
149 192 255
149 192 255
149 192 255
149 192 255
149 192 255
149 192 255
149 192 255
149 192 255
149 192 255
149 192 255
149 192 255
149 192 255
149 192 255
149 192 255
149 192 255
149 192 255
149 192 255
149 192 255
149 192 255
149 192 255
149 192 255
149 192 255
149 192 255
149 192 255
149 192 255
149 192 255
149 192 255
149 192 255
149 192 255
149 192 255
149 192 255
149 192 255
149 192 255
149 192 255
149 192 255
149 192 255
149 192 255
149 192 255
149 192 255
149 192 255
150 192 255
150 192 255
150 192 255
150 192 255
150 192 255
150 192 255
150 192 255
150 192 255
150 192 255
150 192 255
150 192 255
150 192 255
150 192 255
150 192 255
150 192 255
150 192 255
150 192 255
150 192 255
151 193 255
151 193 255
151 193 255
151 193 255
151 193 255
151 193 255
151 193 255
151 193 255
151 193 255
151 193 255
151 193 255
151 193 255
151 193 255
152 193 255
152 193 255
152 193 255
152 193 255
152 193 255
152 193 255
152 193 255
152 194 255
152 194 255
152 194 255
152 194 255
153 194 255
153 194 255
153 194 255
153 194 255
153 194 255
153 194 255
153 194 255
153 194 255
153 194 255
153 194 255
154 194 255
154 194 255
154 194 255
154 195 255
154 195 255
154 195 255
154 195 255
154 195 255
154 195 255
155 195 255
155 195 255
155 195 255
155 195 255
155 195 255
155 195 255
155 195 255
155 195 255
155 195 255
155 195 255
156 196 255
156 196 255
156 196 255
156 196 255
156 196 255
156 196 255
156 196 255
156 196 255
156 196 255
157 196 255
157 196 255
157 196 255
157 196 255
157 196 255
157 196 255
157 197 255
157 197 255
157 197 255
158 197 255
158 197 255
158 197 255
158 197 255
158 197 255
158 197 255
158 197 255
158 197 255
158 197 255
159 197 255
159 197 255
159 197 255
159 197 255
159 198 255
159 198 255
159 198 255
159 198 255
159 198 255
159 198 255
160 198 255
160 198 255
160 198 255
160 198 255
160 198 255
160 198 255
160 198 255
160 198 255
160 198 255
161 199 255
161 199 255
161 199 255
161 199 255
161 199 255
161 199 255
161 199 255
161 199 255
161 199 255
161 199 255
162 199 255
162 199 255
162 199 255
162 199 255
162 199 255
162 199 255
162 199 255
162 200 255
162 200 255
162 200 255
163 200 255
163 200 255
163 200 255
163 200 255
163 200 255
163 200 255
163 200 255
163 200 255
163 200 255
163 200 255
163 200 255
164 200 255
164 200 255
164 200 255
164 201 255
164 201 255
164 201 255
164 201 255
164 201 255
164 201 255
164 201 255
164 201 255
165 201 255
165 201 255
165 201 255
165 201 255
165 201 255
165 201 255
165 201 255
165 201 255
165 201 255
165 201 255
165 201 255
165 201 255
166 202 255
166 202 255
166 202 255
166 202 255
166 202 255
166 202 255
166 202 255
166 202 255
166 202 255
166 202 255
166 202 255
166 202 255
166 202 255
166 202 255
165 201 255
165 201 255
165 201 255
165 201 255
165 201 255
165 201 255
165 201 255
165 201 255
165 201 255
165 201 255
165 201 255
165 201 255
164 201 255
164 201 255
164 201 255
164 201 255
164 201 255
164 201 255
164 201 255
164 200 255
164 200 255
164 200 255
164 200 255
163 200 255
163 200 255
163 200 255
163 200 255
163 200 255
163 200 255
163 200 255
163 200 255
163 200 255
163 200 255
162 200 255
162 200 255
162 200 255
162 199 255
162 199 255
162 199 255
162 199 255
162 199 255
162 199 255
162 199 255
161 199 255
161 199 255
161 199 255
161 199 255
161 199 255
161 199 255
161 199 255
161 199 255
161 199 255
161 199 255
160 198 255
160 198 255
160 198 255
160 198 255
160 198 255
160 198 255
160 198 255
160 198 255
160 198 255
159 198 255
159 198 255
159 198 255
159 198 255
159 198 255
159 198 255
159 198 255
159 197 255
159 197 255
159 197 255
158 197 255
158 197 255
158 197 255
158 197 255
158 197 255
158 197 255
158 197 255
158 197 255
158 197 255
157 197 255
157 197 255
157 197 255
157 196 255
157 196 255
157 196 255
157 196 255
157 196 255
157 196 255
156 196 255
156 196 255
156 196 255
156 196 255
156 196 255
156 196 255
156 196 255
156 196 255
156 196 255
156 196 255
155 195 255
155 195 255
155 195 255
155 195 255
155 195 255
155 195 255
155 195 255
155 195 255
155 195 255
154 195 255
154 195 255
154 195 255
154 195 255
154 195 255
154 195 255
154 195 255
154 194 255
154 194 255
154 194 255
153 194 255
153 194 255
153 194 255
153 194 255
153 194 255
153 194 255
153 194 255
153 194 255
153 194 255
153 194 255
152 194 255
152 194 255
152 194 255
152 194 255
152 193 255
152 193 255
152 193 255
152 193 255
152 193 255
152 193 255
152 193 255
152 193 255
151 193 255
151 193 255
151 193 255
151 193 255
151 193 255
151 193 255
151 193 255
151 193 255
151 193 255
151 193 255
151 193 255
151 193 255
151 193 255
150 192 255
150 192 255
150 192 255
150 192 255
150 192 255
150 192 255
150 192 255
150 192 255
150 192 255
150 192 255
150 192 255
150 192 255
150 192 255
150 192 255
150 192 255
150 192 255
150 192 255
150 192 255
150 192 255
150 192 255
149 192 255
149 192 255
149 192 255
149 192 255
149 192 255
149 192 255
149 192 255
149 192 255
149 192 255
149 192 255
149 192 255
149 192 255
149 192 255
149 192 255
149 192 255
149 192 255
149 192 255
149 192 255
149 192 255
149 192 255
149 192 255
149 192 255
149 192 255
149 192 255
149 192 255
149 192 255
149 192 255
149 192 255
149 192 255
149 192 255
149 192 255
149 192 255
149 192 255
149 192 255
150 192 255
150 192 255
150 192 255
150 192 255
150 192 255
150 192 255
150 192 255
150 192 255
150 192 255
150 192 255
150 192 255
150 192 255
150 192 255
150 192 255
150 192 255
150 192 255
150 192 255
150 192 255
150 192 255
150 192 255
150 192 255
151 193 255
151 193 255
151 193 255
151 193 255
151 193 255
151 193 255
151 193 255
151 193 255
151 193 255
151 193 255
151 193 255
151 193 255
151 193 255
152 193 255
152 193 255
152 193 255
152 193 255
152 193 255
152 193 255
152 193 255
152 193 255
152 194 255
152 194 255
152 194 255
152 194 255
153 194 255
153 194 255
153 194 255
153 194 255
153 194 255
153 194 255
153 194 255
153 194 255
153 194 255
153 194 255
154 194 255
154 194 255
154 194 255
154 194 255
154 195 255
154 195 255
154 195 255
154 195 255
154 195 255
154 195 255
155 195 255
155 195 255
155 195 255
155 195 255
155 195 255
155 195 255
155 195 255
155 195 255
155 195 255
156 196 255
156 196 255
156 196 255
156 196 255
156 196 255
156 196 255
156 196 255
156 196 255
156 196 255
156 196 255
157 196 255
157 196 255
157 196 255
157 196 255
157 196 255
157 196 255
157 197 255
157 197 255
157 197 255
158 197 255
158 197 255
158 197 255
158 197 255
158 197 255
158 197 255
158 197 255
158 197 255
158 197 255
159 197 255
159 197 255
159 197 255
159 198 255
159 198 255
159 198 255
159 198 255
159 198 255
159 198 255
160 198 255
160 198 255
160 198 255
160 198 255
160 198 255
160 198 255
160 198 255
160 198 255
160 198 255
160 198 255
161 199 255
161 199 255
161 199 255
161 199 255
161 199 255
161 199 255
161 199 255
161 199 255
161 199 255
161 199 255
162 199 255
162 199 255
162 199 255
162 199 255
162 199 255
162 199 255
162 199 255
162 200 255
162 200 255
162 200 255
163 200 255
163 200 255
163 200 255
163 200 255
163 200 255
163 200 255
163 200 255
163 200 255
163 200 255
163 200 255
164 200 255
164 200 255
164 200 255
164 200 255
164 201 255
164 201 255
164 201 255
164 201 255
164 201 255
164 201 255
164 201 255
165 201 255
165 201 255
165 201 255
165 201 255
165 201 255
165 201 255
165 201 255
165 201 255
165 201 255
165 201 255
165 201 255
165 201 255
166 202 255
166 202 255
166 202 255
166 202 255
166 202 255
166 202 255
166 202 255
166 202 255
166 202 255
166 202 255
166 202 255
166 202 255
166 202 255
166 202 255
166 202 255
166 202 255
166 202 255
166 202 255
166 202 255
166 202 255
165 201 255
165 201 255
165 201 255
165 201 255
165 201 255
165 201 255
165 201 255
165 201 255
165 201 255
165 201 255
165 201 255
164 201 255
164 201 255
164 201 255
164 201 255
164 201 255
164 201 255
164 201 255
164 200 255
164 200 255
164 200 255
164 200 255
163 200 255
163 200 255
163 200 255
163 200 255
163 200 255
163 200 255
163 200 255
163 200 255
163 200 255
163 200 255
162 200 255
162 200 255
162 200 255
162 200 255
162 199 255
162 199 255
162 199 255
162 199 255
162 199 255
162 199 255
162 199 255
161 199 255
161 199 255
161 199 255
161 199 255
161 199 255
161 199 255
161 199 255
161 199 255
161 199 255
160 198 255
160 198 255
160 198 255
160 198 255
160 198 255
160 198 255
160 198 255
160 198 255
160 198 255
160 198 255
159 198 255
159 198 255
159 198 255
159 198 255
159 198 255
159 198 255
159 197 255
159 197 255
159 197 255
158 197 255
158 197 255
158 197 255
158 197 255
158 197 255
158 197 255
158 197 255
158 197 255
158 197 255
157 197 255
157 197 255
157 197 255
157 196 255
157 196 255
157 196 255
157 196 255
157 196 255
157 196 255
156 196 255
156 196 255
156 196 255
156 196 255
156 196 255
156 196 255
156 196 255
156 196 255
156 196 255
156 196 255
155 195 255
155 195 255
155 195 255
155 195 255
155 195 255
155 195 255
155 195 255
155 195 255
155 195 255
154 195 255
154 195 255
154 195 255
154 195 255
154 195 255
154 195 255
154 195 255
154 194 255
154 194 255
154 194 255
153 194 255
153 194 255
153 194 255
153 194 255
153 194 255
153 194 255
153 194 255
153 194 255
153 194 255
153 194 255
153 194 255
152 194 255
152 194 255
152 194 255
152 194 255
152 193 255
152 193 255
152 193 255
152 193 255
152 193 255
152 193 255
152 193 255
152 193 255
151 193 255
151 193 255
151 193 255
151 193 255
151 193 255
151 193 255
151 193 255
151 193 255
151 193 255
151 193 255
151 193 255
151 193 255
151 193 255
151 193 255
150 192 255
150 192 255
150 192 255
150 192 255
150 192 255
150 192 255
150 192 255
150 192 255
150 192 255
150 192 255
150 192 255
150 192 255
150 192 255
150 192 255
150 192 255
150 192 255
150 192 255
150 192 255
150 192 255
150 192 255
150 192 255
150 192 255
150 192 255
150 192 255
150 192 255
150 192 255
150 192 255
150 192 255
149 192 255
149 192 255
149 192 255
149 192 255
149 192 255
149 192 255
149 192 255
149 192 255
149 192 255
150 192 255
150 192 255
150 192 255
150 192 255
150 192 255
150 192 255
150 192 255
150 192 255
150 192 255
150 192 255
150 192 255
150 192 255
150 192 255
150 192 255
150 192 255
150 192 255
150 192 255
150 192 255
150 192 255
150 192 255
150 192 255
150 192 255
150 192 255
150 192 255
150 192 255
150 192 255
150 192 255
150 192 255
150 192 255
150 192 255
151 193 255
151 193 255
151 193 255
151 193 255
151 193 255
151 193 255
151 193 255
151 193 255
151 193 255
151 193 255
151 193 255
151 193 255
151 193 255
151 193 255
152 193 255
152 193 255
152 193 255
152 193 255
152 193 255
152 193 255
152 193 255
152 193 255
152 193 255
152 194 255
152 194 255
152 194 255
153 194 255
153 194 255
153 194 255
153 194 255
153 194 255
153 194 255
153 194 255
153 194 255
153 194 255
153 194 255
153 194 255
154 194 255
154 194 255
154 194 255
154 195 255
154 195 255
154 195 255
154 195 255
154 195 255
154 195 255
154 195 255
155 195 255
155 195 255
155 195 255
155 195 255
155 195 255
155 195 255
155 195 255
155 195 255
155 195 255
156 196 255
156 196 255
156 196 255
156 196 255
156 196 255
156 196 255
156 196 255
156 196 255
156 196 255
157 196 255
157 196 255
157 196 255
157 196 255
157 196 255
157 196 255
157 196 255
157 197 255
157 197 255
158 197 255
158 197 255
158 197 255
158 197 255
158 197 255
158 197 255
158 197 255
158 197 255
158 197 255
158 197 255
159 197 255
159 197 255
159 197 255
159 198 255
159 198 255
159 198 255
159 198 255
159 198 255
159 198 255
160 198 255
160 198 255
160 198 255
160 198 255
160 198 255
160 198 255
160 198 255
160 198 255
160 198 255
160 198 255
161 199 255
161 199 255
161 199 255
161 199 255
161 199 255
161 199 255
161 199 255
161 199 255
161 199 255
161 199 255
162 199 255
162 199 255
162 199 255
162 199 255
162 199 255
162 199 255
162 200 255
162 200 255
162 200 255
163 200 255
163 200 255
163 200 255
163 200 255
163 200 255
163 200 255
163 200 255
163 200 255
163 200 255
163 200 255
163 200 255
164 200 255
164 200 255
164 200 255
164 200 255
164 201 255
164 201 255
164 201 255
164 201 255
164 201 255
164 201 255
164 201 255
165 201 255
165 201 255
165 201 255
165 201 255
165 201 255
165 201 255
165 201 255
165 201 255
165 201 255
165 201 255
165 201 255
166 202 255
166 202 255
166 202 255
166 202 255
166 202 255
166 202 255
166 202 255
166 202 255
166 202 255
166 202 255
166 202 255
166 202 255
167 202 255
166 202 255
166 202 255
166 202 255
166 202 255
166 202 255
166 202 255
166 202 255
166 202 255
166 202 255
166 202 255
166 202 255
166 202 255
165 201 255
165 201 255
165 201 255
165 201 255
165 201 255
165 201 255
165 201 255
165 201 255
165 201 255
165 201 255
165 201 255
165 201 255
164 201 255
164 201 255
164 201 255
164 201 255
164 201 255
164 201 255
164 201 255
164 200 255
164 200 255
164 200 255
164 200 255
163 200 255
163 200 255
163 200 255
163 200 255
163 200 255
163 200 255
163 200 255
163 200 255
163 200 255
163 200 255
162 200 255
162 200 255
162 200 255
162 199 255
162 199 255
162 199 255
162 199 255
162 199 255
162 199 255
162 199 255
161 199 255
161 199 255
161 199 255
161 199 255
161 199 255
161 199 255
161 199 255
161 199 255
161 199 255
161 199 255
160 198 255
160 198 255
160 198 255
160 198 255
160 198 255
160 198 255
160 198 255
160 198 255
160 198 255
159 198 255
159 198 255
159 198 255
159 198 255
159 198 255
159 198 255
159 197 255
159 197 255
159 197 255
158 197 255
158 197 255
158 197 255
158 197 255
158 197 255
158 197 255
158 197 255
158 197 255
158 197 255
158 197 255
157 197 255
157 197 255
157 197 255
157 196 255
157 196 255
157 196 255
157 196 255
157 196 255
157 196 255
156 196 255
156 196 255
156 196 255
156 196 255
156 196 255
156 196 255
156 196 255
156 196 255
156 196 255
155 195 255
155 195 255
155 195 255
155 195 255
155 195 255
155 195 255
155 195 255
155 195 255
155 195 255
155 195 255
154 195 255
154 195 255
154 195 255
154 195 255
154 195 255
154 195 255
154 195 255
154 194 255
154 194 255
154 194 255
153 194 255
153 194 255
153 194 255
153 194 255
153 194 255
153 194 255
153 194 255
153 194 255
153 194 255
153 194 255
153 194 255
152 194 255
152 194 255
152 194 255
152 194 255
152 193 255
152 193 255
152 193 255
152 193 255
152 193 255
152 193 255
152 193 255
152 193 255
151 193 255
151 193 255
151 193 255
151 193 255
151 193 255
151 193 255
151 193 255
151 193 255
151 193 255
151 193 255
151 193 255
151 193 255
151 193 255
151 193 255
151 193 255
151 193 255
150 192 255
150 192 255
150 192 255
150 192 255
150 192 255
150 192 255
150 192 255
150 192 255
150 192 255
150 192 255
150 192 255
150 192 255
150 192 255
150 192 255
150 192 255
150 192 255
150 192 255
150 192 255
150 192 255
150 192 255
150 192 255
150 192 255
150 192 255
150 192 255
150 192 255
150 192 255
150 192 255
150 192 255
150 192 255
150 192 255
150 192 255
150 192 255
150 192 255
150 192 255
150 192 255
150 192 255
150 192 255
150 192 255
150 192 255
150 192 255
150 192 255
150 192 255
150 192 255
150 192 255
150 192 255
150 192 255
150 192 255
150 192 255
150 192 255
150 192 255
150 192 255
150 192 255
150 192 255
150 192 255
150 192 255
150 192 255
150 192 255
151 193 255
151 193 255
151 193 255
151 193 255
151 193 255
151 193 255
151 193 255
151 193 255
151 193 255
151 193 255
151 193 255
151 193 255
151 193 255
151 193 255
151 193 255
151 193 255
152 193 255
152 193 255
152 193 255
152 193 255
152 193 255
152 193 255
152 193 255
152 193 255
152 193 255
152 194 255
152 194 255
152 194 255
153 194 255
153 194 255
153 194 255
153 194 255
153 194 255
153 194 255
153 194 255
153 194 255
153 194 255
153 194 255
153 194 255
154 194 255
154 194 255
154 194 255
154 194 255
154 195 255
154 195 255
154 195 255
154 195 255
154 195 255
154 195 255
155 195 255
155 195 255
155 195 255
155 195 255
155 195 255
155 195 255
155 195 255
155 195 255
155 195 255
155 195 255
156 196 255
156 196 255
156 196 255
156 196 255
156 196 255
156 196 255
156 196 255
156 196 255
156 196 255
157 196 255
157 196 255
157 196 255
157 196 255
157 196 255
157 196 255
157 197 255
157 197 255
157 197 255
158 197 255
158 197 255
158 197 255
158 197 255
158 197 255
158 197 255
158 197 255
158 197 255
158 197 255
158 197 255
159 197 255
159 197 255
159 197 255
159 198 255
159 198 255
159 198 255
159 198 255
159 198 255
159 198 255
160 198 255
160 198 255
160 198 255
160 198 255
160 198 255
160 198 255
160 198 255
160 198 255
160 198 255
161 199 255
161 199 255
161 199 255
161 199 255
161 199 255
161 199 255
161 199 255
161 199 255
161 199 255
161 199 255
162 199 255
162 199 255
162 199 255
162 199 255
162 199 255
162 199 255
162 199 255
162 200 255
162 200 255
162 200 255
163 200 255
163 200 255
163 200 255
163 200 255
163 200 255
163 200 255
163 200 255
163 200 255
163 200 255
163 200 255
163 200 255
164 200 255
164 200 255
164 200 255
164 201 255
164 201 255
164 201 255
164 201 255
164 201 255
164 201 255
164 201 255
165 201 255
165 201 255
165 201 255
165 201 255
165 201 255
165 201 255
165 201 255
165 201 255
165 201 255
165 201 255
165 201 255
165 201 255
166 202 255
166 202 255
166 202 255
166 202 255
166 202 255
166 202 255
166 202 255
166 202 255
166 202 255
166 202 255
166 202 255
166 202 255
167 202 255
167 202 255
167 202 255
167 202 255
167 202 255
167 202 255
166 202 255
166 202 255
166 202 255
166 202 255
166 202 255
166 202 255
166 202 255
166 202 255
166 202 255
166 202 255
166 202 255
166 202 255
165 201 255
165 201 255
165 201 255
165 201 255
165 201 255
165 201 255
165 201 255
165 201 255
165 201 255
165 201 255
165 201 255
164 201 255
164 201 255
164 201 255
164 201 255
164 201 255
164 201 255
164 201 255
164 200 255
164 200 255
164 200 255
164 200 255
163 200 255
163 200 255
163 200 255
163 200 255
163 200 255
163 200 255
163 200 255
163 200 255
163 200 255
163 200 255
162 200 255
162 200 255
162 200 255
162 200 255
162 199 255
162 199 255
162 199 255
162 199 255
162 199 255
162 199 255
161 199 255
161 199 255
161 199 255
161 199 255
161 199 255
161 199 255
161 199 255
161 199 255
161 199 255
161 199 255
160 198 255
160 198 255
160 198 255
160 198 255
160 198 255
160 198 255
160 198 255
160 198 255
160 198 255
160 198 255
159 198 255
159 198 255
159 198 255
159 198 255
159 198 255
159 198 255
159 197 255
159 197 255
159 197 255
158 197 255
158 197 255
158 197 255
158 197 255
158 197 255
158 197 255
158 197 255
158 197 255
158 197 255
157 197 255
157 197 255
157 197 255
157 196 255
157 196 255
157 196 255
157 196 255
157 196 255
157 196 255
156 196 255
156 196 255
156 196 255
156 196 255
156 196 255
156 196 255
156 196 255
156 196 255
156 196 255
156 196 255
155 195 255
155 195 255
155 195 255
155 195 255
155 195 255
155 195 255
155 195 255
155 195 255
155 195 255
154 195 255
154 195 255
154 195 255
154 195 255
154 195 255
154 195 255
154 195 255
154 194 255
154 194 255
154 194 255
154 194 255
153 194 255
153 194 255
153 194 255
153 194 255
153 194 255
153 194 255
153 194 255
153 194 255
153 194 255
153 194 255
152 194 255
152 194 255
152 194 255
152 194 255
152 194 255
152 193 255
152 193 255
152 193 255
152 193 255
152 193 255
152 193 255
152 193 255
152 193 255
151 193 255
151 193 255
151 193 255
151 193 255
151 193 255
151 193 255
151 193 255
151 193 255
151 193 255
151 193 255
151 193 255
151 193 255
151 193 255
151 193 255
151 193 255
151 193 255
151 193 255
151 193 255
150 192 255
150 192 255
150 192 255
150 192 255
150 192 255
150 192 255
150 192 255
150 192 255
150 192 255
150 192 255
150 192 255
150 192 255
150 192 255
150 192 255
150 192 255
150 192 255
150 192 255
150 192 255
150 192 255
150 192 255
150 192 255
150 192 255
150 192 255
150 192 255
150 192 255
150 192 255
150 192 255
150 192 255
150 192 255
150 192 255
150 192 255
150 192 255
150 192 255
150 192 255
150 192 255
150 192 255
150 192 255
150 192 255
150 192 255
150 192 255
150 192 255
150 192 255
150 192 255
150 192 255
150 192 255
150 192 255
150 192 255
151 193 255
151 193 255
151 193 255
151 193 255
151 193 255
151 193 255
151 193 255
151 193 255
151 193 255
151 193 255
151 193 255
151 193 255
151 193 255
151 193 255
151 193 255
151 193 255
151 193 255
151 193 255
152 193 255
152 193 255
152 193 255
152 193 255
152 193 255
152 193 255
152 193 255
152 193 255
152 194 255
152 194 255
152 194 255
152 194 255
153 194 255
153 194 255
153 194 255
153 194 255
153 194 255
153 194 255
153 194 255
153 194 255
153 194 255
153 194 255
153 194 255
154 194 255
154 194 255
154 194 255
154 194 255
154 195 255
154 195 255
154 195 255
154 195 255
154 195 255
154 195 255
154 195 255
155 195 255
155 195 255
155 195 255
155 195 255
155 195 255
155 195 255
155 195 255
155 195 255
155 195 255
156 196 255
156 196 255
156 196 255
156 196 255
156 196 255
156 196 255
156 196 255
156 196 255
156 196 255
156 196 255
157 196 255
157 196 255
157 196 255
157 196 255
157 196 255
157 196 255
157 197 255
157 197 255
157 197 255
158 197 255
158 197 255
158 197 255
158 197 255
158 197 255
158 197 255
158 197 255
158 197 255
158 197 255
159 197 255
159 197 255
159 197 255
159 198 255
159 198 255
159 198 255
159 198 255
159 198 255
159 198 255
159 198 255
160 198 255
160 198 255
160 198 255
160 198 255
160 198 255
160 198 255
160 198 255
160 198 255
160 198 255
161 199 255
161 199 255
161 199 255
161 199 255
161 199 255
161 199 255
161 199 255
161 199 255
161 199 255
161 199 255
162 199 255
162 199 255
162 199 255
162 199 255
162 199 255
162 199 255
162 200 255
162 200 255
162 200 255
162 200 255
163 200 255
163 200 255
163 200 255
163 200 255
163 200 255
163 200 255
163 200 255
163 200 255
163 200 255
163 200 255
164 200 255
164 200 255
164 200 255
164 200 255
164 201 255
164 201 255
164 201 255
164 201 255
164 201 255
164 201 255
164 201 255
165 201 255
165 201 255
165 201 255
165 201 255
165 201 255
165 201 255
165 201 255
165 201 255
165 201 255
165 201 255
165 201 255
166 202 255
166 202 255
166 202 255
166 202 255
166 202 255
166 202 255
166 202 255
166 202 255
166 202 255
166 202 255
166 202 255
166 202 255
167 202 255
167 202 255
167 202 255
167 202 255
167 202 255
167 202 255
167 202 255
167 202 255
167 202 255
167 202 255
167 202 255
167 202 255
166 202 255
166 202 255
166 202 255
166 202 255
166 202 255
166 202 255
166 202 255
166 202 255
166 202 255
166 202 255
166 202 255
166 202 255
165 201 255
165 201 255
165 201 255
165 201 255
165 201 255
165 201 255
165 201 255
165 201 255
165 201 255
165 201 255
165 201 255
164 201 255
164 201 255
164 201 255
164 201 255
164 201 255
164 201 255
164 201 255
164 200 255
164 200 255
164 200 255
163 200 255
163 200 255
163 200 255
163 200 255
163 200 255
163 200 255
163 200 255
163 200 255
163 200 255
163 200 255
163 200 255
162 200 255
162 200 255
162 200 255
162 199 255
162 199 255
162 199 255
162 199 255
162 199 255
162 199 255
162 199 255
161 199 255
161 199 255
161 199 255
161 199 255
161 199 255
161 199 255
161 199 255
161 199 255
161 199 255
161 199 255
160 198 255
160 198 255
160 198 255
160 198 255
160 198 255
160 198 255
160 198 255
160 198 255
160 198 255
159 198 255
159 198 255
159 198 255
159 198 255
159 198 255
159 198 255
159 197 255
159 197 255
159 197 255
158 197 255
158 197 255
158 197 255
158 197 255
158 197 255
158 197 255
158 197 255
158 197 255
158 197 255
158 197 255
157 197 255
157 197 255
157 197 255
157 196 255
157 196 255
157 196 255
157 196 255
157 196 255
157 196 255
156 196 255
156 196 255
156 196 255
156 196 255
156 196 255
156 196 255
156 196 255
156 196 255
156 196 255
155 195 255
155 195 255
155 195 255
155 195 255
155 195 255
155 195 255
155 195 255
155 195 255
155 195 255
155 195 255
154 195 255
154 195 255
154 195 255
154 195 255
154 195 255
154 195 255
154 195 255
154 194 255
154 194 255
154 194 255
153 194 255
153 194 255
153 194 255
153 194 255
153 194 255
153 194 255
153 194 255
153 194 255
153 194 255
153 194 255
153 194 255
152 194 255
152 194 255
152 194 255
152 194 255
152 194 255
152 193 255
152 193 255
152 193 255
152 193 255
152 193 255
152 193 255
152 193 255
152 193 255
152 193 255
151 193 255
151 193 255
151 193 255
151 193 255
151 193 255
151 193 255
151 193 255
151 193 255
151 193 255
151 193 255
151 193 255
151 193 255
151 193 255
151 193 255
151 193 255
151 193 255
151 193 255
151 193 255
151 193 255
151 193 255
150 192 255
150 192 255
150 192 255
150 192 255
150 192 255
150 192 255
150 192 255
150 192 255
150 192 255
150 192 255
150 192 255
150 192 255
150 192 255
150 192 255
150 192 255
150 192 255
150 192 255
150 192 255
150 192 255
150 192 255
150 192 255
150 192 255
150 192 255
150 192 255
150 192 255
150 192 255
150 192 255
150 192 255
150 192 255
150 192 255
150 192 255
150 192 255
150 192 255
150 192 255
151 193 255
151 193 255
151 193 255
151 193 255
151 193 255
151 193 255
151 193 255
151 193 255
151 193 255
151 193 255
151 193 255
151 193 255
151 193 255
151 193 255
151 193 255
151 193 255
151 193 255
151 193 255
151 193 255
151 193 255
151 193 255
152 193 255
152 193 255
152 193 255
152 193 255
152 193 255
152 193 255
152 193 255
152 193 255
152 193 255
152 194 255
152 194 255
152 194 255
152 194 255
152 194 255
153 194 255
153 194 255
153 194 255
153 194 255
153 194 255
153 194 255
153 194 255
153 194 255
153 194 255
153 194 255
153 194 255
154 194 255
154 194 255
154 194 255
154 195 255
154 195 255
154 195 255
154 195 255
154 195 255
154 195 255
154 195 255
155 195 255
155 195 255
155 195 255
155 195 255
155 195 255
155 195 255
155 195 255
155 195 255
155 195 255
155 195 255
156 196 255
156 196 255
156 196 255
156 196 255
156 196 255
156 196 255
156 196 255
156 196 255
156 196 255
157 196 255
157 196 255
157 196 255
157 196 255
157 196 255
157 196 255
157 196 255
157 197 255
157 197 255
157 197 255
158 197 255
158 197 255
158 197 255
158 197 255
158 197 255
158 197 255
158 197 255
158 197 255
158 197 255
159 197 255
159 197 255
159 197 255
159 198 255
159 198 255
159 198 255
159 198 255
159 198 255
159 198 255
160 198 255
160 198 255
160 198 255
160 198 255
160 198 255
160 198 255
160 198 255
160 198 255
160 198 255
161 199 255
161 199 255
161 199 255
161 199 255
161 199 255
161 199 255
161 199 255
161 199 255
161 199 255
161 199 255
162 199 255
162 199 255
162 199 255
162 199 255
162 199 255
162 199 255
162 199 255
162 200 255
162 200 255
162 200 255
163 200 255
163 200 255
163 200 255
163 200 255
163 200 255
163 200 255
163 200 255
163 200 255
163 200 255
163 200 255
163 200 255
164 200 255
164 200 255
164 200 255
164 201 255
164 201 255
164 201 255
164 201 255
164 201 255
164 201 255
164 201 255
165 201 255
165 201 255
165 201 255
165 201 255
165 201 255
165 201 255
165 201 255
165 201 255
165 201 255
165 201 255
165 201 255
166 202 255
166 202 255
166 202 255
166 202 255
166 202 255
166 202 255
166 202 255
166 202 255
166 202 255
166 202 255
166 202 255
166 202 255
166 202 255
167 202 255
167 202 255
167 202 255
167 202 255
167 202 255
167 202 255
167 202 255
167 203 255
167 202 255
167 202 255
167 202 255
167 202 255
167 202 255
167 202 255
167 202 255
167 202 255
166 202 255
166 202 255
166 202 255
166 202 255
166 202 255
166 202 255
166 202 255
166 202 255
166 202 255
166 202 255
166 202 255
166 202 255
165 201 255
165 201 255
165 201 255
165 201 255
165 201 255
165 201 255
165 201 255
165 201 255
165 201 255
165 201 255
165 201 255
165 201 255
164 201 255
164 201 255
164 201 255
164 201 255
164 201 255
164 201 255
164 201 255
164 200 255
164 200 255
164 200 255
163 200 255
163 200 255
163 200 255
163 200 255
163 200 255
163 200 255
163 200 255
163 200 255
163 200 255
163 200 255
162 200 255
162 200 255
162 200 255
162 200 255
162 199 255
162 199 255
162 199 255
162 199 255
162 199 255
162 199 255
161 199 255
161 199 255
161 199 255
161 199 255
161 199 255
161 199 255
161 199 255
161 199 255
161 199 255
161 199 255
160 198 255
160 198 255
160 198 255
160 198 255
160 198 255
160 198 255
160 198 255
160 198 255
160 198 255
159 198 255
159 198 255
159 198 255
159 198 255
159 198 255
159 198 255
159 197 255
159 197 255
159 197 255
159 197 255
158 197 255
158 197 255
158 197 255
158 197 255
158 197 255
158 197 255
158 197 255
158 197 255
158 197 255
157 197 255
157 197 255
157 197 255
157 196 255
157 196 255
157 196 255
157 196 255
157 196 255
157 196 255
156 196 255
156 196 255
156 196 255
156 196 255
156 196 255
156 196 255
156 196 255
156 196 255
156 196 255
156 196 255
155 195 255
155 195 255
155 195 255
155 195 255
155 195 255
155 195 255
155 195 255
155 195 255
155 195 255
155 195 255
154 195 255
154 195 255
154 195 255
154 195 255
154 195 255
154 195 255
154 195 255
154 194 255
154 194 255
154 194 255
153 194 255
153 194 255
153 194 255
153 194 255
153 194 255
153 194 255
153 194 255
153 194 255
153 194 255
153 194 255
153 194 255
153 194 255
152 194 255
152 194 255
152 194 255
152 194 255
152 194 255
152 193 255
152 193 255
152 193 255
152 193 255
152 193 255
152 193 255
152 193 255
152 193 255
152 193 255
151 193 255
151 193 255
151 193 255
151 193 255
151 193 255
151 193 255
151 193 255
151 193 255
151 193 255
151 193 255
151 193 255
151 193 255
151 193 255
151 193 255
151 193 255
151 193 255
151 193 255
151 193 255
151 193 255
151 193 255
151 193 255
151 193 255
151 193 255
151 193 255
151 193 255
151 193 255
151 193 255
151 193 255
150 192 255
151 193 255
150 192 255
150 192 255
150 192 255
150 192 255
150 192 255
150 192 255
150 192 255
151 193 255
151 193 255
151 193 255
151 193 255
151 193 255
151 193 255
151 193 255
151 193 255
151 193 255
151 193 255
151 193 255
151 193 255
151 193 255
151 193 255
151 193 255
151 193 255
151 193 255
151 193 255
151 193 255
151 193 255
151 193 255
151 193 255
151 193 255
151 193 255
151 193 255
151 193 255
151 193 255
151 193 255
151 193 255
152 193 255
152 193 255
152 193 255
152 193 255
152 193 255
152 193 255
152 193 255
152 193 255
152 193 255
152 193 255
152 193 255
152 194 255
152 194 255
152 194 255
152 194 255
153 194 255
153 194 255
153 194 255
153 194 255
153 194 255
153 194 255
153 194 255
153 194 255
153 194 255
153 194 255
153 194 255
153 194 255
154 194 255
154 194 255
154 194 255
154 194 255
154 195 255
154 195 255
154 195 255
154 195 255
154 195 255
154 195 255
154 195 255
155 195 255
155 195 255
155 195 255
155 195 255
155 195 255
155 195 255
155 195 255
155 195 255
155 195 255
156 196 255
156 196 255
156 196 255
156 196 255
156 196 255
156 196 255
156 196 255
156 196 255
156 196 255
156 196 255
157 196 255
157 196 255
157 196 255
157 196 255
157 196 255
157 196 255
157 197 255
157 197 255
157 197 255
158 197 255
158 197 255
158 197 255
158 197 255
158 197 255
158 197 255
158 197 255
158 197 255
158 197 255
159 197 255
159 197 255
159 197 255
159 198 255
159 198 255
159 198 255
159 198 255
159 198 255
159 198 255
159 198 255
160 198 255
160 198 255
160 198 255
160 198 255
160 198 255
160 198 255
160 198 255
160 198 255
160 198 255
161 199 255
161 199 255
161 199 255
161 199 255
161 199 255
161 199 255
161 199 255
161 199 255
161 199 255
161 199 255
162 199 255
162 199 255
162 199 255
162 199 255
162 199 255
162 199 255
162 200 255
162 200 255
162 200 255
162 200 255
163 200 255
163 200 255
163 200 255
163 200 255
163 200 255
163 200 255
163 200 255
163 200 255
163 200 255
163 200 255
164 200 255
164 200 255
164 200 255
164 200 255
164 201 255
164 201 255
164 201 255
164 201 255
164 201 255
164 201 255
165 201 255
165 201 255
165 201 255
165 201 255
165 201 255
165 201 255
165 201 255
165 201 255
165 201 255
165 201 255
165 201 255
165 201 255
166 202 255
166 202 255
166 202 255
166 202 255
166 202 255
166 202 255
166 202 255
166 202 255
166 202 255
166 202 255
166 202 255
166 202 255
167 202 255
167 202 255
167 202 255
167 202 255
167 202 255
167 202 255
167 202 255
167 202 255
167 203 255
167 203 255
167 203 255
167 203 255
167 203 255
167 203 255
167 202 255
167 202 255
167 202 255
167 202 255
167 202 255
167 202 255
167 202 255
167 202 255
166 202 255
166 202 255
166 202 255
166 202 255
166 202 255
166 202 255
166 202 255
166 202 255
166 202 255
166 202 255
166 202 255
166 202 255
165 201 255
165 201 255
165 201 255
165 201 255
165 201 255
165 201 255
165 201 255
165 201 255
165 201 255
165 201 255
165 201 255
164 201 255
164 201 255
164 201 255
164 201 255
164 201 255
164 201 255
164 201 255
164 200 255
164 200 255
164 200 255
163 200 255
163 200 255
163 200 255
163 200 255
163 200 255
163 200 255
163 200 255
163 200 255
163 200 255
163 200 255
163 200 255
162 200 255
162 200 255
162 200 255
162 199 255
162 199 255
162 199 255
162 199 255
162 199 255
162 199 255
161 199 255
161 199 255
161 199 255
161 199 255
161 199 255
161 199 255
161 199 255
161 199 255
161 199 255
161 199 255
160 198 255
160 198 255
160 198 255
160 198 255
160 198 255
160 198 255
160 198 255
160 198 255
160 198 255
160 198 255
159 198 255
159 198 255
159 198 255
159 198 255
159 198 255
159 198 255
159 197 255
159 197 255
159 197 255
158 197 255
158 197 255
158 197 255
158 197 255
158 197 255
158 197 255
158 197 255
158 197 255
158 197 255
157 197 255
157 197 255
157 197 255
157 196 255
157 196 255
157 196 255
157 196 255
157 196 255
157 196 255
157 196 255
156 196 255
156 196 255
156 196 255
156 196 255
156 196 255
156 196 255
156 196 255
156 196 255
156 196 255
155 195 255
155 195 255
155 195 255
155 195 255
155 195 255
155 195 255
155 195 255
155 195 255
155 195 255
155 195 255
154 195 255
154 195 255
154 195 255
154 195 255
154 195 255
154 195 255
154 195 255
154 194 255
154 194 255
154 194 255
154 194 255
153 194 255
153 194 255
153 194 255
153 194 255
153 194 255
153 194 255
153 194 255
153 194 255
153 194 255
153 194 255
153 194 255
153 194 255
153 194 255
152 194 255
152 194 255
152 194 255
152 194 255
152 193 255
152 193 255
152 193 255
152 193 255
152 193 255
152 193 255
152 193 255
152 193 255
152 193 255
152 193 255
152 193 255
151 193 255
151 193 255
151 193 255
151 193 255
151 193 255
151 193 255
151 193 255
151 193 255
151 193 255
151 193 255
151 193 255
151 193 255
151 193 255
151 193 255
151 193 255
151 193 255
151 193 255
151 193 255
151 193 255
151 193 255
151 193 255
151 193 255
151 193 255
151 193 255
151 193 255
151 193 255
151 193 255
151 193 255
151 193 255
151 193 255
151 193 255
151 193 255
151 193 255
151 193 255
151 193 255
151 193 255
151 193 255
151 193 255
151 193 255
151 193 255
151 193 255
151 193 255
151 193 255
151 193 255
151 193 255
151 193 255
151 193 255
151 193 255
151 193 255
151 193 255
151 193 255
151 193 255
151 193 255
151 193 255
151 193 255
151 193 255
151 193 255
152 193 255
152 193 255
152 193 255
152 193 255
152 193 255
152 193 255
152 193 255
152 193 255
152 193 255
152 193 255
152 193 255
152 194 255
152 194 255
152 194 255
152 194 255
152 194 255
153 194 255
153 194 255
153 194 255
153 194 255
153 194 255
153 194 255
153 194 255
153 194 255
153 194 255
153 194 255
153 194 255
153 194 255
154 194 255
154 194 255
154 194 255
154 194 255
154 195 255
154 195 255
154 195 255
154 195 255
154 195 255
154 195 255
154 195 255
155 195 255
155 195 255
155 195 255
155 195 255
155 195 255
155 195 255
155 195 255
155 195 255
155 195 255
155 195 255
156 196 255
156 196 255
156 196 255
156 196 255
156 196 255
156 196 255
156 196 255
156 196 255
156 196 255
157 196 255
157 196 255
157 196 255
157 196 255
157 196 255
157 196 255
157 197 255
157 197 255
157 197 255
158 197 255
158 197 255
158 197 255
158 197 255
158 197 255
158 197 255
158 197 255
158 197 255
158 197 255
158 197 255
159 197 255
159 197 255
159 197 255
159 198 255
159 198 255
159 198 255
159 198 255
159 198 255
159 198 255
160 198 255
160 198 255
160 198 255
160 198 255
160 198 255
160 198 255
160 198 255
160 198 255
160 198 255
160 198 255
161 199 255
161 199 255
161 199 255
161 199 255
161 199 255
161 199 255
161 199 255
161 199 255
161 199 255
162 199 255
162 199 255
162 199 255
162 199 255
162 199 255
162 199 255
162 199 255
162 200 255
162 200 255
162 200 255
163 200 255
163 200 255
163 200 255
163 200 255
163 200 255
163 200 255
163 200 255
163 200 255
163 200 255
163 200 255
164 200 255
164 200 255
164 200 255
164 200 255
164 201 255
164 201 255
164 201 255
164 201 255
164 201 255
164 201 255
164 201 255
165 201 255
165 201 255
165 201 255
165 201 255
165 201 255
165 201 255
165 201 255
165 201 255
165 201 255
165 201 255
165 201 255
166 202 255
166 202 255
166 202 255
166 202 255
166 202 255
166 202 255
166 202 255
166 202 255
166 202 255
166 202 255
166 202 255
166 202 255
167 202 255
167 202 255
167 202 255
167 202 255
167 202 255
167 202 255
167 202 255
167 202 255
167 203 255
167 203 255
167 203 255
167 203 255
168 203 255
168 203 255
168 203 255
168 203 255
167 203 255
167 203 255
167 203 255
167 203 255
167 202 255
167 202 255
167 202 255
167 202 255
167 202 255
167 202 255
167 202 255
167 202 255
166 202 255
166 202 255
166 202 255
166 202 255
166 202 255
166 202 255
166 202 255
166 202 255
166 202 255
166 202 255
166 202 255
166 202 255
165 201 255
165 201 255
165 201 255
165 201 255
165 201 255
165 201 255
165 201 255
165 201 255
165 201 255
165 201 255
165 201 255
164 201 255
164 201 255
164 201 255
164 201 255
164 201 255
164 201 255
164 200 255
164 200 255
164 200 255
164 200 255
163 200 255
163 200 255
163 200 255
163 200 255
163 200 255
163 200 255
163 200 255
163 200 255
163 200 255
163 200 255
162 200 255
162 200 255
162 200 255
162 200 255
162 199 255
162 199 255
162 199 255
162 199 255
162 199 255
162 199 255
161 199 255
161 199 255
161 199 255
161 199 255
161 199 255
161 199 255
161 199 255
161 199 255
161 199 255
161 199 255
160 198 255
160 198 255
160 198 255
160 198 255
160 198 255
160 198 255
160 198 255
160 198 255
160 198 255
159 198 255
159 198 255
159 198 255
159 198 255
159 198 255
159 198 255
159 197 255
159 197 255
159 197 255
158 197 255
158 197 255
158 197 255
158 197 255
158 197 255
158 197 255
158 197 255
158 197 255
158 197 255
158 197 255
157 197 255
157 197 255
157 197 255
157 196 255
157 196 255
157 196 255
157 196 255
157 196 255
157 196 255
156 196 255
156 196 255
156 196 255
156 196 255
156 196 255
156 196 255
156 196 255
156 196 255
156 196 255
156 196 255
155 195 255
155 195 255
155 195 255
155 195 255
155 195 255
155 195 255
155 195 255
155 195 255
155 195 255
155 195 255
154 195 255
154 195 255
154 195 255
154 195 255
154 195 255
154 195 255
154 195 255
154 194 255
154 194 255
154 194 255
154 194 255
153 194 255
153 194 255
153 194 255
153 194 255
153 194 255
153 194 255
153 194 255
153 194 255
153 194 255
153 194 255
153 194 255
153 194 255
153 194 255
152 194 255
152 194 255
152 194 255
152 194 255
152 194 255
152 193 255
152 193 255
152 193 255
152 193 255
152 193 255
152 193 255
152 193 255
152 193 255
152 193 255
152 193 255
152 193 255
152 193 255
152 193 255
151 193 255
151 193 255
151 193 255
151 193 255
151 193 255
151 193 255
151 193 255
151 193 255
151 193 255
151 193 255
151 193 255
151 193 255
151 193 255
151 193 255
151 193 255
151 193 255
151 193 255
151 193 255
151 193 255
151 193 255
151 193 255
151 193 255
151 193 255
151 193 255
151 193 255
151 193 255
151 193 255
151 193 255
151 193 255
151 193 255
151 193 255
151 193 255
151 193 255
151 193 255
151 193 255
151 193 255
151 193 255
151 193 255
151 193 255
151 193 255
151 193 255
151 193 255
151 193 255
151 193 255
151 193 255
152 193 255
152 193 255
152 193 255
152 193 255
152 193 255
152 193 255
152 193 255
152 193 255
152 193 255
152 193 255
152 193 255
152 193 255
152 193 255
152 194 255
152 194 255
152 194 255
152 194 255
152 194 255
153 194 255
153 194 255
153 194 255
153 194 255
153 194 255
153 194 255
153 194 255
153 194 255
153 194 255
153 194 255
153 194 255
153 194 255
153 194 255
154 194 255
154 194 255
154 194 255
154 194 255
154 195 255
154 195 255
154 195 255
154 195 255
154 195 255
154 195 255
154 195 255
155 195 255
155 195 255
155 195 255
155 195 255
155 195 255
155 195 255
155 195 255
155 195 255
155 195 255
155 195 255
156 196 255
156 196 255
156 196 255
156 196 255
156 196 255
156 196 255
156 196 255
156 196 255
156 196 255
156 196 255
157 196 255
157 196 255
157 196 255
157 196 255
157 196 255
157 196 255
157 197 255
157 197 255
157 197 255
158 197 255
158 197 255
158 197 255
158 197 255
158 197 255
158 197 255
158 197 255
158 197 255
158 197 255
158 197 255
159 197 255
159 197 255
159 197 255
159 198 255
159 198 255
159 198 255
159 198 255
159 198 255
159 198 255
160 198 255
160 198 255
160 198 255
160 198 255
160 198 255
160 198 255
160 198 255
160 198 255
160 198 255
161 199 255
161 199 255
161 199 255
161 199 255
161 199 255
161 199 255
161 199 255
161 199 255
161 199 255
161 199 255
162 199 255
162 199 255
162 199 255
162 199 255
162 199 255
162 199 255
162 200 255
162 200 255
162 200 255
162 200 255
163 200 255
163 200 255
163 200 255
163 200 255
163 200 255
163 200 255
163 200 255
163 200 255
163 200 255
163 200 255
164 200 255
164 200 255
164 200 255
164 201 255
164 201 255
164 201 255
164 201 255
164 201 255
164 201 255
164 201 255
165 201 255
165 201 255
165 201 255
165 201 255
165 201 255
165 201 255
165 201 255
165 201 255
165 201 255
165 201 255
165 201 255
165 201 255
166 202 255
166 202 255
166 202 255
166 202 255
166 202 255
166 202 255
166 202 255
166 202 255
166 202 255
166 202 255
166 202 255
167 202 255
167 202 255
167 202 255
167 202 255
167 202 255
167 202 255
167 202 255
167 202 255
167 203 255
167 203 255
167 203 255
167 203 255
167 203 255
168 203 255
168 203 255
168 203 255
168 203 255
168 203 255
168 203 255
168 203 255
168 203 255
167 203 255
167 203 255
167 203 255
167 203 255
167 203 255
167 202 255
167 202 255
167 202 255
167 202 255
167 202 255
167 202 255
167 202 255
167 202 255
166 202 255
166 202 255
166 202 255
166 202 255
166 202 255
166 202 255
166 202 255
166 202 255
166 202 255
166 202 255
166 202 255
165 201 255
165 201 255
165 201 255
165 201 255
165 201 255
165 201 255
165 201 255
165 201 255
165 201 255
165 201 255
165 201 255
164 201 255
164 201 255
164 201 255
164 201 255
164 201 255
164 201 255
164 201 255
164 200 255
164 200 255
164 200 255
164 200 255
163 200 255
163 200 255
163 200 255
163 200 255
163 200 255
163 200 255
163 200 255
163 200 255
163 200 255
163 200 255
162 200 255
162 200 255
162 200 255
162 199 255
162 199 255
162 199 255
162 199 255
162 199 255
162 199 255
162 199 255
161 199 255
161 199 255
161 199 255
161 199 255
161 199 255
161 199 255
161 199 255
161 199 255
161 199 255
160 198 255
160 198 255
160 198 255
160 198 255
160 198 255
160 198 255
160 198 255
160 198 255
160 198 255
160 198 255
159 198 255
159 198 255
159 198 255
159 198 255
159 198 255
159 198 255
159 197 255
159 197 255
159 197 255
158 197 255
158 197 255
158 197 255
158 197 255
158 197 255
158 197 255
158 197 255
158 197 255
158 197 255
157 197 255
157 197 255
157 197 255
157 197 255
157 196 255
157 196 255
157 196 255
157 196 255
157 196 255
157 196 255
156 196 255
156 196 255
156 196 255
156 196 255
156 196 255
156 196 255
156 196 255
156 196 255
156 196 255
156 196 255
155 195 255
155 195 255
155 195 255
155 195 255
155 195 255
155 195 255
155 195 255
155 195 255
155 195 255
155 195 255
154 195 255
154 195 255
154 195 255
154 195 255
154 195 255
154 195 255
154 195 255
154 194 255
154 194 255
154 194 255
154 194 255
153 194 255
153 194 255
153 194 255
153 194 255
153 194 255
153 194 255
153 194 255
153 194 255
153 194 255
153 194 255
153 194 255
153 194 255
153 194 255
153 194 255
152 194 255
152 194 255
152 194 255
152 194 255
152 194 255
152 194 255
152 193 255
152 193 255
152 193 255
152 193 255
152 193 255
152 193 255
152 193 255
152 193 255
152 193 255
152 193 255
152 193 255
152 193 255
152 193 255
152 193 255
152 193 255
152 193 255
151 193 255
151 193 255
151 193 255
151 193 255
151 193 255
151 193 255
151 193 255
151 193 255
151 193 255
151 193 255
151 193 255
151 193 255
151 193 255
151 193 255
151 193 255
151 193 255
151 193 255
151 193 255
151 193 255
151 193 255
151 193 255
151 193 255
151 193 255
151 193 255
151 193 255
151 193 255
151 193 255
151 193 255
151 193 255
152 193 255
152 193 255
152 193 255
152 193 255
152 193 255
152 193 255
152 193 255
152 193 255
152 193 255
152 193 255
152 193 255
152 193 255
152 193 255
152 193 255
152 193 255
152 193 255
152 193 255
152 194 255
152 194 255
152 194 255
152 194 255
152 194 255
153 194 255
153 194 255
153 194 255
153 194 255
153 194 255
153 194 255
153 194 255
153 194 255
153 194 255
153 194 255
153 194 255
153 194 255
153 194 255
153 194 255
154 194 255
154 194 255
154 194 255
154 194 255
154 195 255
154 195 255
154 195 255
154 195 255
154 195 255
154 195 255
154 195 255
155 195 255
155 195 255
155 195 255
155 195 255
155 195 255
155 195 255
155 195 255
155 195 255
155 195 255
155 195 255
156 196 255
156 196 255
156 196 255
156 196 255
156 196 255
156 196 255
156 196 255
156 196 255
156 196 255
156 196 255
157 196 255
157 196 255
157 196 255
157 196 255
157 196 255
157 196 255
157 196 255
157 197 255
157 197 255
158 197 255
158 197 255
158 197 255
158 197 255
158 197 255
158 197 255
158 197 255
158 197 255
158 197 255
158 197 255
159 197 255
159 197 255
159 197 255
159 198 255
159 198 255
159 198 255
159 198 255
159 198 255
159 198 255
159 198 255
160 198 255
160 198 255
160 198 255
160 198 255
160 198 255
160 198 255
160 198 255
160 198 255
160 198 255
161 199 255
161 199 255
161 199 255
161 199 255
161 199 255
161 199 255
161 199 255
161 199 255
161 199 255
162 199 255
162 199 255
162 199 255
162 199 255
162 199 255
162 199 255
162 199 255
162 200 255
162 200 255
162 200 255
163 200 255
163 200 255
163 200 255
163 200 255
163 200 255
163 200 255
163 200 255
163 200 255
163 200 255
163 200 255
164 200 255
164 200 255
164 200 255
164 200 255
164 201 255
164 201 255
164 201 255
164 201 255
164 201 255
164 201 255
164 201 255
165 201 255
165 201 255
165 201 255
165 201 255
165 201 255
165 201 255
165 201 255
165 201 255
165 201 255
165 201 255
165 201 255
166 202 255
166 202 255
166 202 255
166 202 255
166 202 255
166 202 255
166 202 255
166 202 255
166 202 255
166 202 255
166 202 255
167 202 255
167 202 255
167 202 255
167 202 255
167 202 255
167 202 255
167 202 255
167 202 255
167 203 255
167 203 255
167 203 255
167 203 255
168 203 255
168 203 255
168 203 255
168 203 255
168 203 255
168 203 255
168 203 255
168 203 255
168 203 255
168 203 255
168 203 255
168 203 255
168 203 255
168 203 255
168 203 255
167 203 255
167 203 255
167 203 255
167 203 255
167 202 255
167 202 255
167 202 255
167 202 255
167 202 255
167 202 255
167 202 255
167 202 255
167 202 255
166 202 255
166 202 255
166 202 255
166 202 255
166 202 255
166 202 255
166 202 255
166 202 255
166 202 255
166 202 255
166 202 255
165 201 255
165 201 255
165 201 255
165 201 255
165 201 255
165 201 255
165 201 255
165 201 255
165 201 255
165 201 255
165 201 255
164 201 255
164 201 255
164 201 255
164 201 255
164 201 255
164 201 255
164 201 255
164 200 255
164 200 255
164 200 255
163 200 255
163 200 255
163 200 255
163 200 255
163 200 255
163 200 255
163 200 255
163 200 255
163 200 255
163 200 255
162 200 255
162 200 255
162 200 255
162 200 255
162 199 255
162 199 255
162 199 255
162 199 255
162 199 255
162 199 255
161 199 255
161 199 255
161 199 255
161 199 255
161 199 255
161 199 255
161 199 255
161 199 255
161 199 255
161 199 255
160 198 255
160 198 255
160 198 255
160 198 255
160 198 255
160 198 255
160 198 255
160 198 255
160 198 255
159 198 255
159 198 255
159 198 255
159 198 255
159 198 255
159 198 255
159 197 255
159 197 255
159 197 255
158 197 255
158 197 255
158 197 255
158 197 255
158 197 255
158 197 255
158 197 255
158 197 255
158 197 255
158 197 255
157 197 255
157 197 255
157 197 255
157 196 255
157 196 255
157 196 255
157 196 255
157 196 255
157 196 255
156 196 255
156 196 255
156 196 255
156 196 255
156 196 255
156 196 255
156 196 255
156 196 255
156 196 255
156 196 255
156 196 255
155 195 255
155 195 255
155 195 255
155 195 255
155 195 255
155 195 255
155 195 255
155 195 255
155 195 255
155 195 255
154 195 255
154 195 255
154 195 255
154 195 255
154 195 255
154 195 255
154 195 255
154 195 255
154 194 255
154 194 255
154 194 255
154 194 255
153 194 255
153 194 255
153 194 255
153 194 255
153 194 255
153 194 255
153 194 255
153 194 255
153 194 255
153 194 255
153 194 255
153 194 255
153 194 255
153 194 255
152 194 255
152 194 255
152 194 255
152 194 255
152 194 255
152 194 255
152 194 255
152 193 255
152 193 255
152 193 255
152 193 255
152 193 255
152 193 255
152 193 255
152 193 255
152 193 255
152 193 255
152 193 255
152 193 255
152 193 255
152 193 255
152 193 255
152 193 255
152 193 255
152 193 255
152 193 255
152 193 255
152 193 255
152 193 255
152 193 255
152 193 255
152 193 255
152 193 255
152 193 255
152 193 255
152 193 255
152 193 255
152 193 255
152 193 255
152 193 255
152 193 255
152 193 255
152 193 255
152 193 255
152 193 255
152 193 255
152 193 255
152 193 255
152 193 255
152 193 255
152 193 255
152 193 255
152 193 255
152 193 255
152 193 255
152 193 255
152 193 255
152 193 255
152 194 255
152 194 255
152 194 255
152 194 255
152 194 255
152 194 255
153 194 255
153 194 255
153 194 255
153 194 255
153 194 255
153 194 255
153 194 255
153 194 255
153 194 255
153 194 255
153 194 255
153 194 255
153 194 255
153 194 255
153 194 255
154 194 255
154 194 255
154 194 255
154 194 255
154 195 255
154 195 255
154 195 255
154 195 255
154 195 255
154 195 255
154 195 255
154 195 255
155 195 255
155 195 255
155 195 255
155 195 255
155 195 255
155 195 255
155 195 255
155 195 255
155 195 255
155 195 255
155 195 255
156 196 255
156 196 255
156 196 255
156 196 255
156 196 255
156 196 255
156 196 255
156 196 255
156 196 255
156 196 255
157 196 255
157 196 255
157 196 255
157 196 255
157 196 255
157 196 255
157 197 255
157 197 255
157 197 255
158 197 255
158 197 255
158 197 255
158 197 255
158 197 255
158 197 255
158 197 255
158 197 255
158 197 255
158 197 255
159 197 255
159 197 255
159 197 255
159 198 255
159 198 255
159 198 255
159 198 255
159 198 255
159 198 255
160 198 255
160 198 255
160 198 255
160 198 255
160 198 255
160 198 255
160 198 255
160 198 255
160 198 255
161 199 255
161 199 255
161 199 255
161 199 255
161 199 255
161 199 255
161 199 255
161 199 255
161 199 255
161 199 255
162 199 255
162 199 255
162 199 255
162 199 255
162 199 255
162 199 255
162 200 255
162 200 255
162 200 255
163 200 255
163 200 255
163 200 255
163 200 255
163 200 255
163 200 255
163 200 255
163 200 255
163 200 255
163 200 255
163 200 255
164 200 255
164 200 255
164 200 255
164 201 255
164 201 255
164 201 255
164 201 255
164 201 255
164 201 255
164 201 255
165 201 255
165 201 255
165 201 255
165 201 255
165 201 255
165 201 255
165 201 255
165 201 255
165 201 255
165 201 255
165 201 255
166 202 255
166 202 255
166 202 255
166 202 255
166 202 255
166 202 255
166 202 255
166 202 255
166 202 255
166 202 255
166 202 255
167 202 255
167 202 255
167 202 255
167 202 255
167 202 255
167 202 255
167 202 255
167 202 255
167 203 255
167 203 255
167 203 255
167 203 255
167 203 255
168 203 255
168 203 255
168 203 255
168 203 255
168 203 255
168 203 255
168 203 255
168 203 255
168 203 255
168 203 255
168 203 255
168 203 255
168 203 255
168 203 255
168 203 255
168 203 255
168 203 255
168 203 255
168 203 255
168 203 255
167 203 255
167 203 255
167 203 255
167 203 255
167 202 255
167 202 255
167 202 255
167 202 255
167 202 255
167 202 255
167 202 255
167 202 255
166 202 255
166 202 255
166 202 255
166 202 255
166 202 255
166 202 255
166 202 255
166 202 255
166 202 255
166 202 255
166 202 255
166 202 255
165 201 255
165 201 255
165 201 255
165 201 255
165 201 255
165 201 255
165 201 255
165 201 255
165 201 255
165 201 255
165 201 255
164 201 255
164 201 255
164 201 255
164 201 255
164 201 255
164 201 255
164 201 255
164 200 255
164 200 255
164 200 255
163 200 255
163 200 255
163 200 255
163 200 255
163 200 255
163 200 255
163 200 255
163 200 255
163 200 255
163 200 255
162 200 255
162 200 255
162 200 255
162 199 255
162 199 255
162 199 255
162 199 255
162 199 255
162 199 255
162 199 255
161 199 255
161 199 255
161 199 255
161 199 255
161 199 255
161 199 255
161 199 255
161 199 255
161 199 255
160 198 255
160 198 255
160 198 255
160 198 255
160 198 255
160 198 255
160 198 255
160 198 255
160 198 255
160 198 255
159 198 255
159 198 255
159 198 255
159 198 255
159 198 255
159 198 255
159 197 255
159 197 255
159 197 255
158 197 255
158 197 255
158 197 255
158 197 255
158 197 255
158 197 255
158 197 255
158 197 255
158 197 255
157 197 255
157 197 255
157 197 255
157 197 255
157 196 255
157 196 255
157 196 255
157 196 255
157 196 255
157 196 255
156 196 255
156 196 255
156 196 255
156 196 255
156 196 255
156 196 255
156 196 255
156 196 255
156 196 255
156 196 255
155 195 255
155 195 255
155 195 255
155 195 255
155 195 255
155 195 255
155 195 255
155 195 255
155 195 255
155 195 255
155 195 255
154 195 255
154 195 255
154 195 255
154 195 255
154 195 255
154 195 255
154 195 255
154 195 255
154 194 255
154 194 255
154 194 255
154 194 255
154 194 255
153 194 255
153 194 255
153 194 255
153 194 255
153 194 255
153 194 255
153 194 255
153 194 255
153 194 255
153 194 255
153 194 255
153 194 255
153 194 255
153 194 255
153 194 255
153 194 255
152 194 255
152 194 255
152 194 255
152 194 255
152 194 255
152 194 255
152 194 255
152 193 255
152 193 255
152 193 255
152 193 255
152 193 255
152 193 255
152 193 255
152 193 255
152 193 255
152 193 255
152 193 255
152 193 255
152 193 255
152 193 255
152 193 255
152 193 255
152 193 255
152 193 255
152 193 255
152 193 255
152 193 255
152 193 255
152 193 255
152 193 255
152 193 255
152 193 255
152 193 255
152 193 255
152 193 255
152 193 255
152 193 255
152 193 255
152 193 255
152 193 255
152 193 255
152 193 255
152 193 255
152 193 255
152 194 255
152 194 255
152 194 255
152 194 255
152 194 255
152 194 255
152 194 255
152 194 255
153 194 255
153 194 255
153 194 255
153 194 255
153 194 255
153 194 255
153 194 255
153 194 255
153 194 255
153 194 255
153 194 255
153 194 255
153 194 255
153 194 255
153 194 255
153 194 255
153 194 255
154 194 255
154 194 255
154 194 255
154 194 255
154 195 255
154 195 255
154 195 255
154 195 255
154 195 255
154 195 255
154 195 255
154 195 255
155 195 255
155 195 255
155 195 255
155 195 255
155 195 255
155 195 255
155 195 255
155 195 255
155 195 255
155 195 255
155 195 255
156 196 255
156 196 255
156 196 255
156 196 255
156 196 255
156 196 255
156 196 255
156 196 255
156 196 255
156 196 255
157 196 255
157 196 255
157 196 255
157 196 255
157 196 255
157 196 255
157 197 255
157 197 255
157 197 255
157 197 255
158 197 255
158 197 255
158 197 255
158 197 255
158 197 255
158 197 255
158 197 255
158 197 255
158 197 255
159 197 255
159 197 255
159 197 255
159 198 255
159 198 255
159 198 255
159 198 255
159 198 255
159 198 255
160 198 255
160 198 255
160 198 255
160 198 255
160 198 255
160 198 255
160 198 255
160 198 255
160 198 255
160 198 255
161 199 255
161 199 255
161 199 255
161 199 255
161 199 255
161 199 255
161 199 255
161 199 255
161 199 255
162 199 255
162 199 255
162 199 255
162 199 255
162 199 255
162 199 255
162 199 255
162 200 255
162 200 255
162 200 255
163 200 255
163 200 255
163 200 255
163 200 255
163 200 255
163 200 255
163 200 255
163 200 255
163 200 255
163 200 255
164 200 255
164 200 255
164 200 255
164 200 255
164 201 255
164 201 255
164 201 255
164 201 255
164 201 255
164 201 255
164 201 255
165 201 255
165 201 255
165 201 255
165 201 255
165 201 255
165 201 255
165 201 255
165 201 255
165 201 255
165 201 255
166 202 255
166 202 255
166 202 255
166 202 255
166 202 255
166 202 255
166 202 255
166 202 255
166 202 255
166 202 255
166 202 255
166 202 255
167 202 255
167 202 255
167 202 255
167 202 255
167 202 255
167 202 255
167 202 255
167 202 255
167 203 255
167 203 255
167 203 255
167 203 255
168 203 255
168 203 255
168 203 255
168 203 255
168 203 255
168 203 255
168 203 255
168 203 255
168 203 255
168 203 255
168 203 255
168 203 255
169 203 255
168 203 255
168 203 255
168 203 255
168 203 255
168 203 255
168 203 255
168 203 255
168 203 255
168 203 255
168 203 255
168 203 255
168 203 255
168 203 255
167 203 255
167 203 255
167 203 255
167 203 255
167 202 255
167 202 255
167 202 255
167 202 255
167 202 255
167 202 255
167 202 255
167 202 255
166 202 255
166 202 255
166 202 255
166 202 255
166 202 255
166 202 255
166 202 255
166 202 255
166 202 255
166 202 255
166 202 255
165 201 255
165 201 255
165 201 255
165 201 255
165 201 255
165 201 255
165 201 255
165 201 255
165 201 255
165 201 255
165 201 255
164 201 255
164 201 255
164 201 255
164 201 255
164 201 255
164 201 255
164 201 255
164 200 255
164 200 255
164 200 255
163 200 255
163 200 255
163 200 255
163 200 255
163 200 255
163 200 255
163 200 255
163 200 255
163 200 255
163 200 255
162 200 255
162 200 255
162 200 255
162 200 255
162 199 255
162 199 255
162 199 255
162 199 255
162 199 255
162 199 255
161 199 255
161 199 255
161 199 255
161 199 255
161 199 255
161 199 255
161 199 255
161 199 255
161 199 255
161 199 255
160 198 255
160 198 255
160 198 255
160 198 255
160 198 255
160 198 255
160 198 255
160 198 255
160 198 255
159 198 255
159 198 255
159 198 255
159 198 255
159 198 255
159 198 255
159 198 255
159 197 255
159 197 255
159 197 255
158 197 255
158 197 255
158 197 255
158 197 255
158 197 255
158 197 255
158 197 255
158 197 255
158 197 255
157 197 255
157 197 255
157 197 255
157 196 255
157 196 255
157 196 255
157 196 255
157 196 255
157 196 255
157 196 255
156 196 255
156 196 255
156 196 255
156 196 255
156 196 255
156 196 255
156 196 255
156 196 255
156 196 255
156 196 255
155 195 255
155 195 255
155 195 255
155 195 255
155 195 255
155 195 255
155 195 255
155 195 255
155 195 255
155 195 255
155 195 255
155 195 255
154 195 255
154 195 255
154 195 255
154 195 255
154 195 255
154 195 255
154 195 255
154 195 255
154 194 255
154 194 255
154 194 255
154 194 255
153 194 255
153 194 255
153 194 255
153 194 255
153 194 255
153 194 255
153 194 255
153 194 255
153 194 255
153 194 255
153 194 255
153 194 255
153 194 255
153 194 255
153 194 255
153 194 255
153 194 255
153 194 255
153 194 255
153 194 255
152 194 255
152 194 255
152 194 255
152 194 255
152 194 255
152 194 255
152 194 255
152 194 255
152 194 255
152 194 255
152 194 255
152 193 255
152 193 255
152 193 255
152 193 255
152 193 255
152 193 255
152 193 255
152 193 255
152 193 255
152 193 255
152 193 255
152 193 255
152 193 255
152 193 255
152 193 255
152 193 255
152 193 255
152 194 255
152 194 255
152 194 255
152 194 255
152 194 255
152 194 255
152 194 255
152 194 255
152 194 255
152 194 255
152 194 255
152 194 255
153 194 255
153 194 255
153 194 255
153 194 255
153 194 255
153 194 255
153 194 255
153 194 255
153 194 255
153 194 255
153 194 255
153 194 255
153 194 255
153 194 255
153 194 255
153 194 255
153 194 255
153 194 255
153 194 255
154 194 255
154 194 255
154 194 255
154 194 255
154 195 255
154 195 255
154 195 255
154 195 255
154 195 255
154 195 255
154 195 255
154 195 255
154 195 255
155 195 255
155 195 255
155 195 255
155 195 255
155 195 255
155 195 255
155 195 255
155 195 255
155 195 255
155 195 255
155 195 255
156 196 255
156 196 255
156 196 255
156 196 255
156 196 255
156 196 255
156 196 255
156 196 255
156 196 255
156 196 255
157 196 255
157 196 255
157 196 255
157 196 255
157 196 255
157 196 255
157 196 255
157 197 255
157 197 255
157 197 255
158 197 255
158 197 255
158 197 255
158 197 255
158 197 255
158 197 255
158 197 255
158 197 255
158 197 255
159 197 255
159 197 255
159 197 255
159 198 255
159 198 255
159 198 255
159 198 255
159 198 255
159 198 255
159 198 255
160 198 255
160 198 255
160 198 255
160 198 255
160 198 255
160 198 255
160 198 255
160 198 255
160 198 255
161 199 255
161 199 255
161 199 255
161 199 255
161 199 255
161 199 255
161 199 255
161 199 255
161 199 255
161 199 255
162 199 255
162 199 255
162 199 255
162 199 255
162 199 255
162 199 255
162 200 255
162 200 255
162 200 255
163 200 255
163 200 255
163 200 255
163 200 255
163 200 255
163 200 255
163 200 255
163 200 255
163 200 255
163 200 255
163 200 255
164 200 255
164 200 255
164 200 255
164 201 255
164 201 255
164 201 255
164 201 255
164 201 255
164 201 255
164 201 255
165 201 255
165 201 255
165 201 255
165 201 255
165 201 255
165 201 255
165 201 255
165 201 255
165 201 255
165 201 255
165 201 255
166 202 255
166 202 255
166 202 255
166 202 255
166 202 255
166 202 255
166 202 255
166 202 255
166 202 255
166 202 255
166 202 255
167 202 255
167 202 255
167 202 255
167 202 255
167 202 255
167 202 255
167 202 255
167 202 255
167 203 255
167 203 255
167 203 255
167 203 255
168 203 255
168 203 255
168 203 255
168 203 255
168 203 255
168 203 255
168 203 255
168 203 255
168 203 255
168 203 255
168 203 255
168 203 255
168 203 255
169 203 255
169 203 255
169 203 255
169 203 255
169 203 255
169 203 255
168 203 255
168 203 255
168 203 255
168 203 255
168 203 255
168 203 255
168 203 255
168 203 255
168 203 255
168 203 255
168 203 255
168 203 255
168 203 255
167 203 255
167 203 255
167 203 255
167 203 255
167 202 255
167 202 255
167 202 255
167 202 255
167 202 255
167 202 255
167 202 255
167 202 255
166 202 255
166 202 255
166 202 255
166 202 255
166 202 255
166 202 255
166 202 255
166 202 255
166 202 255
166 202 255
166 202 255
165 201 255
165 201 255
165 201 255
165 201 255
165 201 255
165 201 255
165 201 255
165 201 255
165 201 255
165 201 255
165 201 255
164 201 255
164 201 255
164 201 255
164 201 255
164 201 255
164 201 255
164 201 255
164 200 255
164 200 255
164 200 255
163 200 255
163 200 255
163 200 255
163 200 255
163 200 255
163 200 255
163 200 255
163 200 255
163 200 255
163 200 255
162 200 255
162 200 255
162 200 255
162 199 255
162 199 255
162 199 255
162 199 255
162 199 255
162 199 255
162 199 255
161 199 255
161 199 255
161 199 255
161 199 255
161 199 255
161 199 255
161 199 255
161 199 255
161 199 255
160 198 255
160 198 255
160 198 255
160 198 255
160 198 255
160 198 255
160 198 255
160 198 255
160 198 255
160 198 255
159 198 255
159 198 255
159 198 255
159 198 255
159 198 255
159 198 255
159 197 255
159 197 255
159 197 255
158 197 255
158 197 255
158 197 255
158 197 255
158 197 255
158 197 255
158 197 255
158 197 255
158 197 255
158 197 255
157 197 255
157 197 255
157 197 255
157 196 255
157 196 255
157 196 255
157 196 255
157 196 255
157 196 255
157 196 255
156 196 255
156 196 255
156 196 255
156 196 255
156 196 255
156 196 255
156 196 255
156 196 255
156 196 255
156 196 255
156 196 255
155 195 255
155 195 255
155 195 255
155 195 255
155 195 255
155 195 255
155 195 255
155 195 255
155 195 255
155 195 255
155 195 255
154 195 255
154 195 255
154 195 255
154 195 255
154 195 255
154 195 255
154 195 255
154 195 255
154 195 255
154 194 255
154 194 255
154 194 255
154 194 255
154 194 255
153 194 255
153 194 255
153 194 255
153 194 255
153 194 255
153 194 255
153 194 255
153 194 255
153 194 255
153 194 255
153 194 255
153 194 255
153 194 255
153 194 255
153 194 255
153 194 255
153 194 255
153 194 255
153 194 255
153 194 255
153 194 255
153 194 255
153 194 255
152 194 255
152 194 255
152 194 255
152 194 255
152 194 255
152 194 255
152 194 255
152 194 255
152 194 255
152 194 255
152 194 255
152 194 255
152 194 255
152 194 255
152 194 255
152 194 255
152 194 255
152 194 255
152 194 255
152 194 255
152 194 255
152 194 255
153 194 255
153 194 255
153 194 255
153 194 255
153 194 255
153 194 255
153 194 255
153 194 255
153 194 255
153 194 255
153 194 255
153 194 255
153 194 255
153 194 255
153 194 255
153 194 255
153 194 255
153 194 255
153 194 255
153 194 255
153 194 255
153 194 255
153 194 255
153 194 255
154 194 255
154 194 255
154 194 255
154 194 255
154 194 255
154 195 255
154 195 255
154 195 255
154 195 255
154 195 255
154 195 255
154 195 255
154 195 255
154 195 255
155 195 255
155 195 255
155 195 255
155 195 255
155 195 255
155 195 255
155 195 255
155 195 255
155 195 255
155 195 255
155 195 255
155 195 255
156 196 255
156 196 255
156 196 255
156 196 255
156 196 255
156 196 255
156 196 255
156 196 255
156 196 255
156 196 255
157 196 255
157 196 255
157 196 255
157 196 255
157 196 255
157 196 255
157 196 255
157 197 255
157 197 255
157 197 255
158 197 255
158 197 255
158 197 255
158 197 255
158 197 255
158 197 255
158 197 255
158 197 255
158 197 255
158 197 255
159 197 255
159 197 255
159 197 255
159 198 255
159 198 255
159 198 255
159 198 255
159 198 255
159 198 255
160 198 255
160 198 255
160 198 255
160 198 255
160 198 255
160 198 255
160 198 255
160 198 255
160 198 255
160 198 255
161 199 255
161 199 255
161 199 255
161 199 255
161 199 255
161 199 255
161 199 255
161 199 255
161 199 255
162 199 255
162 199 255
162 199 255
162 199 255
162 199 255
162 199 255
162 199 255
162 200 255
162 200 255
162 200 255
163 200 255
163 200 255
163 200 255
163 200 255
163 200 255
163 200 255
163 200 255
163 200 255
163 200 255
163 200 255
164 200 255
164 200 255
164 200 255
164 201 255
164 201 255
164 201 255
164 201 255
164 201 255
164 201 255
164 201 255
165 201 255
165 201 255
165 201 255
165 201 255
165 201 255
165 201 255
165 201 255
165 201 255
165 201 255
165 201 255
165 201 255
166 202 255
166 202 255
166 202 255
166 202 255
166 202 255
166 202 255
166 202 255
166 202 255
166 202 255
166 202 255
166 202 255
167 202 255
167 202 255
167 202 255
167 202 255
167 202 255
167 202 255
167 202 255
167 202 255
167 203 255
167 203 255
167 203 255
167 203 255
168 203 255
168 203 255
168 203 255
168 203 255
168 203 255
168 203 255
168 203 255
168 203 255
168 203 255
168 203 255
168 203 255
168 203 255
168 203 255
169 203 255
169 203 255
169 203 255
169 203 255
169 204 255
169 204 255
169 204 255
169 204 255
169 203 255
169 203 255
169 203 255
169 203 255
168 203 255
168 203 255
168 203 255
168 203 255
168 203 255
168 203 255
168 203 255
168 203 255
168 203 255
168 203 255
168 203 255
168 203 255
168 203 255
167 203 255
167 203 255
167 203 255
167 203 255
167 202 255
167 202 255
167 202 255
167 202 255
167 202 255
167 202 255
167 202 255
167 202 255
166 202 255
166 202 255
166 202 255
166 202 255
166 202 255
166 202 255
166 202 255
166 202 255
166 202 255
166 202 255
166 202 255
165 201 255
165 201 255
165 201 255
165 201 255
165 201 255
165 201 255
165 201 255
165 201 255
165 201 255
165 201 255
165 201 255
164 201 255
164 201 255
164 201 255
164 201 255
164 201 255
164 201 255
164 200 255
164 200 255
164 200 255
164 200 255
163 200 255
163 200 255
163 200 255
163 200 255
163 200 255
163 200 255
163 200 255
163 200 255
163 200 255
163 200 255
162 200 255
162 200 255
162 200 255
162 199 255
162 199 255
162 199 255
162 199 255
162 199 255
162 199 255
161 199 255
161 199 255
161 199 255
161 199 255
161 199 255
161 199 255
161 199 255
161 199 255
161 199 255
161 199 255
160 198 255
160 198 255
160 198 255
160 198 255
160 198 255
160 198 255
160 198 255
160 198 255
160 198 255
159 198 255
159 198 255
159 198 255
159 198 255
159 198 255
159 198 255
159 198 255
159 197 255
159 197 255
159 197 255
158 197 255
158 197 255
158 197 255
158 197 255
158 197 255
158 197 255
158 197 255
158 197 255
158 197 255
157 197 255
157 197 255
157 197 255
157 197 255
157 196 255
157 196 255
157 196 255
157 196 255
157 196 255
157 196 255
157 196 255
156 196 255
156 196 255
156 196 255
156 196 255
156 196 255
156 196 255
156 196 255
156 196 255
156 196 255
156 196 255
155 195 255
155 195 255
155 195 255
155 195 255
155 195 255
155 195 255
155 195 255
155 195 255
155 195 255
155 195 255
155 195 255
155 195 255
154 195 255
154 195 255
154 195 255
154 195 255
154 195 255
154 195 255
154 195 255
154 195 255
154 195 255
154 195 255
154 194 255
154 194 255
154 194 255
154 194 255
154 194 255
153 194 255
153 194 255
153 194 255
153 194 255
153 194 255
153 194 255
153 194 255
153 194 255
153 194 255
153 194 255
153 194 255
153 194 255
153 194 255
153 194 255
153 194 255
153 194 255
153 194 255
153 194 255
153 194 255
153 194 255
153 194 255
153 194 255
153 194 255
153 194 255
153 194 255
153 194 255
153 194 255
153 194 255
153 194 255
153 194 255
153 194 255
153 194 255
153 194 255
153 194 255
153 194 255
153 194 255
153 194 255
153 194 255
153 194 255
153 194 255
153 194 255
153 194 255
153 194 255
153 194 255
153 194 255
153 194 255
153 194 255
153 194 255
153 194 255
153 194 255
153 194 255
153 194 255
153 194 255
153 194 255
153 194 255
153 194 255
153 194 255
153 194 255
153 194 255
153 194 255
154 194 255
154 194 255
154 194 255
154 194 255
154 194 255
154 194 255
154 195 255
154 195 255
154 195 255
154 195 255
154 195 255
154 195 255
154 195 255
154 195 255
154 195 255
155 195 255
155 195 255
155 195 255
155 195 255
155 195 255
155 195 255
155 195 255
155 195 255
155 195 255
155 195 255
155 195 255
155 195 255
156 196 255
156 196 255
156 196 255
156 196 255
156 196 255
156 196 255
156 196 255
156 196 255
156 196 255
156 196 255
156 196 255
157 196 255
157 196 255
157 196 255
157 196 255
157 196 255
157 196 255
157 196 255
157 197 255
157 197 255
157 197 255
158 197 255
158 197 255
158 197 255
158 197 255
158 197 255
158 197 255
158 197 255
158 197 255
158 197 255
158 197 255
159 197 255
159 197 255
159 197 255
159 198 255
159 198 255
159 198 255
159 198 255
159 198 255
159 198 255
159 198 255
160 198 255
160 198 255
160 198 255
160 198 255
160 198 255
160 198 255
160 198 255
160 198 255
160 198 255
161 199 255
161 199 255
161 199 255
161 199 255
161 199 255
161 199 255
161 199 255
161 199 255
161 199 255
161 199 255
162 199 255
162 199 255
162 199 255
162 199 255
162 199 255
162 199 255
162 200 255
162 200 255
162 200 255
163 200 255
163 200 255
163 200 255
163 200 255
163 200 255
163 200 255
163 200 255
163 200 255
163 200 255
163 200 255
164 200 255
164 200 255
164 200 255
164 200 255
164 201 255
164 201 255
164 201 255
164 201 255
164 201 255
164 201 255
165 201 255
165 201 255
165 201 255
165 201 255
165 201 255
165 201 255
165 201 255
165 201 255
165 201 255
165 201 255
165 201 255
166 202 255
166 202 255
166 202 255
166 202 255
166 202 255
166 202 255
166 202 255
166 202 255
166 202 255
166 202 255
166 202 255
167 202 255
167 202 255
167 202 255
167 202 255
167 202 255
167 202 255
167 202 255
167 202 255
167 203 255
167 203 255
167 203 255
167 203 255
168 203 255
168 203 255
168 203 255
168 203 255
168 203 255
168 203 255
168 203 255
168 203 255
168 203 255
168 203 255
168 203 255
168 203 255
168 203 255
169 203 255
169 203 255
169 203 255
169 203 255
169 204 255
169 204 255
169 204 255
169 204 255
169 204 255
169 204 255
169 204 255
169 204 255
169 204 255
169 204 255
169 203 255
169 203 255
169 203 255
169 203 255
168 203 255
168 203 255
168 203 255
168 203 255
168 203 255
168 203 255
168 203 255
168 203 255
168 203 255
168 203 255
168 203 255
168 203 255
168 203 255
167 203 255
167 203 255
167 203 255
167 203 255
167 202 255
167 202 255
167 202 255
167 202 255
167 202 255
167 202 255
167 202 255
167 202 255
166 202 255
166 202 255
166 202 255
166 202 255
166 202 255
166 202 255
166 202 255
166 202 255
166 202 255
166 202 255
166 202 255
165 201 255
165 201 255
165 201 255
165 201 255
165 201 255
165 201 255
165 201 255
165 201 255
165 201 255
165 201 255
164 201 255
164 201 255
164 201 255
164 201 255
164 201 255
164 201 255
164 201 255
164 200 255
164 200 255
164 200 255
164 200 255
163 200 255
163 200 255
163 200 255
163 200 255
163 200 255
163 200 255
163 200 255
163 200 255
163 200 255
162 200 255
162 200 255
162 200 255
162 200 255
162 199 255
162 199 255
162 199 255
162 199 255
162 199 255
162 199 255
161 199 255
161 199 255
161 199 255
161 199 255
161 199 255
161 199 255
161 199 255
161 199 255
161 199 255
161 199 255
160 198 255
160 198 255
160 198 255
160 198 255
160 198 255
160 198 255
160 198 255
160 198 255
160 198 255
159 198 255
159 198 255
159 198 255
159 198 255
159 198 255
159 198 255
159 197 255
159 197 255
159 197 255
159 197 255
158 197 255
158 197 255
158 197 255
158 197 255
158 197 255
158 197 255
158 197 255
158 197 255
158 197 255
157 197 255
157 197 255
157 197 255
157 197 255
157 196 255
157 196 255
157 196 255
157 196 255
157 196 255
157 196 255
157 196 255
156 196 255
156 196 255
156 196 255
156 196 255
156 196 255
156 196 255
156 196 255
156 196 255
156 196 255
156 196 255
156 196 255
155 195 255
155 195 255
155 195 255
155 195 255
155 195 255
155 195 255
155 195 255
155 195 255
155 195 255
155 195 255
155 195 255
155 195 255
155 195 255
154 195 255
154 195 255
154 195 255
154 195 255
154 195 255
154 195 255
154 195 255
154 195 255
154 195 255
154 195 255
154 194 255
154 194 255
154 194 255
154 194 255
154 194 255
154 194 255
154 194 255
153 194 255
153 194 255
153 194 255
153 194 255
153 194 255
153 194 255
153 194 255
153 194 255
153 194 255
153 194 255
153 194 255
153 194 255
153 194 255
153 194 255
153 194 255
153 194 255
153 194 255
153 194 255
153 194 255
153 194 255
153 194 255
153 194 255
153 194 255
153 194 255
153 194 255
153 194 255
153 194 255
153 194 255
153 194 255
153 194 255
153 194 255
153 194 255
153 194 255
153 194 255
153 194 255
153 194 255
153 194 255
153 194 255
153 194 255
153 194 255
153 194 255
153 194 255
153 194 255
153 194 255
153 194 255
153 194 255
153 194 255
153 194 255
154 194 255
154 194 255
154 194 255
154 194 255
154 194 255
154 194 255
154 195 255
154 195 255
154 195 255
154 195 255
154 195 255
154 195 255
154 195 255
154 195 255
154 195 255
154 195 255
154 195 255
155 195 255
155 195 255
155 195 255
155 195 255
155 195 255
155 195 255
155 195 255
155 195 255
155 195 255
155 195 255
155 195 255
155 195 255
156 196 255
156 196 255
156 196 255
156 196 255
156 196 255
156 196 255
156 196 255
156 196 255
156 196 255
156 196 255
156 196 255
157 196 255
157 196 255
157 196 255
157 196 255
157 196 255
157 196 255
157 196 255
157 197 255
157 197 255
157 197 255
157 197 255
158 197 255
158 197 255
158 197 255
158 197 255
158 197 255
158 197 255
158 197 255
158 197 255
158 197 255
159 197 255
159 197 255
159 197 255
159 198 255
159 198 255
159 198 255
159 198 255
159 198 255
159 198 255
159 198 255
160 198 255
160 198 255
160 198 255
160 198 255
160 198 255
160 198 255
160 198 255
160 198 255
160 198 255
161 199 255
161 199 255
161 199 255
161 199 255
161 199 255
161 199 255
161 199 255
161 199 255
161 199 255
161 199 255
162 199 255
162 199 255
162 199 255
162 199 255
162 199 255
162 199 255
162 200 255
162 200 255
162 200 255
162 200 255
163 200 255
163 200 255
163 200 255
163 200 255
163 200 255
163 200 255
163 200 255
163 200 255
163 200 255
164 200 255
164 200 255
164 200 255
164 200 255
164 201 255
164 201 255
164 201 255
164 201 255
164 201 255
164 201 255
164 201 255
165 201 255
165 201 255
165 201 255
165 201 255
165 201 255
165 201 255
165 201 255
165 201 255
165 201 255
165 201 255
166 202 255
166 202 255
166 202 255
166 202 255
166 202 255
166 202 255
166 202 255
166 202 255
166 202 255
166 202 255
166 202 255
167 202 255
167 202 255
167 202 255
167 202 255
167 202 255
167 202 255
167 202 255
167 202 255
167 203 255
167 203 255
167 203 255
167 203 255
168 203 255
168 203 255
168 203 255
168 203 255
168 203 255
168 203 255
168 203 255
168 203 255
168 203 255
168 203 255
168 203 255
168 203 255
169 203 255
169 203 255
169 203 255
169 203 255
169 203 255
169 204 255
169 204 255
169 204 255
169 204 255
169 204 255
169 204 255
169 204 255
169 204 255
169 204 255
169 204 255
169 204 255
169 204 255
169 204 255
169 204 255
169 204 255
169 204 255
169 203 255
169 203 255
169 203 255
169 203 255
168 203 255
168 203 255
168 203 255
168 203 255
168 203 255
168 203 255
168 203 255
168 203 255
168 203 255
168 203 255
168 203 255
168 203 255
168 203 255
167 203 255
167 203 255
167 203 255
167 203 255
167 202 255
167 202 255
167 202 255
167 202 255
167 202 255
167 202 255
167 202 255
167 202 255
166 202 255
166 202 255
166 202 255
166 202 255
166 202 255
166 202 255
166 202 255
166 202 255
166 202 255
166 202 255
165 201 255
165 201 255
165 201 255
165 201 255
165 201 255
165 201 255
165 201 255
165 201 255
165 201 255
165 201 255
165 201 255
164 201 255
164 201 255
164 201 255
164 201 255
164 201 255
164 201 255
164 201 255
164 200 255
164 200 255
164 200 255
163 200 255
163 200 255
163 200 255
163 200 255
163 200 255
163 200 255
163 200 255
163 200 255
163 200 255
163 200 255
162 200 255
162 200 255
162 200 255
162 199 255
162 199 255
162 199 255
162 199 255
162 199 255
162 199 255
162 199 255
161 199 255
161 199 255
161 199 255
161 199 255
161 199 255
161 199 255
161 199 255
161 199 255
161 199 255
160 198 255
160 198 255
160 198 255
160 198 255
160 198 255
160 198 255
160 198 255
160 198 255
160 198 255
160 198 255
159 198 255
159 198 255
159 198 255
159 198 255
159 198 255
159 198 255
159 197 255
159 197 255
159 197 255
158 197 255
158 197 255
158 197 255
158 197 255
158 197 255
158 197 255
158 197 255
158 197 255
158 197 255
158 197 255
157 197 255
157 197 255
157 197 255
157 197 255
157 196 255
157 196 255
157 196 255
157 196 255
157 196 255
157 196 255
157 196 255
156 196 255
156 196 255
156 196 255
156 196 255
156 196 255
156 196 255
156 196 255
156 196 255
156 196 255
156 196 255
156 196 255
155 195 255
155 195 255
155 195 255
155 195 255
155 195 255
155 195 255
155 195 255
155 195 255
155 195 255
155 195 255
155 195 255
155 195 255
155 195 255
155 195 255
154 195 255
154 195 255
154 195 255
154 195 255
154 195 255
154 195 255
154 195 255
154 195 255
154 195 255
154 195 255
154 195 255
154 195 255
154 194 255
154 194 255
154 194 255
154 194 255
154 194 255
154 194 255
154 194 255
154 194 255
153 194 255
153 194 255
153 194 255
153 194 255
153 194 255
153 194 255
153 194 255
153 194 255
153 194 255
153 194 255
153 194 255
153 194 255
153 194 255
153 194 255
153 194 255
153 194 255
153 194 255
153 194 255
153 194 255
153 194 255
153 194 255
153 194 255
153 194 255
153 194 255
153 194 255
153 194 255
153 194 255
153 194 255
153 194 255
153 194 255
153 194 255
153 194 255
154 194 255
154 194 255
154 194 255
154 194 255
154 194 255
154 194 255
154 194 255
154 194 255
154 194 255
154 195 255
154 195 255
154 195 255
154 195 255
154 195 255
154 195 255
154 195 255
154 195 255
154 195 255
154 195 255
154 195 255
154 195 255
155 195 255
155 195 255
155 195 255
155 195 255
155 195 255
155 195 255
155 195 255
155 195 255
155 195 255
155 195 255
155 195 255
155 195 255
155 195 255
155 195 255
156 196 255
156 196 255
156 196 255
156 196 255
156 196 255
156 196 255
156 196 255
156 196 255
156 196 255
156 196 255
156 196 255
157 196 255
157 196 255
157 196 255
157 196 255
157 196 255
157 196 255
157 196 255
157 197 255
157 197 255
157 197 255
157 197 255
158 197 255
158 197 255
158 197 255
158 197 255
158 197 255
158 197 255
158 197 255
158 197 255
158 197 255
158 197 255
159 197 255
159 197 255
159 197 255
159 198 255
159 198 255
159 198 255
159 198 255
159 198 255
159 198 255
160 198 255
160 198 255
160 198 255
160 198 255
160 198 255
160 198 255
160 198 255
160 198 255
160 198 255
160 198 255
161 199 255
161 199 255
161 199 255
161 199 255
161 199 255
161 199 255
161 199 255
161 199 255
161 199 255
162 199 255
162 199 255
162 199 255
162 199 255
162 199 255
162 199 255
162 199 255
162 200 255
162 200 255
162 200 255
163 200 255
163 200 255
163 200 255
163 200 255
163 200 255
163 200 255
163 200 255
163 200 255
163 200 255
163 200 255
164 200 255
164 200 255
164 200 255
164 201 255
164 201 255
164 201 255
164 201 255
164 201 255
164 201 255
164 201 255
165 201 255
165 201 255
165 201 255
165 201 255
165 201 255
165 201 255
165 201 255
165 201 255
165 201 255
165 201 255
165 201 255
166 202 255
166 202 255
166 202 255
166 202 255
166 202 255
166 202 255
166 202 255
166 202 255
166 202 255
166 202 255
166 202 255
167 202 255
167 202 255
167 202 255
167 202 255
167 202 255
167 202 255
167 202 255
167 203 255
167 203 255
167 203 255
167 203 255
168 203 255
168 203 255
168 203 255
168 203 255
168 203 255
168 203 255
168 203 255
168 203 255
168 203 255
168 203 255
168 203 255
168 203 255
168 203 255
169 203 255
169 203 255
169 203 255
169 203 255
169 204 255
169 204 255
169 204 255
169 204 255
169 204 255
169 204 255
169 204 255
169 204 255
169 204 255
170 204 255
170 204 255
170 204 255
170 204 255
169 204 255
169 204 255
169 204 255
169 204 255
169 204 255
169 204 255
169 204 255
169 204 255
169 204 255
169 203 255
169 203 255
169 203 255
169 203 255
168 203 255
168 203 255
168 203 255
168 203 255
168 203 255
168 203 255
168 203 255
168 203 255
168 203 255
168 203 255
168 203 255
168 203 255
168 203 255
167 203 255
167 203 255
167 203 255
167 203 255
167 202 255
167 202 255
167 202 255
167 202 255
167 202 255
167 202 255
167 202 255
166 202 255
166 202 255
166 202 255
166 202 255
166 202 255
166 202 255
166 202 255
166 202 255
166 202 255
166 202 255
166 202 255
165 201 255
165 201 255
165 201 255
165 201 255
165 201 255
165 201 255
165 201 255
165 201 255
165 201 255
165 201 255
165 201 255
164 201 255
164 201 255
164 201 255
164 201 255
164 201 255
164 201 255
164 201 255
164 200 255
164 200 255
164 200 255
163 200 255
163 200 255
163 200 255
163 200 255
163 200 255
163 200 255
163 200 255
163 200 255
163 200 255
163 200 255
162 200 255
162 200 255
162 200 255
162 199 255
162 199 255
162 199 255
162 199 255
162 199 255
162 199 255
161 199 255
161 199 255
161 199 255
161 199 255
161 199 255
161 199 255
161 199 255
161 199 255
161 199 255
161 199 255
160 198 255
160 198 255
160 198 255
160 198 255
160 198 255
160 198 255
160 198 255
160 198 255
160 198 255
160 198 255
159 198 255
159 198 255
159 198 255
159 198 255
159 198 255
159 198 255
159 197 255
159 197 255
159 197 255
158 197 255
158 197 255
158 197 255
158 197 255
158 197 255
158 197 255
158 197 255
158 197 255
158 197 255
158 197 255
157 197 255
157 197 255
157 197 255
157 197 255
157 196 255
157 196 255
157 196 255
157 196 255
157 196 255
157 196 255
157 196 255
156 196 255
156 196 255
156 196 255
156 196 255
156 196 255
156 196 255
156 196 255
156 196 255
156 196 255
156 196 255
156 196 255
156 196 255
155 195 255
155 195 255
155 195 255
155 195 255
155 195 255
155 195 255
155 195 255
155 195 255
155 195 255
155 195 255
155 195 255
155 195 255
155 195 255
155 195 255
155 195 255
154 195 255
154 195 255
154 195 255
154 195 255
154 195 255
154 195 255
154 195 255
154 195 255
154 195 255
154 195 255
154 195 255
154 195 255
154 195 255
154 195 255
154 194 255
154 194 255
154 194 255
154 194 255
154 194 255
154 194 255
154 194 255
154 194 255
154 194 255
154 194 255
154 194 255
154 194 255
154 194 255
154 194 255
154 194 255
154 194 255
154 194 255
154 194 255
154 194 255
154 194 255
154 194 255
154 194 255
154 194 255
154 194 255
154 194 255
154 194 255
154 194 255
154 194 255
154 194 255
154 194 255
154 194 255
154 194 255
154 194 255
154 194 255
154 194 255
154 195 255
154 195 255
154 195 255
154 195 255
154 195 255
154 195 255
154 195 255
154 195 255
154 195 255
154 195 255
154 195 255
154 195 255
154 195 255
154 195 255
154 195 255
155 195 255
155 195 255
155 195 255
155 195 255
155 195 255
155 195 255
155 195 255
155 195 255
155 195 255
155 195 255
155 195 255
155 195 255
155 195 255
155 195 255
156 196 255
156 196 255
156 196 255
156 196 255
156 196 255
156 196 255
156 196 255
156 196 255
156 196 255
156 196 255
156 196 255
156 196 255
157 196 255
157 196 255
157 196 255
157 196 255
157 196 255
157 196 255
157 196 255
157 197 255
157 197 255
157 197 255
157 197 255
158 197 255
158 197 255
158 197 255
158 197 255
158 197 255
158 197 255
158 197 255
158 197 255
158 197 255
158 197 255
159 197 255
159 197 255
159 197 255
159 198 255
159 198 255
159 198 255
159 198 255
159 198 255
159 198 255
159 198 255
160 198 255
160 198 255
160 198 255
160 198 255
160 198 255
160 198 255
160 198 255
160 198 255
160 198 255
161 199 255
161 199 255
161 199 255
161 199 255
161 199 255
161 199 255
161 199 255
161 199 255
161 199 255
161 199 255
162 199 255
162 199 255
162 199 255
162 199 255
162 199 255
162 199 255
162 200 255
162 200 255
162 200 255
163 200 255
163 200 255
163 200 255
163 200 255
163 200 255
163 200 255
163 200 255
163 200 255
163 200 255
163 200 255
164 200 255
164 200 255
164 200 255
164 201 255
164 201 255
164 201 255
164 201 255
164 201 255
164 201 255
164 201 255
165 201 255
165 201 255
165 201 255
165 201 255
165 201 255
165 201 255
165 201 255
165 201 255
165 201 255
165 201 255
165 201 255
166 202 255
166 202 255
166 202 255
166 202 255
166 202 255
166 202 255
166 202 255
166 202 255
166 202 255
166 202 255
166 202 255
167 202 255
167 202 255
167 202 255
167 202 255
167 202 255
167 202 255
167 202 255
167 203 255
167 203 255
167 203 255
167 203 255
168 203 255
168 203 255
168 203 255
168 203 255
168 203 255
168 203 255
168 203 255
168 203 255
168 203 255
168 203 255
168 203 255
168 203 255
169 203 255
169 203 255
169 203 255
169 203 255
169 203 255
169 204 255
169 204 255
169 204 255
169 204 255
169 204 255
169 204 255
169 204 255
169 204 255
169 204 255
170 204 255
170 204 255
170 204 255
170 204 255
170 204 255
170 204 255
170 204 255
170 204 255
170 204 255
170 204 255
170 204 255
169 204 255
169 204 255
169 204 255
169 204 255
169 204 255
169 204 255
169 204 255
169 204 255
169 203 255
169 203 255
169 203 255
169 203 255
168 203 255
168 203 255
168 203 255
168 203 255
168 203 255
168 203 255
168 203 255
168 203 255
168 203 255
168 203 255
168 203 255
168 203 255
168 203 255
167 203 255
167 203 255
167 203 255
167 203 255
167 202 255
167 202 255
167 202 255
167 202 255
167 202 255
167 202 255
167 202 255
166 202 255
166 202 255
166 202 255
166 202 255
166 202 255
166 202 255
166 202 255
166 202 255
166 202 255
166 202 255
166 202 255
165 201 255
165 201 255
165 201 255
165 201 255
165 201 255
165 201 255
165 201 255
165 201 255
165 201 255
165 201 255
165 201 255
164 201 255
164 201 255
164 201 255
164 201 255
164 201 255
164 201 255
164 200 255
164 200 255
164 200 255
164 200 255
163 200 255
163 200 255
163 200 255
163 200 255
163 200 255
163 200 255
163 200 255
163 200 255
163 200 255
163 200 255
162 200 255
162 200 255
162 200 255
162 199 255
162 199 255
162 199 255
162 199 255
162 199 255
162 199 255
161 199 255
161 199 255
161 199 255
161 199 255
161 199 255
161 199 255
161 199 255
161 199 255
161 199 255
161 199 255
160 198 255
160 198 255
160 198 255
160 198 255
160 198 255
160 198 255
160 198 255
160 198 255
160 198 255
159 198 255
159 198 255
159 198 255
159 198 255
159 198 255
159 198 255
159 198 255
159 197 255
159 197 255
159 197 255
158 197 255
158 197 255
158 197 255
158 197 255
158 197 255
158 197 255
158 197 255
158 197 255
158 197 255
158 197 255
157 197 255
157 197 255
157 197 255
157 197 255
157 196 255
157 196 255
157 196 255
157 196 255
157 196 255
157 196 255
157 196 255
156 196 255
156 196 255
156 196 255
156 196 255
156 196 255
156 196 255
156 196 255
156 196 255
156 196 255
156 196 255
156 196 255
156 196 255
156 196 255
155 195 255
155 195 255
155 195 255
155 195 255
155 195 255
155 195 255
155 195 255
155 195 255
155 195 255
155 195 255
155 195 255
155 195 255
155 195 255
155 195 255
155 195 255
155 195 255
154 195 255
154 195 255
154 195 255
154 195 255
154 195 255
154 195 255
154 195 255
154 195 255
154 195 255
154 195 255
154 195 255
154 195 255
154 195 255
154 195 255
154 195 255
154 195 255
154 195 255
154 195 255
154 195 255
154 195 255
154 195 255
154 195 255
154 195 255
154 195 255
154 195 255
154 195 255
154 195 255
154 194 255
154 195 255
154 195 255
154 195 255
154 195 255
154 195 255
154 195 255
154 195 255
154 195 255
154 195 255
154 195 255
154 195 255
154 195 255
154 195 255
154 195 255
154 195 255
154 195 255
154 195 255
154 195 255
154 195 255
154 195 255
154 195 255
154 195 255
154 195 255
154 195 255
154 195 255
155 195 255
155 195 255
155 195 255
155 195 255
155 195 255
155 195 255
155 195 255
155 195 255
155 195 255
155 195 255
155 195 255
155 195 255
155 195 255
155 195 255
155 195 255
155 195 255
156 196 255
156 196 255
156 196 255
156 196 255
156 196 255
156 196 255
156 196 255
156 196 255
156 196 255
156 196 255
156 196 255
156 196 255
156 196 255
157 196 255
157 196 255
157 196 255
157 196 255
157 196 255
157 196 255
157 196 255
157 197 255
157 197 255
157 197 255
157 197 255
158 197 255
158 197 255
158 197 255
158 197 255
158 197 255
158 197 255
158 197 255
158 197 255
158 197 255
158 197 255
159 197 255
159 197 255
159 197 255
159 198 255
159 198 255
159 198 255
159 198 255
159 198 255
159 198 255
160 198 255
160 198 255
160 198 255
160 198 255
160 198 255
160 198 255
160 198 255
160 198 255
160 198 255
160 198 255
161 199 255
161 199 255
161 199 255
161 199 255
161 199 255
161 199 255
161 199 255
161 199 255
161 199 255
161 199 255
162 199 255
162 199 255
162 199 255
162 199 255
162 199 255
162 199 255
162 200 255
162 200 255
162 200 255
163 200 255
163 200 255
163 200 255
163 200 255
163 200 255
163 200 255
163 200 255
163 200 255
163 200 255
163 200 255
163 200 255
164 200 255
164 200 255
164 200 255
164 201 255
164 201 255
164 201 255
164 201 255
164 201 255
164 201 255
165 201 255
165 201 255
165 201 255
165 201 255
165 201 255
165 201 255
165 201 255
165 201 255
165 201 255
165 201 255
165 201 255
166 202 255
166 202 255
166 202 255
166 202 255
166 202 255
166 202 255
166 202 255
166 202 255
166 202 255
166 202 255
166 202 255
167 202 255
167 202 255
167 202 255
167 202 255
167 202 255
167 202 255
167 202 255
167 203 255
167 203 255
167 203 255
167 203 255
168 203 255
168 203 255
168 203 255
168 203 255
168 203 255
168 203 255
168 203 255
168 203 255
168 203 255
168 203 255
168 203 255
168 203 255
168 203 255
169 203 255
169 203 255
169 203 255
169 203 255
169 204 255
169 204 255
169 204 255
169 204 255
169 204 255
169 204 255
169 204 255
169 204 255
170 204 255
170 204 255
170 204 255
170 204 255
170 204 255
170 204 255
170 204 255
170 204 255
170 204 255
170 204 255
170 204 255
170 204 255
170 204 255
170 204 255
170 204 255
170 204 255
170 204 255
170 204 255
169 204 255
169 204 255
169 204 255
169 204 255
169 204 255
169 204 255
169 204 255
169 204 255
169 203 255
169 203 255
169 203 255
169 203 255
169 203 255
168 203 255
168 203 255
168 203 255
168 203 255
168 203 255
168 203 255
168 203 255
168 203 255
168 203 255
168 203 255
168 203 255
168 203 255
167 203 255
167 203 255
167 203 255
167 203 255
167 202 255
167 202 255
167 202 255
167 202 255
167 202 255
167 202 255
167 202 255
166 202 255
166 202 255
166 202 255
166 202 255
166 202 255
166 202 255
166 202 255
166 202 255
166 202 255
166 202 255
166 202 255
165 201 255
165 201 255
165 201 255
165 201 255
165 201 255
165 201 255
165 201 255
165 201 255
165 201 255
165 201 255
164 201 255
164 201 255
164 201 255
164 201 255
164 201 255
164 201 255
164 201 255
164 200 255
164 200 255
164 200 255
163 200 255
163 200 255
163 200 255
163 200 255
163 200 255
163 200 255
163 200 255
163 200 255
163 200 255
163 200 255
162 200 255
162 200 255
162 200 255
162 200 255
162 199 255
162 199 255
162 199 255
162 199 255
162 199 255
162 199 255
161 199 255
161 199 255
161 199 255
161 199 255
161 199 255
161 199 255
161 199 255
161 199 255
161 199 255
161 199 255
160 198 255
160 198 255
160 198 255
160 198 255
160 198 255
160 198 255
160 198 255
160 198 255
160 198 255
159 198 255
159 198 255
159 198 255
159 198 255
159 198 255
159 198 255
159 198 255
159 197 255
159 197 255
159 197 255
158 197 255
158 197 255
158 197 255
158 197 255
158 197 255
158 197 255
158 197 255
158 197 255
158 197 255
158 197 255
158 197 255
157 197 255
157 197 255
157 197 255
157 196 255
157 196 255
157 196 255
157 196 255
157 196 255
157 196 255
157 196 255
157 196 255
156 196 255
156 196 255
156 196 255
156 196 255
156 196 255
156 196 255
156 196 255
156 196 255
156 196 255
156 196 255
156 196 255
156 196 255
156 196 255
155 195 255
155 195 255
155 195 255
155 195 255
155 195 255
155 195 255
155 195 255
155 195 255
155 195 255
155 195 255
155 195 255
155 195 255
155 195 255
155 195 255
155 195 255
155 195 255
155 195 255
155 195 255
155 195 255
155 195 255
154 195 255
154 195 255
154 195 255
154 195 255
154 195 255
154 195 255
154 195 255
154 195 255
154 195 255
154 195 255
154 195 255
154 195 255
154 195 255
154 195 255
154 195 255
154 195 255
154 195 255
154 195 255
154 195 255
154 195 255
154 195 255
154 195 255
154 195 255
154 195 255
154 195 255
154 195 255
154 195 255
154 195 255
154 195 255
154 195 255
154 195 255
154 195 255
154 195 255
154 195 255
154 195 255
154 195 255
154 195 255
154 195 255
155 195 255
155 195 255
155 195 255
155 195 255
155 195 255
155 195 255
155 195 255
155 195 255
155 195 255
155 195 255
155 195 255
155 195 255
155 195 255
155 195 255
155 195 255
155 195 255
155 195 255
155 195 255
155 195 255
156 196 255
156 196 255
156 196 255
156 196 255
156 196 255
156 196 255
156 196 255
156 196 255
156 196 255
156 196 255
156 196 255
156 196 255
156 196 255
157 196 255
157 196 255
157 196 255
157 196 255
157 196 255
157 196 255
157 196 255
157 196 255
157 197 255
157 197 255
157 197 255
158 197 255
158 197 255
158 197 255
158 197 255
158 197 255
158 197 255
158 197 255
158 197 255
158 197 255
158 197 255
158 197 255
159 197 255
159 197 255
159 197 255
159 198 255
159 198 255
159 198 255
159 198 255
159 198 255
159 198 255
159 198 255
160 198 255
160 198 255
160 198 255
160 198 255
160 198 255
160 198 255
160 198 255
160 198 255
160 198 255
161 199 255
161 199 255
161 199 255
161 199 255
161 199 255
161 199 255
161 199 255
161 199 255
161 199 255
161 199 255
162 199 255
162 199 255
162 199 255
162 199 255
162 199 255
162 199 255
162 200 255
162 200 255
162 200 255
162 200 255
163 200 255
163 200 255
163 200 255
163 200 255
163 200 255
163 200 255
163 200 255
163 200 255
163 200 255
163 200 255
164 200 255
164 200 255
164 200 255
164 201 255
164 201 255
164 201 255
164 201 255
164 201 255
164 201 255
164 201 255
165 201 255
165 201 255
165 201 255
165 201 255
165 201 255
165 201 255
165 201 255
165 201 255
165 201 255
165 201 255
166 202 255
166 202 255
166 202 255
166 202 255
166 202 255
166 202 255
166 202 255
166 202 255
166 202 255
166 202 255
166 202 255
167 202 255
167 202 255
167 202 255
167 202 255
167 202 255
167 202 255
167 202 255
167 203 255
167 203 255
167 203 255
167 203 255
168 203 255
168 203 255
168 203 255
168 203 255
168 203 255
168 203 255
168 203 255
168 203 255
168 203 255
168 203 255
168 203 255
168 203 255
169 203 255
169 203 255
169 203 255
169 203 255
169 203 255
169 204 255
169 204 255
169 204 255
169 204 255
169 204 255
169 204 255
169 204 255
169 204 255
170 204 255
170 204 255
170 204 255
170 204 255
170 204 255
170 204 255
170 204 255
170 204 255
170 204 255
170 204 255
170 204 255
170 204 255
170 204 255
170 204 255
170 204 255
170 204 255
170 204 255
170 204 255
170 204 255
170 204 255
170 204 255
170 204 255
170 204 255
170 204 255
169 204 255
169 204 255
169 204 255
169 204 255
169 204 255
169 204 255
169 204 255
169 204 255
169 204 255
169 203 255
169 203 255
169 203 255
169 203 255
168 203 255
168 203 255
168 203 255
168 203 255
168 203 255
168 203 255
168 203 255
168 203 255
168 203 255
168 203 255
168 203 255
168 203 255
167 203 255
167 203 255
167 203 255
167 202 255
167 202 255
167 202 255
167 202 255
167 202 255
167 202 255
167 202 255
167 202 255
166 202 255
166 202 255
166 202 255
166 202 255
166 202 255
166 202 255
166 202 255
166 202 255
166 202 255
166 202 255
166 202 255
165 201 255
165 201 255
165 201 255
165 201 255
165 201 255
165 201 255
165 201 255
165 201 255
165 201 255
165 201 255
164 201 255
164 201 255
164 201 255
164 201 255
164 201 255
164 201 255
164 201 255
164 200 255
164 200 255
164 200 255
163 200 255
163 200 255
163 200 255
163 200 255
163 200 255
163 200 255
163 200 255
163 200 255
163 200 255
163 200 255
162 200 255
162 200 255
162 200 255
162 199 255
162 199 255
162 199 255
162 199 255
162 199 255
162 199 255
162 199 255
161 199 255
161 199 255
161 199 255
161 199 255
161 199 255
161 199 255
161 199 255
161 199 255
161 199 255
160 198 255
160 198 255
160 198 255
160 198 255
160 198 255
160 198 255
160 198 255
160 198 255
160 198 255
160 198 255
159 198 255
159 198 255
159 198 255
159 198 255
159 198 255
159 198 255
159 198 255
159 197 255
159 197 255
159 197 255
158 197 255
158 197 255
158 197 255
158 197 255
158 197 255
158 197 255
158 197 255
158 197 255
158 197 255
158 197 255
158 197 255
157 197 255
157 197 255
157 197 255
157 197 255
157 196 255
157 196 255
157 196 255
157 196 255
157 196 255
157 196 255
157 196 255
157 196 255
156 196 255
156 196 255
156 196 255
156 196 255
156 196 255
156 196 255
156 196 255
156 196 255
156 196 255
156 196 255
156 196 255
156 196 255
156 196 255
156 196 255
155 195 255
155 195 255
155 195 255
155 195 255
155 195 255
155 195 255
155 195 255
155 195 255
155 195 255
155 195 255
155 195 255
155 195 255
155 195 255
155 195 255
155 195 255
155 195 255
155 195 255
155 195 255
155 195 255
155 195 255
155 195 255
155 195 255
155 195 255
155 195 255
155 195 255
155 195 255
155 195 255
154 195 255
154 195 255
154 195 255
154 195 255
154 195 255
154 195 255
154 195 255
154 195 255
154 195 255
154 195 255
154 195 255
154 195 255
154 195 255
154 195 255
155 195 255
155 195 255
155 195 255
155 195 255
155 195 255
155 195 255
155 195 255
155 195 255
155 195 255
155 195 255
155 195 255
155 195 255
155 195 255
155 195 255
155 195 255
155 195 255
155 195 255
155 195 255
155 195 255
155 195 255
155 195 255
155 195 255
155 195 255
155 195 255
155 195 255
155 195 255
156 196 255
156 196 255
156 196 255
156 196 255
156 196 255
156 196 255
156 196 255
156 196 255
156 196 255
156 196 255
156 196 255
156 196 255
156 196 255
156 196 255
157 196 255
157 196 255
157 196 255
157 196 255
157 196 255
157 196 255
157 196 255
157 196 255
157 197 255
157 197 255
157 197 255
157 197 255
158 197 255
158 197 255
158 197 255
158 197 255
158 197 255
158 197 255
158 197 255
158 197 255
158 197 255
158 197 255
158 197 255
159 197 255
159 197 255
159 197 255
159 198 255
159 198 255
159 198 255
159 198 255
159 198 255
159 198 255
159 198 255
160 198 255
160 198 255
160 198 255
160 198 255
160 198 255
160 198 255
160 198 255
160 198 255
160 198 255
160 198 255
161 199 255
161 199 255
161 199 255
161 199 255
161 199 255
161 199 255
161 199 255
161 199 255
161 199 255
162 199 255
162 199 255
162 199 255
162 199 255
162 199 255
162 199 255
162 199 255
162 200 255
162 200 255
162 200 255
163 200 255
163 200 255
163 200 255
163 200 255
163 200 255
163 200 255
163 200 255
163 200 255
163 200 255
163 200 255
164 200 255
164 200 255
164 200 255
164 201 255
164 201 255
164 201 255
164 201 255
164 201 255
164 201 255
164 201 255
165 201 255
165 201 255
165 201 255
165 201 255
165 201 255
165 201 255
165 201 255
165 201 255
165 201 255
165 201 255
166 202 255
166 202 255
166 202 255
166 202 255
166 202 255
166 202 255
166 202 255
166 202 255
166 202 255
166 202 255
166 202 255
167 202 255
167 202 255
167 202 255
167 202 255
167 202 255
167 202 255
167 202 255
167 202 255
167 203 255
167 203 255
167 203 255
168 203 255
168 203 255
168 203 255
168 203 255
168 203 255
168 203 255
168 203 255
168 203 255
168 203 255
168 203 255
168 203 255
168 203 255
169 203 255
169 203 255
169 203 255
169 203 255
169 204 255
169 204 255
169 204 255
169 204 255
169 204 255
169 204 255
169 204 255
169 204 255
169 204 255
170 204 255
170 204 255
170 204 255
170 204 255
170 204 255
170 204 255
170 204 255
170 204 255
170 204 255
170 204 255
170 204 255
170 204 255
170 204 255
171 205 255
171 205 255
171 205 255
171 205 255
170 204 255
170 204 255
170 204 255
170 204 255
170 204 255
170 204 255
170 204 255
170 204 255
170 204 255
170 204 255
170 204 255
170 204 255
170 204 255
169 204 255
169 204 255
169 204 255
169 204 255
169 204 255
169 204 255
169 204 255
169 204 255
169 204 255
169 203 255
169 203 255
169 203 255
169 203 255
168 203 255
168 203 255
168 203 255
168 203 255
168 203 255
168 203 255
168 203 255
168 203 255
168 203 255
168 203 255
168 203 255
168 203 255
167 203 255
167 203 255
167 203 255
167 202 255
167 202 255
167 202 255
167 202 255
167 202 255
167 202 255
167 202 255
167 202 255
166 202 255
166 202 255
166 202 255
166 202 255
166 202 255
166 202 255
166 202 255
166 202 255
166 202 255
166 202 255
166 202 255
165 201 255
165 201 255
165 201 255
165 201 255
165 201 255
165 201 255
165 201 255
165 201 255
165 201 255
165 201 255
164 201 255
164 201 255
164 201 255
164 201 255
164 201 255
164 201 255
164 201 255
164 200 255
164 200 255
164 200 255
163 200 255
163 200 255
163 200 255
163 200 255
163 200 255
163 200 255
163 200 255
163 200 255
163 200 255
163 200 255
162 200 255
162 200 255
162 200 255
162 199 255
162 199 255
162 199 255
162 199 255
162 199 255
162 199 255
162 199 255
161 199 255
161 199 255
161 199 255
161 199 255
161 199 255
161 199 255
161 199 255
161 199 255
161 199 255
161 199 255
160 198 255
160 198 255
160 198 255
160 198 255
160 198 255
160 198 255
160 198 255
160 198 255
160 198 255
159 198 255
159 198 255
159 198 255
159 198 255
159 198 255
159 198 255
159 198 255
159 197 255
159 197 255
159 197 255
159 197 255
158 197 255
158 197 255
158 197 255
158 197 255
158 197 255
158 197 255
158 197 255
158 197 255
158 197 255
158 197 255
158 197 255
157 197 255
157 197 255
157 197 255
157 196 255
157 196 255
157 196 255
157 196 255
157 196 255
157 196 255
157 196 255
157 196 255
157 196 255
156 196 255
156 196 255
156 196 255
156 196 255
156 196 255
156 196 255
156 196 255
156 196 255
156 196 255
156 196 255
156 196 255
156 196 255
156 196 255
156 196 255
156 196 255
156 196 255
155 195 255
155 195 255
155 195 255
155 195 255
155 195 255
155 195 255
155 195 255
155 195 255
155 195 255
155 195 255
155 195 255
155 195 255
155 195 255
155 195 255
155 195 255
155 195 255
155 195 255
155 195 255
155 195 255
155 195 255
155 195 255
155 195 255
155 195 255
155 195 255
155 195 255
155 195 255
155 195 255
155 195 255
155 195 255
155 195 255
155 195 255
155 195 255
155 195 255
155 195 255
155 195 255
155 195 255
155 195 255
155 195 255
155 195 255
155 195 255
155 195 255
155 195 255
155 195 255
155 195 255
155 195 255
155 195 255
155 195 255
155 195 255
155 195 255
155 195 255
155 195 255
155 195 255
155 195 255
155 195 255
155 195 255
156 196 255
156 196 255
156 196 255
156 196 255
156 196 255
156 196 255
156 196 255
156 196 255
156 196 255
156 196 255
156 196 255
156 196 255
156 196 255
156 196 255
156 196 255
156 196 255
157 196 255
157 196 255
157 196 255
157 196 255
157 196 255
157 196 255
157 196 255
157 196 255
157 196 255
157 197 255
157 197 255
157 197 255
157 197 255
158 197 255
158 197 255
158 197 255
158 197 255
158 197 255
158 197 255
158 197 255
158 197 255
158 197 255
158 197 255
159 197 255
159 197 255
159 197 255
159 197 255
159 198 255
159 198 255
159 198 255
159 198 255
159 198 255
159 198 255
159 198 255
160 198 255
160 198 255
160 198 255
160 198 255
160 198 255
160 198 255
160 198 255
160 198 255
160 198 255
160 198 255
161 199 255
161 199 255
161 199 255
161 199 255
161 199 255
161 199 255
161 199 255
161 199 255
161 199 255
162 199 255
162 199 255
162 199 255
162 199 255
162 199 255
162 199 255
162 199 255
162 200 255
162 200 255
162 200 255
163 200 255
163 200 255
163 200 255
163 200 255
163 200 255
163 200 255
163 200 255
163 200 255
163 200 255
163 200 255
164 200 255
164 200 255
164 200 255
164 201 255
164 201 255
164 201 255
164 201 255
164 201 255
164 201 255
164 201 255
165 201 255
165 201 255
165 201 255
165 201 255
165 201 255
165 201 255
165 201 255
165 201 255
165 201 255
165 201 255
166 202 255
166 202 255
166 202 255
166 202 255
166 202 255
166 202 255
166 202 255
166 202 255
166 202 255
166 202 255
166 202 255
167 202 255
167 202 255
167 202 255
167 202 255
167 202 255
167 202 255
167 202 255
167 202 255
167 203 255
167 203 255
167 203 255
167 203 255
168 203 255
168 203 255
168 203 255
168 203 255
168 203 255
168 203 255
168 203 255
168 203 255
168 203 255
168 203 255
168 203 255
169 203 255
169 203 255
169 203 255
169 203 255
169 204 255
169 204 255
169 204 255
169 204 255
169 204 255
169 204 255
169 204 255
169 204 255
169 204 255
170 204 255
170 204 255
170 204 255
170 204 255
170 204 255
170 204 255
170 204 255
170 204 255
170 204 255
170 204 255
170 204 255
170 204 255
170 204 255
171 205 255
171 205 255
171 205 255
171 205 255
171 205 255
171 205 255
171 205 255
171 205 255
171 205 255
171 205 255
170 204 255
170 204 255
170 204 255
170 204 255
170 204 255
170 204 255
170 204 255
170 204 255
170 204 255
170 204 255
170 204 255
170 204 255
170 204 255
169 204 255
169 204 255
169 204 255
169 204 255
169 204 255
169 204 255
169 204 255
169 204 255
169 204 255
169 203 255
169 203 255
169 203 255
169 203 255
168 203 255
168 203 255
168 203 255
168 203 255
168 203 255
168 203 255
168 203 255
168 203 255
168 203 255
168 203 255
168 203 255
168 203 255
167 203 255
167 203 255
167 203 255
167 202 255
167 202 255
167 202 255
167 202 255
167 202 255
167 202 255
167 202 255
167 202 255
166 202 255
166 202 255
166 202 255
166 202 255
166 202 255
166 202 255
166 202 255
166 202 255
166 202 255
166 202 255
166 202 255
165 201 255
165 201 255
165 201 255
165 201 255
165 201 255
165 201 255
165 201 255
165 201 255
165 201 255
165 201 255
164 201 255
164 201 255
164 201 255
164 201 255
164 201 255
164 201 255
164 201 255
164 200 255
164 200 255
164 200 255
163 200 255
163 200 255
163 200 255
163 200 255
163 200 255
163 200 255
163 200 255
163 200 255
163 200 255
163 200 255
162 200 255
162 200 255
162 200 255
162 199 255
162 199 255
162 199 255
162 199 255
162 199 255
162 199 255
162 199 255
161 199 255
161 199 255
161 199 255
161 199 255
161 199 255
161 199 255
161 199 255
161 199 255
161 199 255
160 198 255
160 198 255
160 198 255
160 198 255
160 198 255
160 198 255
160 198 255
160 198 255
160 198 255
160 198 255
159 198 255
159 198 255
159 198 255
159 198 255
159 198 255
159 198 255
159 198 255
159 197 255
159 197 255
159 197 255
159 197 255
158 197 255
158 197 255
158 197 255
158 197 255
158 197 255
158 197 255
158 197 255
158 197 255
158 197 255
158 197 255
158 197 255
157 197 255
157 197 255
157 197 255
157 197 255
157 196 255
157 196 255
157 196 255
157 196 255
157 196 255
157 196 255
157 196 255
157 196 255
157 196 255
156 196 255
156 196 255
156 196 255
156 196 255
156 196 255
156 196 255
156 196 255
156 196 255
156 196 255
156 196 255
156 196 255
156 196 255
156 196 255
156 196 255
156 196 255
156 196 255
156 196 255
156 196 255
156 196 255
155 195 255
155 195 255
155 195 255
155 195 255
155 195 255
155 195 255
155 195 255
155 195 255
155 195 255
155 195 255
155 195 255
155 195 255
155 195 255
155 195 255
155 195 255
155 195 255
155 195 255
155 195 255
155 195 255
155 195 255
155 195 255
155 195 255
155 195 255
155 195 255
155 195 255
155 195 255
155 195 255
155 195 255
155 195 255
155 195 255
155 195 255
155 195 255
155 195 255
155 195 255
155 195 255
155 195 255
155 195 255
155 195 255
155 195 255
155 195 255
155 195 255
156 196 255
156 196 255
156 196 255
156 196 255
156 196 255
156 196 255
156 196 255
156 196 255
156 196 255
156 196 255
156 196 255
156 196 255
156 196 255
156 196 255
156 196 255
156 196 255
156 196 255
156 196 255
156 196 255
157 196 255
157 196 255
157 196 255
157 196 255
157 196 255
157 196 255
157 196 255
157 196 255
157 196 255
157 197 255
157 197 255
157 197 255
157 197 255
158 197 255
158 197 255
158 197 255
158 197 255
158 197 255
158 197 255
158 197 255
158 197 255
158 197 255
158 197 255
158 197 255
159 197 255
159 197 255
159 197 255
159 197 255
159 198 255
159 198 255
159 198 255
159 198 255
159 198 255
159 198 255
159 198 255
160 198 255
160 198 255
160 198 255
160 198 255
160 198 255
160 198 255
160 198 255
160 198 255
160 198 255
160 198 255
161 199 255
161 199 255
161 199 255
161 199 255
161 199 255
161 199 255
161 199 255
161 199 255
161 199 255
162 199 255
162 199 255
162 199 255
162 199 255
162 199 255
162 199 255
162 199 255
162 200 255
162 200 255
162 200 255
163 200 255
163 200 255
163 200 255
163 200 255
163 200 255
163 200 255
163 200 255
163 200 255
163 200 255
163 200 255
164 200 255
164 200 255
164 200 255
164 201 255
164 201 255
164 201 255
164 201 255
164 201 255
164 201 255
164 201 255
165 201 255
165 201 255
165 201 255
165 201 255
165 201 255
165 201 255
165 201 255
165 201 255
165 201 255
165 201 255
166 202 255
166 202 255
166 202 255
166 202 255
166 202 255
166 202 255
166 202 255
166 202 255
166 202 255
166 202 255
166 202 255
167 202 255
167 202 255
167 202 255
167 202 255
167 202 255
167 202 255
167 202 255
167 202 255
167 203 255
167 203 255
167 203 255
168 203 255
168 203 255
168 203 255
168 203 255
168 203 255
168 203 255
168 203 255
168 203 255
168 203 255
168 203 255
168 203 255
168 203 255
169 203 255
169 203 255
169 203 255
169 203 255
169 204 255
169 204 255
169 204 255
169 204 255
169 204 255
169 204 255
169 204 255
169 204 255
170 204 255
170 204 255
170 204 255
170 204 255
170 204 255
170 204 255
170 204 255
170 204 255
170 204 255
170 204 255
170 204 255
170 204 255
170 204 255
170 204 255
171 205 255
171 205 255
171 205 255
171 205 255
171 205 255
171 205 255
171 205 255
171 205 255
171 205 255
171 205 255
171 205 255
171 205 255
171 205 255
171 205 255
171 205 255
171 205 255
171 205 255
170 204 255
170 204 255
170 204 255
170 204 255
170 204 255
170 204 255
170 204 255
170 204 255
170 204 255
170 204 255
170 204 255
170 204 255
169 204 255
169 204 255
169 204 255
169 204 255
169 204 255
169 204 255
169 204 255
169 204 255
169 204 255
169 203 255
169 203 255
169 203 255
169 203 255
168 203 255
168 203 255
168 203 255
168 203 255
168 203 255
168 203 255
168 203 255
168 203 255
168 203 255
168 203 255
168 203 255
168 203 255
167 203 255
167 203 255
167 203 255
167 203 255
167 202 255
167 202 255
167 202 255
167 202 255
167 202 255
167 202 255
167 202 255
166 202 255
166 202 255
166 202 255
166 202 255
166 202 255
166 202 255
166 202 255
166 202 255
166 202 255
166 202 255
166 202 255
165 201 255
165 201 255
165 201 255
165 201 255
165 201 255
165 201 255
165 201 255
165 201 255
165 201 255
165 201 255
164 201 255
164 201 255
164 201 255
164 201 255
164 201 255
164 201 255
164 201 255
164 200 255
164 200 255
164 200 255
163 200 255
163 200 255
163 200 255
163 200 255
163 200 255
163 200 255
163 200 255
163 200 255
163 200 255
163 200 255
162 200 255
162 200 255
162 200 255
162 199 255
162 199 255
162 199 255
162 199 255
162 199 255
162 199 255
162 199 255
161 199 255
161 199 255
161 199 255
161 199 255
161 199 255
161 199 255
161 199 255
161 199 255
161 199 255
160 198 255
160 198 255
160 198 255
160 198 255
160 198 255
160 198 255
160 198 255
160 198 255
160 198 255
160 198 255
160 198 255
159 198 255
159 198 255
159 198 255
159 198 255
159 198 255
159 198 255
159 198 255
159 197 255
159 197 255
159 197 255
158 197 255
158 197 255
158 197 255
158 197 255
158 197 255
158 197 255
158 197 255
158 197 255
158 197 255
158 197 255
158 197 255
158 197 255
157 197 255
157 197 255
157 197 255
157 197 255
157 196 255
157 196 255
157 196 255
157 196 255
157 196 255
157 196 255
157 196 255
157 196 255
157 196 255
157 196 255
156 196 255
156 196 255
156 196 255
156 196 255
156 196 255
156 196 255
156 196 255
156 196 255
156 196 255
156 196 255
156 196 255
156 196 255
156 196 255
156 196 255
156 196 255
156 196 255
156 196 255
156 196 255
156 196 255
156 196 255
156 196 255
156 196 255
156 196 255
156 196 255
155 195 255
156 196 255
155 195 255
155 195 255
155 195 255
155 195 255
155 195 255
155 195 255
155 195 255
155 195 255
155 195 255
155 195 255
155 195 255
155 195 255
155 195 255
155 195 255
155 195 255
155 195 255
155 195 255
155 195 255
156 196 255
156 196 255
156 196 255
156 196 255
156 196 255
156 196 255
156 196 255
156 196 255
156 196 255
156 196 255
156 196 255
156 196 255
156 196 255
156 196 255
156 196 255
156 196 255
156 196 255
156 196 255
156 196 255
156 196 255
156 196 255
156 196 255
156 196 255
156 196 255
156 196 255
157 196 255
157 196 255
157 196 255
157 196 255
157 196 255
157 196 255
157 196 255
157 196 255
157 196 255
157 196 255
157 197 255
157 197 255
157 197 255
157 197 255
158 197 255
158 197 255
158 197 255
158 197 255
158 197 255
158 197 255
158 197 255
158 197 255
158 197 255
158 197 255
158 197 255
158 197 255
159 197 255
159 197 255
159 197 255
159 198 255
159 198 255
159 198 255
159 198 255
159 198 255
159 198 255
159 198 255
160 198 255
160 198 255
160 198 255
160 198 255
160 198 255
160 198 255
160 198 255
160 198 255
160 198 255
160 198 255
160 198 255
161 199 255
161 199 255
161 199 255
161 199 255
161 199 255
161 199 255
161 199 255
161 199 255
161 199 255
162 199 255
162 199 255
162 199 255
162 199 255
162 199 255
162 199 255
162 199 255
162 200 255
162 200 255
162 200 255
163 200 255
163 200 255
163 200 255
163 200 255
163 200 255
163 200 255
163 200 255
163 200 255
163 200 255
163 200 255
164 200 255
164 200 255
164 200 255
164 201 255
164 201 255
164 201 255
164 201 255
164 201 255
164 201 255
164 201 255
165 201 255
165 201 255
165 201 255
165 201 255
165 201 255
165 201 255
165 201 255
165 201 255
165 201 255
165 201 255
166 202 255
166 202 255
166 202 255
166 202 255
166 202 255
166 202 255
166 202 255
166 202 255
166 202 255
166 202 255
166 202 255
167 202 255
167 202 255
167 202 255
167 202 255
167 202 255
167 202 255
167 202 255
167 203 255
167 203 255
167 203 255
167 203 255
168 203 255
168 203 255
168 203 255
168 203 255
168 203 255
168 203 255
168 203 255
168 203 255
168 203 255
168 203 255
168 203 255
168 203 255
169 203 255
169 203 255
169 203 255
169 203 255
169 204 255
169 204 255
169 204 255
169 204 255
169 204 255
169 204 255
169 204 255
169 204 255
170 204 255
170 204 255
170 204 255
170 204 255
170 204 255
170 204 255
170 204 255
170 204 255
170 204 255
170 204 255
170 204 255
170 204 255
170 204 255
171 205 255
171 205 255
171 205 255
171 205 255
171 205 255
171 205 255
171 205 255
171 205 255
171 205 255
171 205 255
171 205 255
171 205 255
171 205 255
171 205 255
171 205 255
171 205 255
171 205 255
171 205 255
171 205 255
171 205 255
171 205 255
171 205 255
171 205 255
171 205 255
170 204 255
170 204 255
170 204 255
170 204 255
170 204 255
170 204 255
170 204 255
170 204 255
170 204 255
170 204 255
170 204 255
170 204 255
170 204 255
169 204 255
169 204 255
169 204 255
169 204 255
169 204 255
169 204 255
169 204 255
169 204 255
169 203 255
169 203 255
169 203 255
169 203 255
168 203 255
168 203 255
168 203 255
168 203 255
168 203 255
168 203 255
168 203 255
168 203 255
168 203 255
168 203 255
168 203 255
168 203 255
167 203 255
167 203 255
167 203 255
167 203 255
167 202 255
167 202 255
167 202 255
167 202 255
167 202 255
167 202 255
167 202 255
166 202 255
166 202 255
166 202 255
166 202 255
166 202 255
166 202 255
166 202 255
166 202 255
166 202 255
166 202 255
166 202 255
165 201 255
165 201 255
165 201 255
165 201 255
165 201 255
165 201 255
165 201 255
165 201 255
165 201 255
165 201 255
164 201 255
164 201 255
164 201 255
164 201 255
164 201 255
164 201 255
164 201 255
164 200 255
164 200 255
164 200 255
163 200 255
163 200 255
163 200 255
163 200 255
163 200 255
163 200 255
163 200 255
163 200 255
163 200 255
163 200 255
162 200 255
162 200 255
162 200 255
162 199 255
162 199 255
162 199 255
162 199 255
162 199 255
162 199 255
162 199 255
161 199 255
161 199 255
161 199 255
161 199 255
161 199 255
161 199 255
161 199 255
161 199 255
161 199 255
161 199 255
160 198 255
160 198 255
160 198 255
160 198 255
160 198 255
160 198 255
160 198 255
160 198 255
160 198 255
160 198 255
159 198 255
159 198 255
159 198 255
159 198 255
159 198 255
159 198 255
159 198 255
159 197 255
159 197 255
159 197 255
159 197 255
158 197 255
158 197 255
158 197 255
158 197 255
158 197 255
158 197 255
158 197 255
158 197 255
158 197 255
158 197 255
158 197 255
158 197 255
157 197 255
157 197 255
157 197 255
157 197 255
157 197 255
157 196 255
157 196 255
157 196 255
157 196 255
157 196 255
157 196 255
157 196 255
157 196 255
157 196 255
157 196 255
157 196 255
156 196 255
156 196 255
156 196 255
156 196 255
156 196 255
156 196 255
156 196 255
156 196 255
156 196 255
156 196 255
156 196 255
156 196 255
156 196 255
156 196 255
156 196 255
156 196 255
156 196 255
156 196 255
156 196 255
156 196 255
156 196 255
156 196 255
156 196 255
156 196 255
156 196 255
156 196 255
156 196 255
156 196 255
156 196 255
156 196 255
156 196 255
156 196 255
156 196 255
156 196 255
156 196 255
156 196 255
156 196 255
156 196 255
156 196 255
156 196 255
156 196 255
156 196 255
156 196 255
156 196 255
156 196 255
156 196 255
156 196 255
156 196 255
156 196 255
156 196 255
156 196 255
156 196 255
156 196 255
156 196 255
156 196 255
156 196 255
156 196 255
157 196 255
157 196 255
157 196 255
157 196 255
157 196 255
157 196 255
157 196 255
157 196 255
157 196 255
157 196 255
157 196 255
157 197 255
157 197 255
157 197 255
157 197 255
157 197 255
158 197 255
158 197 255
158 197 255
158 197 255
158 197 255
158 197 255
158 197 255
158 197 255
158 197 255
158 197 255
158 197 255
158 197 255
159 197 255
159 197 255
159 197 255
159 197 255
159 198 255
159 198 255
159 198 255
159 198 255
159 198 255
159 198 255
159 198 255
160 198 255
160 198 255
160 198 255
160 198 255
160 198 255
160 198 255
160 198 255
160 198 255
160 198 255
160 198 255
160 198 255
161 199 255
161 199 255
161 199 255
161 199 255
161 199 255
161 199 255
161 199 255
161 199 255
161 199 255
161 199 255
162 199 255
162 199 255
162 199 255
162 199 255
162 199 255
162 199 255
162 200 255
162 200 255
162 200 255
163 200 255
163 200 255
163 200 255
163 200 255
163 200 255
163 200 255
163 200 255
163 200 255
163 200 255
163 200 255
164 200 255
164 200 255
164 200 255
164 201 255
164 201 255
164 201 255
164 201 255
164 201 255
164 201 255
164 201 255
165 201 255
165 201 255
165 201 255
165 201 255
165 201 255
165 201 255
165 201 255
165 201 255
165 201 255
165 201 255
166 202 255
166 202 255
166 202 255
166 202 255
166 202 255
166 202 255
166 202 255
166 202 255
166 202 255
166 202 255
166 202 255
167 202 255
167 202 255
167 202 255
167 202 255
167 202 255
167 202 255
167 202 255
167 203 255
167 203 255
167 203 255
167 203 255
168 203 255
168 203 255
168 203 255
168 203 255
168 203 255
168 203 255
168 203 255
168 203 255
168 203 255
168 203 255
168 203 255
169 203 255
169 203 255
169 203 255
169 203 255
169 203 255
169 204 255
169 204 255
169 204 255
169 204 255
169 204 255
169 204 255
169 204 255
169 204 255
170 204 255
170 204 255
170 204 255
170 204 255
170 204 255
170 204 255
170 204 255
170 204 255
170 204 255
170 204 255
170 204 255
170 204 255
170 204 255
171 205 255
171 205 255
171 205 255
171 205 255
171 205 255
171 205 255
171 205 255
171 205 255
171 205 255
171 205 255
171 205 255
171 205 255
171 205 255
171 205 255
172 205 255
172 205 255
171 205 255
171 205 255
171 205 255
171 205 255
171 205 255
171 205 255
171 205 255
171 205 255
171 205 255
171 205 255
171 205 255
171 205 255
171 205 255
171 205 255
170 204 255
170 204 255
170 204 255
170 204 255
170 204 255
170 204 255
170 204 255
170 204 255
170 204 255
170 204 255
170 204 255
170 204 255
170 204 255
169 204 255
169 204 255
169 204 255
169 204 255
169 204 255
169 204 255
169 204 255
169 204 255
169 204 255
169 203 255
169 203 255
169 203 255
168 203 255
168 203 255
168 203 255
168 203 255
168 203 255
168 203 255
168 203 255
168 203 255
168 203 255
168 203 255
168 203 255
168 203 255
167 203 255
167 203 255
167 203 255
167 203 255
167 202 255
167 202 255
167 202 255
167 202 255
167 202 255
167 202 255
167 202 255
166 202 255
166 202 255
166 202 255
166 202 255
166 202 255
166 202 255
166 202 255
166 202 255
166 202 255
166 202 255
166 202 255
165 201 255
165 201 255
165 201 255
165 201 255
165 201 255
165 201 255
165 201 255
165 201 255
165 201 255
165 201 255
164 201 255
164 201 255
164 201 255
164 201 255
164 201 255
164 201 255
164 200 255
164 200 255
164 200 255
164 200 255
163 200 255
163 200 255
163 200 255
163 200 255
163 200 255
163 200 255
163 200 255
163 200 255
163 200 255
163 200 255
162 200 255
162 200 255
162 200 255
162 199 255
162 199 255
162 199 255
162 199 255
162 199 255
162 199 255
162 199 255
161 199 255
161 199 255
161 199 255
161 199 255
161 199 255
161 199 255
161 199 255
161 199 255
161 199 255
161 199 255
160 198 255
160 198 255
160 198 255
160 198 255
160 198 255
160 198 255
160 198 255
160 198 255
160 198 255
160 198 255
159 198 255
159 198 255
159 198 255
159 198 255
159 198 255
159 198 255
159 198 255
159 198 255
159 197 255
159 197 255
159 197 255
159 197 255
158 197 255
158 197 255
158 197 255
158 197 255
158 197 255
158 197 255
158 197 255
158 197 255
158 197 255
158 197 255
158 197 255
158 197 255
158 197 255
157 197 255
157 197 255
157 197 255
157 197 255
157 197 255
157 196 255
157 196 255
157 196 255
157 196 255
157 196 255
157 196 255
157 196 255
157 196 255
157 196 255
157 196 255
157 196 255
157 196 255
157 196 255
156 196 255
156 196 255
156 196 255
156 196 255
156 196 255
156 196 255
156 196 255
156 196 255
156 196 255
156 196 255
156 196 255
156 196 255
156 196 255
156 196 255
156 196 255
156 196 255
156 196 255
156 196 255
156 196 255
156 196 255
156 196 255
156 196 255
156 196 255
156 196 255
156 196 255
156 196 255
156 196 255
156 196 255
156 196 255
156 196 255
156 196 255
156 196 255
156 196 255
156 196 255
156 196 255
156 196 255
156 196 255
156 196 255
156 196 255
156 196 255
156 196 255
156 196 255
156 196 255
157 196 255
157 196 255
157 196 255
157 196 255
157 196 255
157 196 255
157 196 255
157 196 255
157 196 255
157 196 255
157 196 255
157 196 255
157 196 255
157 197 255
157 197 255
157 197 255
157 197 255
157 197 255
158 197 255
158 197 255
158 197 255
158 197 255
158 197 255
158 197 255
158 197 255
158 197 255
158 197 255
158 197 255
158 197 255
158 197 255
158 197 255
159 197 255
159 197 255
159 197 255
159 197 255
159 198 255
159 198 255
159 198 255
159 198 255
159 198 255
159 198 255
159 198 255
160 198 255
160 198 255
160 198 255
160 198 255
160 198 255
160 198 255
160 198 255
160 198 255
160 198 255
160 198 255
160 198 255
161 199 255
161 199 255
161 199 255
161 199 255
161 199 255
161 199 255
161 199 255
161 199 255
161 199 255
161 199 255
162 199 255
162 199 255
162 199 255
162 199 255
162 199 255
162 199 255
162 199 255
162 200 255
162 200 255
162 200 255
163 200 255
163 200 255
163 200 255
163 200 255
163 200 255
163 200 255
163 200 255
163 200 255
163 200 255
163 200 255
164 200 255
164 200 255
164 200 255
164 201 255
164 201 255
164 201 255
164 201 255
164 201 255
164 201 255
164 201 255
165 201 255
165 201 255
165 201 255
165 201 255
165 201 255
165 201 255
165 201 255
165 201 255
165 201 255
165 201 255
165 201 255
166 202 255
166 202 255
166 202 255
166 202 255
166 202 255
166 202 255
166 202 255
166 202 255
166 202 255
166 202 255
167 202 255
167 202 255
167 202 255
167 202 255
167 202 255
167 202 255
167 202 255
167 203 255
167 203 255
167 203 255
167 203 255
168 203 255
168 203 255
168 203 255
168 203 255
168 203 255
168 203 255
168 203 255
168 203 255
168 203 255
168 203 255
168 203 255
168 203 255
169 203 255
169 203 255
169 203 255
169 204 255
169 204 255
169 204 255
169 204 255
169 204 255
169 204 255
169 204 255
169 204 255
169 204 255
170 204 255
170 204 255
170 204 255
170 204 255
170 204 255
170 204 255
170 204 255
170 204 255
170 204 255
170 204 255
170 204 255
170 204 255
170 204 255
171 205 255
171 205 255
171 205 255
171 205 255
171 205 255
171 205 255
171 205 255
171 205 255
171 205 255
171 205 255
171 205 255
171 205 255
171 205 255
171 205 255
172 205 255
172 205 255
172 205 255
172 205 255
172 205 255
172 205 255
172 205 255
172 205 255
171 205 255
171 205 255
171 205 255
171 205 255
171 205 255
171 205 255
171 205 255
171 205 255
171 205 255
171 205 255
171 205 255
171 205 255
171 205 255
171 205 255
171 205 255
170 204 255
170 204 255
170 204 255
170 204 255
170 204 255
170 204 255
170 204 255
170 204 255
170 204 255
170 204 255
170 204 255
170 204 255
169 204 255
169 204 255
169 204 255
169 204 255
169 204 255
169 204 255
169 204 255
169 204 255
169 204 255
169 203 255
169 203 255
169 203 255
169 203 255
168 203 255
168 203 255
168 203 255
168 203 255
168 203 255
168 203 255
168 203 255
168 203 255
168 203 255
168 203 255
168 203 255
167 203 255
167 203 255
167 203 255
167 203 255
167 202 255
167 202 255
167 202 255
167 202 255
167 202 255
167 202 255
167 202 255
166 202 255
166 202 255
166 202 255
166 202 255
166 202 255
166 202 255
166 202 255
166 202 255
166 202 255
166 202 255
166 202 255
165 201 255
165 201 255
165 201 255
165 201 255
165 201 255
165 201 255
165 201 255
165 201 255
165 201 255
165 201 255
164 201 255
164 201 255
164 201 255
164 201 255
164 201 255
164 201 255
164 200 255
164 200 255
164 200 255
164 200 255
163 200 255
163 200 255
163 200 255
163 200 255
163 200 255
163 200 255
163 200 255
163 200 255
163 200 255
163 200 255
162 200 255
162 200 255
162 200 255
162 199 255
162 199 255
162 199 255
162 199 255
162 199 255
162 199 255
162 199 255
161 199 255
161 199 255
161 199 255
161 199 255
161 199 255
161 199 255
161 199 255
161 199 255
161 199 255
161 199 255
160 198 255
160 198 255
160 198 255
160 198 255
160 198 255
160 198 255
160 198 255
160 198 255
160 198 255
160 198 255
160 198 255
159 198 255
159 198 255
159 198 255
159 198 255
159 198 255
159 198 255
159 198 255
159 197 255
159 197 255
159 197 255
159 197 255
159 197 255
158 197 255
158 197 255
158 197 255
158 197 255
158 197 255
158 197 255
158 197 255
158 197 255
158 197 255
158 197 255
158 197 255
158 197 255
158 197 255
158 197 255
157 197 255
157 197 255
157 197 255
157 197 255
157 197 255
157 197 255
157 196 255
157 196 255
157 196 255
157 196 255
157 196 255
157 196 255
157 196 255
157 196 255
157 196 255
157 196 255
157 196 255
157 196 255
157 196 255
157 196 255
157 196 255
157 196 255
157 196 255
157 196 255
156 196 255
156 196 255
156 196 255
156 196 255
156 196 255
156 196 255
156 196 255
156 196 255
156 196 255
156 196 255
156 196 255
156 196 255
156 196 255
156 196 255
156 196 255
156 196 255
156 196 255
156 196 255
156 196 255
156 196 255
156 196 255
156 196 255
157 196 255
157 196 255
157 196 255
157 196 255
157 196 255
157 196 255
157 196 255
157 196 255
157 196 255
157 196 255
157 196 255
157 196 255
157 196 255
157 196 255
157 196 255
157 196 255
157 196 255
157 197 255
157 197 255
157 197 255
157 197 255
157 197 255
157 197 255
158 197 255
158 197 255
158 197 255
158 197 255
158 197 255
158 197 255
158 197 255
158 197 255
158 197 255
158 197 255
158 197 255
158 197 255
158 197 255
158 197 255
159 197 255
159 197 255
159 197 255
159 197 255
159 198 255
159 198 255
159 198 255
159 198 255
159 198 255
159 198 255
159 198 255
159 198 255
160 198 255
160 198 255
160 198 255
160 198 255
160 198 255
160 198 255
160 198 255
160 198 255
160 198 255
160 198 255
160 198 255
161 199 255
161 199 255
161 199 255
161 199 255
161 199 255
161 199 255
161 199 255
161 199 255
161 199 255
161 199 255
162 199 255
162 199 255
162 199 255
162 199 255
162 199 255
162 199 255
162 199 255
162 200 255
162 200 255
162 200 255
163 200 255
163 200 255
163 200 255
163 200 255
163 200 255
163 200 255
163 200 255
163 200 255
163 200 255
163 200 255
164 200 255
164 200 255
164 200 255
164 201 255
164 201 255
164 201 255
164 201 255
164 201 255
164 201 255
164 201 255
165 201 255
165 201 255
165 201 255
165 201 255
165 201 255
165 201 255
165 201 255
165 201 255
165 201 255
165 201 255
165 201 255
166 202 255
166 202 255
166 202 255
166 202 255
166 202 255
166 202 255
166 202 255
166 202 255
166 202 255
166 202 255
167 202 255
167 202 255
167 202 255
167 202 255
167 202 255
167 202 255
167 202 255
167 203 255
167 203 255
167 203 255
167 203 255
168 203 255
168 203 255
168 203 255
168 203 255
168 203 255
168 203 255
168 203 255
168 203 255
168 203 255
168 203 255
168 203 255
169 203 255
169 203 255
169 203 255
169 203 255
169 204 255
169 204 255
169 204 255
169 204 255
169 204 255
169 204 255
169 204 255
169 204 255
170 204 255
170 204 255
170 204 255
170 204 255
170 204 255
170 204 255
170 204 255
170 204 255
170 204 255
170 204 255
170 204 255
170 204 255
170 204 255
171 205 255
171 205 255
171 205 255
171 205 255
171 205 255
171 205 255
171 205 255
171 205 255
171 205 255
171 205 255
171 205 255
171 205 255
171 205 255
171 205 255
172 205 255
172 205 255
172 205 255
172 205 255
172 205 255
172 205 255
172 205 255
172 205 255
172 205 255
172 205 255
172 205 255
172 205 255
172 205 255
172 205 255
172 205 255
172 205 255
171 205 255
171 205 255
171 205 255
171 205 255
171 205 255
171 205 255
171 205 255
171 205 255
171 205 255
171 205 255
171 205 255
171 205 255
171 205 255
171 205 255
170 204 255
170 204 255
170 204 255
170 204 255
170 204 255
170 204 255
170 204 255
170 204 255
170 204 255
170 204 255
170 204 255
170 204 255
170 204 255
169 204 255
169 204 255
169 204 255
169 204 255
169 204 255
169 204 255
169 204 255
169 204 255
169 203 255
169 203 255
169 203 255
169 203 255
168 203 255
168 203 255
168 203 255
168 203 255
168 203 255
168 203 255
168 203 255
168 203 255
168 203 255
168 203 255
168 203 255
167 203 255
167 203 255
167 203 255
167 203 255
167 202 255
167 202 255
167 202 255
167 202 255
167 202 255
167 202 255
167 202 255
166 202 255
166 202 255
166 202 255
166 202 255
166 202 255
166 202 255
166 202 255
166 202 255
166 202 255
166 202 255
166 202 255
165 201 255
165 201 255
165 201 255
165 201 255
165 201 255
165 201 255
165 201 255
165 201 255
165 201 255
165 201 255
164 201 255
164 201 255
164 201 255
164 201 255
164 201 255
164 201 255
164 201 255
164 200 255
164 200 255
164 200 255
163 200 255
163 200 255
163 200 255
163 200 255
163 200 255
163 200 255
163 200 255
163 200 255
163 200 255
163 200 255
162 200 255
162 200 255
162 200 255
162 200 255
162 199 255
162 199 255
162 199 255
162 199 255
162 199 255
162 199 255
161 199 255
161 199 255
161 199 255
161 199 255
161 199 255
161 199 255
161 199 255
161 199 255
161 199 255
161 199 255
160 198 255
160 198 255
160 198 255
160 198 255
160 198 255
160 198 255
160 198 255
160 198 255
160 198 255
160 198 255
160 198 255
160 198 255
159 198 255
159 198 255
159 198 255
159 198 255
159 198 255
159 198 255
159 198 255
159 198 255
159 197 255
159 197 255
159 197 255
159 197 255
158 197 255
158 197 255
158 197 255
158 197 255
158 197 255
158 197 255
158 197 255
158 197 255
158 197 255
158 197 255
158 197 255
158 197 255
158 197 255
158 197 255
158 197 255
158 197 255
157 197 255
157 197 255
157 197 255
157 197 255
157 197 255
157 197 255
157 197 255
157 196 255
157 196 255
157 196 255
157 196 255
157 196 255
157 196 255
157 196 255
157 196 255
157 196 255
157 196 255
157 196 255
157 196 255
157 196 255
157 196 255
157 196 255
157 196 255
157 196 255
157 196 255
157 196 255
157 196 255
157 196 255
157 196 255
157 196 255
157 196 255
157 196 255
157 196 255
157 196 255
157 196 255
157 196 255
157 196 255
157 196 255
157 196 255
157 196 255
157 196 255
157 196 255
157 196 255
157 196 255
157 196 255
157 196 255
157 196 255
157 196 255
157 196 255
157 196 255
157 197 255
157 197 255
157 197 255
157 197 255
157 197 255
157 197 255
157 197 255
158 197 255
158 197 255
158 197 255
158 197 255
158 197 255
158 197 255
158 197 255
158 197 255
158 197 255
158 197 255
158 197 255
158 197 255
158 197 255
158 197 255
158 197 255
158 197 255
159 197 255
159 197 255
159 197 255
159 197 255
159 198 255
159 198 255
159 198 255
159 198 255
159 198 255
159 198 255
159 198 255
159 198 255
159 198 255
160 198 255
160 198 255
160 198 255
160 198 255
160 198 255
160 198 255
160 198 255
160 198 255
160 198 255
160 198 255
160 198 255
161 199 255
161 199 255
161 199 255
161 199 255
161 199 255
161 199 255
161 199 255
161 199 255
161 199 255
161 199 255
162 199 255
162 199 255
162 199 255
162 199 255
162 199 255
162 199 255
162 199 255
162 200 255
162 200 255
162 200 255
163 200 255
163 200 255
163 200 255
163 200 255
163 200 255
163 200 255
163 200 255
163 200 255
163 200 255
163 200 255
164 200 255
164 200 255
164 200 255
164 201 255
164 201 255
164 201 255
164 201 255
164 201 255
164 201 255
164 201 255
165 201 255
165 201 255
165 201 255
165 201 255
165 201 255
165 201 255
165 201 255
165 201 255
165 201 255
165 201 255
166 202 255
166 202 255
166 202 255
166 202 255
166 202 255
166 202 255
166 202 255
166 202 255
166 202 255
166 202 255
166 202 255
167 202 255
167 202 255
167 202 255
167 202 255
167 202 255
167 202 255
167 202 255
167 203 255
167 203 255
167 203 255
167 203 255
168 203 255
168 203 255
168 203 255
168 203 255
168 203 255
168 203 255
168 203 255
168 203 255
168 203 255
168 203 255
168 203 255
169 203 255
169 203 255
169 203 255
169 203 255
169 204 255
169 204 255
169 204 255
169 204 255
169 204 255
169 204 255
169 204 255
169 204 255
170 204 255
170 204 255
170 204 255
170 204 255
170 204 255
170 204 255
170 204 255
170 204 255
170 204 255
170 204 255
170 204 255
170 204 255
170 204 255
171 205 255
171 205 255
171 205 255
171 205 255
171 205 255
171 205 255
171 205 255
171 205 255
171 205 255
171 205 255
171 205 255
171 205 255
171 205 255
172 205 255
172 205 255
172 205 255
172 205 255
172 205 255
172 205 255
172 205 255
172 205 255
172 205 255
172 205 255
172 206 255
172 206 255
172 206 255
172 206 255
172 205 255
172 205 255
172 205 255
172 205 255
172 205 255
172 205 255
172 205 255
172 205 255
172 205 255
172 205 255
171 205 255
171 205 255
171 205 255
171 205 255
171 205 255
171 205 255
171 205 255
171 205 255
171 205 255
171 205 255
171 205 255
171 205 255
171 205 255
170 204 255
170 204 255
170 204 255
170 204 255
170 204 255
170 204 255
170 204 255
170 204 255
170 204 255
170 204 255
170 204 255
170 204 255
170 204 255
169 204 255
169 204 255
169 204 255
169 204 255
169 204 255
169 204 255
169 204 255
169 204 255
169 203 255
169 203 255
169 203 255
169 203 255
168 203 255
168 203 255
168 203 255
168 203 255
168 203 255
168 203 255
168 203 255
168 203 255
168 203 255
168 203 255
168 203 255
167 203 255
167 203 255
167 203 255
167 203 255
167 202 255
167 202 255
167 202 255
167 202 255
167 202 255
167 202 255
167 202 255
166 202 255
166 202 255
166 202 255
166 202 255
166 202 255
166 202 255
166 202 255
166 202 255
166 202 255
166 202 255
166 202 255
165 201 255
165 201 255
165 201 255
165 201 255
165 201 255
165 201 255
165 201 255
165 201 255
165 201 255
165 201 255
164 201 255
164 201 255
164 201 255
164 201 255
164 201 255
164 201 255
164 201 255
164 200 255
164 200 255
164 200 255
163 200 255
163 200 255
163 200 255
163 200 255
163 200 255
163 200 255
163 200 255
163 200 255
163 200 255
163 200 255
162 200 255
162 200 255
162 200 255
162 200 255
162 199 255
162 199 255
162 199 255
162 199 255
162 199 255
162 199 255
162 199 255
161 199 255
161 199 255
161 199 255
161 199 255
161 199 255
161 199 255
161 199 255
161 199 255
161 199 255
161 199 255
160 198 255
160 198 255
160 198 255
160 198 255
160 198 255
160 198 255
160 198 255
160 198 255
160 198 255
160 198 255
160 198 255
159 198 255
159 198 255
159 198 255
159 198 255
159 198 255
159 198 255
159 198 255
159 198 255
159 198 255
159 197 255
159 197 255
159 197 255
159 197 255
159 197 255
158 197 255
158 197 255
158 197 255
158 197 255
158 197 255
158 197 255
158 197 255
158 197 255
158 197 255
158 197 255
158 197 255
158 197 255
158 197 255
158 197 255
158 197 255
158 197 255
158 197 255
158 197 255
157 197 255
157 197 255
157 197 255
157 197 255
157 197 255
157 197 255
157 197 255
157 197 255
157 197 255
157 197 255
157 197 255
157 196 255
157 196 255
157 196 255
157 196 255
157 196 255
157 196 255
157 196 255
157 196 255
157 196 255
157 196 255
157 196 255
157 196 255
157 196 255
157 196 255
157 196 255
157 196 255
157 196 255
157 196 255
157 196 255
157 196 255
157 196 255
157 197 255
157 197 255
157 197 255
157 197 255
157 197 255
157 197 255
157 197 255
157 197 255
157 197 255
157 197 255
158 197 255
158 197 255
158 197 255
158 197 255
158 197 255
158 197 255
158 197 255
158 197 255
158 197 255
158 197 255
158 197 255
158 197 255
158 197 255
158 197 255
158 197 255
158 197 255
158 197 255
158 197 255
158 197 255
159 197 255
159 197 255
159 197 255
159 197 255
159 197 255
159 198 255
159 198 255
159 198 255
159 198 255
159 198 255
159 198 255
159 198 255
159 198 255
159 198 255
160 198 255
160 198 255
160 198 255
160 198 255
160 198 255
160 198 255
160 198 255
160 198 255
160 198 255
160 198 255
160 198 255
161 199 255
161 199 255
161 199 255
161 199 255
161 199 255
161 199 255
161 199 255
161 199 255
161 199 255
161 199 255
162 199 255
162 199 255
162 199 255
162 199 255
162 199 255
162 199 255
162 199 255
162 200 255
162 200 255
162 200 255
162 200 255
163 200 255
163 200 255
163 200 255
163 200 255
163 200 255
163 200 255
163 200 255
163 200 255
163 200 255
163 200 255
164 200 255
164 200 255
164 200 255
164 201 255
164 201 255
164 201 255
164 201 255
164 201 255
164 201 255
164 201 255
165 201 255
165 201 255
165 201 255
165 201 255
165 201 255
165 201 255
165 201 255
165 201 255
165 201 255
165 201 255
166 202 255
166 202 255
166 202 255
166 202 255
166 202 255
166 202 255
166 202 255
166 202 255
166 202 255
166 202 255
166 202 255
167 202 255
167 202 255
167 202 255
167 202 255
167 202 255
167 202 255
167 202 255
167 203 255
167 203 255
167 203 255
167 203 255
168 203 255
168 203 255
168 203 255
168 203 255
168 203 255
168 203 255
168 203 255
168 203 255
168 203 255
168 203 255
169 203 255
169 203 255
169 203 255
169 203 255
169 203 255
169 204 255
169 204 255
169 204 255
169 204 255
169 204 255
169 204 255
169 204 255
169 204 255
170 204 255
170 204 255
170 204 255
170 204 255
170 204 255
170 204 255
170 204 255
170 204 255
170 204 255
170 204 255
170 204 255
170 204 255
170 204 255
171 205 255
171 205 255
171 205 255
171 205 255
171 205 255
171 205 255
171 205 255
171 205 255
171 205 255
171 205 255
171 205 255
171 205 255
171 205 255
172 205 255
172 205 255
172 205 255
172 205 255
172 205 255
172 205 255
172 205 255
172 205 255
172 205 255
172 205 255
172 206 255
172 206 255
172 206 255
172 206 255
173 206 255
173 206 255
172 206 255
172 206 255
172 206 255
172 206 255
172 206 255
172 205 255
172 205 255
172 205 255
172 205 255
172 205 255
172 205 255
172 205 255
172 205 255
172 205 255
171 205 255
171 205 255
171 205 255
171 205 255
171 205 255
171 205 255
171 205 255
171 205 255
171 205 255
171 205 255
171 205 255
171 205 255
171 205 255
171 205 255
170 204 255
170 204 255
170 204 255
170 204 255
170 204 255
170 204 255
170 204 255
170 204 255
170 204 255
170 204 255
170 204 255
170 204 255
170 204 255
169 204 255
169 204 255
169 204 255
169 204 255
169 204 255
169 204 255
169 204 255
169 204 255
169 203 255
169 203 255
169 203 255
168 203 255
168 203 255
168 203 255
168 203 255
168 203 255
168 203 255
168 203 255
168 203 255
168 203 255
168 203 255
168 203 255
168 203 255
167 203 255
167 203 255
167 203 255
167 202 255
167 202 255
167 202 255
167 202 255
167 202 255
167 202 255
167 202 255
167 202 255
166 202 255
166 202 255
166 202 255
166 202 255
166 202 255
166 202 255
166 202 255
166 202 255
166 202 255
166 202 255
165 201 255
165 201 255
165 201 255
165 201 255
165 201 255
165 201 255
165 201 255
165 201 255
165 201 255
165 201 255
164 201 255
164 201 255
164 201 255
164 201 255
164 201 255
164 201 255
164 201 255
164 200 255
164 200 255
164 200 255
163 200 255
163 200 255
163 200 255
163 200 255
163 200 255
163 200 255
163 200 255
163 200 255
163 200 255
163 200 255
163 200 255
162 200 255
162 200 255
162 200 255
162 199 255
162 199 255
162 199 255
162 199 255
162 199 255
162 199 255
162 199 255
161 199 255
161 199 255
161 199 255
161 199 255
161 199 255
161 199 255
161 199 255
161 199 255
161 199 255
161 199 255
161 199 255
160 198 255
160 198 255
160 198 255
160 198 255
160 198 255
160 198 255
160 198 255
160 198 255
160 198 255
160 198 255
160 198 255
160 198 255
159 198 255
159 198 255
159 198 255
159 198 255
159 198 255
159 198 255
159 198 255
159 198 255
159 198 255
159 197 255
159 197 255
159 197 255
159 197 255
159 197 255
158 197 255
158 197 255
158 197 255
158 197 255
158 197 255
158 197 255
158 197 255
158 197 255
158 197 255
158 197 255
158 197 255
158 197 255
158 197 255
158 197 255
158 197 255
158 197 255
158 197 255
158 197 255
158 197 255
158 197 255
158 197 255
158 197 255
158 197 255
158 197 255
158 197 255
157 197 255
157 197 255
157 197 255
157 197 255
157 197 255
157 197 255
157 197 255
157 197 255
157 197 255
157 197 255
157 197 255
157 197 255
157 197 255
157 197 255
157 197 255
157 197 255
157 197 255
157 197 255
157 197 255
158 197 255
158 197 255
158 197 255
158 197 255
158 197 255
158 197 255
158 197 255
158 197 255
158 197 255
158 197 255
158 197 255
158 197 255
158 197 255
158 197 255
158 197 255
158 197 255
158 197 255
158 197 255
158 197 255
158 197 255
158 197 255
158 197 255
158 197 255
158 197 255
158 197 255
159 197 255
159 197 255
159 197 255
159 197 255
159 197 255
159 198 255
159 198 255
159 198 255
159 198 255
159 198 255
159 198 255
159 198 255
159 198 255
159 198 255
160 198 255
160 198 255
160 198 255
160 198 255
160 198 255
160 198 255
160 198 255
160 198 255
160 198 255
160 198 255
160 198 255
160 198 255
161 199 255
161 199 255
161 199 255
161 199 255
161 199 255
161 199 255
161 199 255
161 199 255
161 199 255
161 199 255
161 199 255
162 199 255
162 199 255
162 199 255
162 199 255
162 199 255
162 199 255
162 199 255
162 200 255
162 200 255
162 200 255
163 200 255
163 200 255
163 200 255
163 200 255
163 200 255
163 200 255
163 200 255
163 200 255
163 200 255
163 200 255
163 200 255
164 200 255
164 200 255
164 200 255
164 201 255
164 201 255
164 201 255
164 201 255
164 201 255
164 201 255
164 201 255
165 201 255
165 201 255
165 201 255
165 201 255
165 201 255
165 201 255
165 201 255
165 201 255
165 201 255
165 201 255
166 202 255
166 202 255
166 202 255
166 202 255
166 202 255
166 202 255
166 202 255
166 202 255
166 202 255
166 202 255
167 202 255
167 202 255
167 202 255
167 202 255
167 202 255
167 202 255
167 202 255
167 202 255
167 203 255
167 203 255
167 203 255
168 203 255
168 203 255
168 203 255
168 203 255
168 203 255
168 203 255
168 203 255
168 203 255
168 203 255
168 203 255
168 203 255
168 203 255
169 203 255
169 203 255
169 203 255
169 204 255
169 204 255
169 204 255
169 204 255
169 204 255
169 204 255
169 204 255
169 204 255
170 204 255
170 204 255
170 204 255
170 204 255
170 204 255
170 204 255
170 204 255
170 204 255
170 204 255
170 204 255
170 204 255
170 204 255
170 204 255
171 205 255
171 205 255
171 205 255
171 205 255
171 205 255
171 205 255
171 205 255
171 205 255
171 205 255
171 205 255
171 205 255
171 205 255
171 205 255
171 205 255
172 205 255
172 205 255
172 205 255
172 205 255
172 205 255
172 205 255
172 205 255
172 205 255
172 205 255
172 206 255
172 206 255
172 206 255
172 206 255
172 206 255
173 206 255
173 206 255
173 206 255
173 206 255
173 206 255
173 206 255
173 206 255
173 206 255
172 206 255
172 206 255
172 206 255
172 206 255
172 206 255
172 205 255
172 205 255
172 205 255
172 205 255
172 205 255
172 205 255
172 205 255
172 205 255
172 205 255
172 205 255
171 205 255
171 205 255
171 205 255
171 205 255
171 205 255
171 205 255
171 205 255
171 205 255
171 205 255
171 205 255
171 205 255
171 205 255
171 205 255
170 204 255
170 204 255
170 204 255
170 204 255
170 204 255
170 204 255
170 204 255
170 204 255
170 204 255
170 204 255
170 204 255
170 204 255
170 204 255
169 204 255
169 204 255
169 204 255
169 204 255
169 204 255
169 204 255
169 204 255
169 204 255
169 203 255
169 203 255
169 203 255
168 203 255
168 203 255
168 203 255
168 203 255
168 203 255
168 203 255
168 203 255
168 203 255
168 203 255
168 203 255
168 203 255
168 203 255
167 203 255
167 203 255
167 203 255
167 203 255
167 202 255
167 202 255
167 202 255
167 202 255
167 202 255
167 202 255
167 202 255
166 202 255
166 202 255
166 202 255
166 202 255
166 202 255
166 202 255
166 202 255
166 202 255
166 202 255
166 202 255
165 201 255
165 201 255
165 201 255
165 201 255
165 201 255
165 201 255
165 201 255
165 201 255
165 201 255
165 201 255
164 201 255
164 201 255
164 201 255
164 201 255
164 201 255
164 201 255
164 201 255
164 201 255
164 200 255
164 200 255
163 200 255
163 200 255
163 200 255
163 200 255
163 200 255
163 200 255
163 200 255
163 200 255
163 200 255
163 200 255
163 200 255
162 200 255
162 200 255
162 200 255
162 199 255
162 199 255
162 199 255
162 199 255
162 199 255
162 199 255
162 199 255
162 199 255
161 199 255
161 199 255
161 199 255
161 199 255
161 199 255
161 199 255
161 199 255
161 199 255
161 199 255
161 199 255
161 199 255
160 198 255
160 198 255
160 198 255
160 198 255
160 198 255
160 198 255
160 198 255
160 198 255
160 198 255
160 198 255
160 198 255
160 198 255
159 198 255
159 198 255
159 198 255
159 198 255
159 198 255
159 198 255
159 198 255
159 198 255
159 198 255
159 198 255
159 197 255
159 197 255
159 197 255
159 197 255
159 197 255
159 197 255
158 197 255
158 197 255
158 197 255
158 197 255
158 197 255
158 197 255
158 197 255
158 197 255
158 197 255
158 197 255
158 197 255
158 197 255
158 197 255
158 197 255
158 197 255
158 197 255
158 197 255
158 197 255
158 197 255
158 197 255
158 197 255
158 197 255
158 197 255
158 197 255
158 197 255
158 197 255
158 197 255
158 197 255
158 197 255
158 197 255
158 197 255
158 197 255
158 197 255
158 197 255
158 197 255
158 197 255
158 197 255
158 197 255
158 197 255
158 197 255
158 197 255
158 197 255
158 197 255
158 197 255
158 197 255
158 197 255
158 197 255
158 197 255
158 197 255
158 197 255
158 197 255
158 197 255
158 197 255
158 197 255
158 197 255
158 197 255
158 197 255
159 197 255
159 197 255
159 197 255
159 197 255
159 197 255
159 197 255
159 198 255
159 198 255
159 198 255
159 198 255
159 198 255
159 198 255
159 198 255
159 198 255
159 198 255
159 198 255
160 198 255
160 198 255
160 198 255
160 198 255
160 198 255
160 198 255
160 198 255
160 198 255
160 198 255
160 198 255
160 198 255
160 198 255
161 199 255
161 199 255
161 199 255
161 199 255
161 199 255
161 199 255
161 199 255
161 199 255
161 199 255
161 199 255
161 199 255
162 199 255
162 199 255
162 199 255
162 199 255
162 199 255
162 199 255
162 199 255
162 200 255
162 200 255
162 200 255
162 200 255
163 200 255
163 200 255
163 200 255
163 200 255
163 200 255
163 200 255
163 200 255
163 200 255
163 200 255
163 200 255
164 200 255
164 200 255
164 200 255
164 200 255
164 201 255
164 201 255
164 201 255
164 201 255
164 201 255
164 201 255
165 201 255
165 201 255
165 201 255
165 201 255
165 201 255
165 201 255
165 201 255
165 201 255
165 201 255
165 201 255
165 201 255
166 202 255
166 202 255
166 202 255
166 202 255
166 202 255
166 202 255
166 202 255
166 202 255
166 202 255
166 202 255
167 202 255
167 202 255
167 202 255
167 202 255
167 202 255
167 202 255
167 202 255
167 203 255
167 203 255
167 203 255
167 203 255
168 203 255
168 203 255
168 203 255
168 203 255
168 203 255
168 203 255
168 203 255
168 203 255
168 203 255
168 203 255
168 203 255
169 203 255
169 203 255
169 203 255
169 203 255
169 204 255
169 204 255
169 204 255
169 204 255
169 204 255
169 204 255
169 204 255
169 204 255
170 204 255
170 204 255
170 204 255
170 204 255
170 204 255
170 204 255
170 204 255
170 204 255
170 204 255
170 204 255
170 204 255
170 204 255
170 204 255
171 205 255
171 205 255
171 205 255
171 205 255
171 205 255
171 205 255
171 205 255
171 205 255
171 205 255
171 205 255
171 205 255
171 205 255
171 205 255
172 205 255
172 205 255
172 205 255
172 205 255
172 205 255
172 205 255
172 205 255
172 205 255
172 205 255
172 206 255
172 206 255
172 206 255
172 206 255
172 206 255
173 206 255
173 206 255
173 206 255
173 206 255
173 206 255
173 206 255
173 206 255
173 206 255
173 206 255
173 206 255
173 206 255
173 206 255
173 206 255
173 206 255
173 206 255
173 206 255
172 206 255
172 206 255
172 206 255
172 206 255
172 206 255
172 206 255
172 205 255
172 205 255
172 205 255
172 205 255
172 205 255
172 205 255
172 205 255
172 205 255
172 205 255
171 205 255
171 205 255
171 205 255
171 205 255
171 205 255
171 205 255
171 205 255
171 205 255
171 205 255
171 205 255
171 205 255
171 205 255
171 205 255
170 204 255
170 204 255
170 204 255
170 204 255
170 204 255
170 204 255
170 204 255
170 204 255
170 204 255
170 204 255
170 204 255
170 204 255
169 204 255
169 204 255
169 204 255
169 204 255
169 204 255
169 204 255
169 204 255
169 204 255
169 203 255
169 203 255
169 203 255
169 203 255
168 203 255
168 203 255
168 203 255
168 203 255
168 203 255
168 203 255
168 203 255
168 203 255
168 203 255
168 203 255
168 203 255
167 203 255
167 203 255
167 203 255
167 203 255
167 202 255
167 202 255
167 202 255
167 202 255
167 202 255
167 202 255
167 202 255
166 202 255
166 202 255
166 202 255
166 202 255
166 202 255
166 202 255
166 202 255
166 202 255
166 202 255
166 202 255
165 201 255
165 201 255
165 201 255
165 201 255
165 201 255
165 201 255
165 201 255
165 201 255
165 201 255
165 201 255
165 201 255
164 201 255
164 201 255
164 201 255
164 201 255
164 201 255
164 201 255
164 201 255
164 200 255
164 200 255
164 200 255
163 200 255
163 200 255
163 200 255
163 200 255
163 200 255
163 200 255
163 200 255
163 200 255
163 200 255
163 200 255
162 200 255
162 200 255
162 200 255
162 200 255
162 199 255
162 199 255
162 199 255
162 199 255
162 199 255
162 199 255
162 199 255
161 199 255
161 199 255
161 199 255
161 199 255
161 199 255
161 199 255
161 199 255
161 199 255
161 199 255
161 199 255
161 199 255
161 199 255
160 198 255
160 198 255
160 198 255
160 198 255
160 198 255
160 198 255
160 198 255
160 198 255
160 198 255
160 198 255
160 198 255
160 198 255
160 198 255
159 198 255
159 198 255
159 198 255
159 198 255
159 198 255
159 198 255
159 198 255
159 198 255
159 198 255
159 198 255
159 198 255
159 198 255
159 197 255
159 197 255
159 197 255
159 197 255
159 197 255
159 197 255
159 197 255
158 197 255
158 197 255
158 197 255
158 197 255
158 197 255
158 197 255
158 197 255
158 197 255
158 197 255
158 197 255
158 197 255
158 197 255
158 197 255
158 197 255
158 197 255
158 197 255
158 197 255
158 197 255
158 197 255
158 197 255
158 197 255
158 197 255
158 197 255
158 197 255
158 197 255
158 197 255
158 197 255
158 197 255
158 197 255
158 197 255
158 197 255
158 197 255
158 197 255
158 197 255
158 197 255
158 197 255
158 197 255
158 197 255
158 197 255
158 197 255
158 197 255
159 197 255
159 197 255
159 197 255
159 197 255
159 197 255
159 197 255
159 197 255
159 197 255
159 198 255
159 198 255
159 198 255
159 198 255
159 198 255
159 198 255
159 198 255
159 198 255
159 198 255
159 198 255
159 198 255
160 198 255
160 198 255
160 198 255
160 198 255
160 198 255
160 198 255
160 198 255
160 198 255
160 198 255
160 198 255
160 198 255
160 198 255
160 198 255
161 199 255
161 199 255
161 199 255
161 199 255
161 199 255
161 199 255
161 199 255
161 199 255
161 199 255
161 199 255
161 199 255
161 199 255
162 199 255
162 199 255
162 199 255
162 199 255
162 199 255
162 199 255
162 199 255
162 200 255
162 200 255
162 200 255
162 200 255
163 200 255
163 200 255
163 200 255
163 200 255
163 200 255
163 200 255
163 200 255
163 200 255
163 200 255
163 200 255
164 200 255
164 200 255
164 200 255
164 201 255
164 201 255
164 201 255
164 201 255
164 201 255
164 201 255
164 201 255
165 201 255
165 201 255
165 201 255
165 201 255
165 201 255
165 201 255
165 201 255
165 201 255
165 201 255
165 201 255
165 201 255
166 202 255
166 202 255
166 202 255
166 202 255
166 202 255
166 202 255
166 202 255
166 202 255
166 202 255
166 202 255
167 202 255
167 202 255
167 202 255
167 202 255
167 202 255
167 202 255
167 202 255
167 203 255
167 203 255
167 203 255
167 203 255
168 203 255
168 203 255
168 203 255
168 203 255
168 203 255
168 203 255
168 203 255
168 203 255
168 203 255
168 203 255
168 203 255
169 203 255
169 203 255
169 203 255
169 203 255
169 204 255
169 204 255
169 204 255
169 204 255
169 204 255
169 204 255
169 204 255
169 204 255
170 204 255
170 204 255
170 204 255
170 204 255
170 204 255
170 204 255
170 204 255
170 204 255
170 204 255
170 204 255
170 204 255
170 204 255
171 205 255
171 205 255
171 205 255
171 205 255
171 205 255
171 205 255
171 205 255
171 205 255
171 205 255
171 205 255
171 205 255
171 205 255
171 205 255
172 205 255
172 205 255
172 205 255
172 205 255
172 205 255
172 205 255
172 205 255
172 205 255
172 205 255
172 205 255
172 206 255
172 206 255
172 206 255
172 206 255
172 206 255
173 206 255
173 206 255
173 206 255
173 206 255
173 206 255
173 206 255
173 206 255
173 206 255
173 206 255
173 206 255
173 206 255
173 206 255
173 206 255
173 206 255
173 206 255
173 206 255
173 206 255
173 206 255
173 206 255
173 206 255
173 206 255
173 206 255
173 206 255
172 206 255
172 206 255
172 206 255
172 206 255
172 206 255
172 205 255
172 205 255
172 205 255
172 205 255
172 205 255
172 205 255
172 205 255
172 205 255
172 205 255
171 205 255
171 205 255
171 205 255
171 205 255
171 205 255
171 205 255
171 205 255
171 205 255
171 205 255
171 205 255
171 205 255
171 205 255
171 205 255
170 204 255
170 204 255
170 204 255
170 204 255
170 204 255
170 204 255
170 204 255
170 204 255
170 204 255
170 204 255
170 204 255
170 204 255
170 204 255
169 204 255
169 204 255
169 204 255
169 204 255
169 204 255
169 204 255
169 204 255
169 203 255
169 203 255
169 203 255
169 203 255
169 203 255
168 203 255
168 203 255
168 203 255
168 203 255
168 203 255
168 203 255
168 203 255
168 203 255
168 203 255
168 203 255
168 203 255
167 203 255
167 203 255
167 203 255
167 202 255
167 202 255
167 202 255
167 202 255
167 202 255
167 202 255
167 202 255
166 202 255
166 202 255
166 202 255
166 202 255
166 202 255
166 202 255
166 202 255
166 202 255
166 202 255
166 202 255
166 202 255
165 201 255
165 201 255
165 201 255
165 201 255
165 201 255
165 201 255
165 201 255
165 201 255
165 201 255
165 201 255
164 201 255
164 201 255
164 201 255
164 201 255
164 201 255
164 201 255
164 201 255
164 200 255
164 200 255
164 200 255
163 200 255
163 200 255
163 200 255
163 200 255
163 200 255
163 200 255
163 200 255
163 200 255
163 200 255
163 200 255
163 200 255
162 200 255
162 200 255
162 200 255
162 199 255
162 199 255
162 199 255
162 199 255
162 199 255
162 199 255
162 199 255
162 199 255
161 199 255
161 199 255
161 199 255
161 199 255
161 199 255
161 199 255
161 199 255
161 199 255
161 199 255
161 199 255
161 199 255
161 199 255
160 198 255
160 198 255
160 198 255
160 198 255
160 198 255
160 198 255
160 198 255
160 198 255
160 198 255
160 198 255
160 198 255
160 198 255
160 198 255
160 198 255
160 198 255
159 198 255
159 198 255
159 198 255
159 198 255
159 198 255
159 198 255
159 198 255
159 198 255
159 198 255
159 198 255
159 198 255
159 198 255
159 198 255
159 198 255
159 197 255
159 197 255
159 197 255
159 197 255
159 197 255
159 197 255
159 197 255
159 197 255
159 197 255
159 197 255
159 197 255
159 197 255
159 197 255
158 197 255
158 197 255
158 197 255
158 197 255
158 197 255
158 197 255
158 197 255
158 197 255
158 197 255
158 197 255
158 197 255
158 197 255
158 197 255
159 197 255
159 197 255
159 197 255
159 197 255
159 197 255
159 197 255
159 197 255
159 197 255
159 197 255
159 197 255
159 197 255
159 197 255
159 198 255
159 197 255
159 198 255
159 198 255
159 198 255
159 198 255
159 198 255
159 198 255
159 198 255
159 198 255
159 198 255
159 198 255
159 198 255
159 198 255
159 198 255
160 198 255
160 198 255
160 198 255
160 198 255
160 198 255
160 198 255
160 198 255
160 198 255
160 198 255
160 198 255
160 198 255
160 198 255
160 198 255
160 198 255
160 198 255
161 199 255
161 199 255
161 199 255
161 199 255
161 199 255
161 199 255
161 199 255
161 199 255
161 199 255
161 199 255
161 199 255
161 199 255
162 199 255
162 199 255
162 199 255
162 199 255
162 199 255
162 199 255
162 199 255
162 200 255
162 200 255
162 200 255
162 200 255
163 200 255
163 200 255
163 200 255
163 200 255
163 200 255
163 200 255
163 200 255
163 200 255
163 200 255
163 200 255
163 200 255
164 200 255
164 200 255
164 200 255
164 201 255
164 201 255
164 201 255
164 201 255
164 201 255
164 201 255
164 201 255
165 201 255
165 201 255
165 201 255
165 201 255
165 201 255
165 201 255
165 201 255
165 201 255
165 201 255
165 201 255
166 202 255
166 202 255
166 202 255
166 202 255
166 202 255
166 202 255
166 202 255
166 202 255
166 202 255
166 202 255
167 202 255
167 202 255
167 202 255
167 202 255
167 202 255
167 202 255
167 202 255
167 202 255
167 203 255
167 203 255
167 203 255
167 203 255
168 203 255
168 203 255
168 203 255
168 203 255
168 203 255
168 203 255
168 203 255
168 203 255
168 203 255
168 203 255
169 203 255
169 203 255
169 203 255
169 203 255
169 204 255
169 204 255
169 204 255
169 204 255
169 204 255
169 204 255
169 204 255
169 204 255
170 204 255
170 204 255
170 204 255
170 204 255
170 204 255
170 204 255
170 204 255
170 204 255
170 204 255
170 204 255
170 204 255
170 204 255
170 204 255
171 205 255
171 205 255
171 205 255
171 205 255
171 205 255
171 205 255
171 205 255
171 205 255
171 205 255
171 205 255
171 205 255
171 205 255
171 205 255
172 205 255
172 205 255
172 205 255
172 205 255
172 205 255
172 205 255
172 205 255
172 205 255
172 205 255
172 206 255
172 206 255
172 206 255
172 206 255
172 206 255
173 206 255
173 206 255
173 206 255
173 206 255
173 206 255
173 206 255
173 206 255
173 206 255
173 206 255
173 206 255
173 206 255
173 206 255
173 206 255
173 206 255
174 206 255
174 206 255
173 206 255
173 206 255
173 206 255
173 206 255
173 206 255
173 206 255
173 206 255
173 206 255
173 206 255
173 206 255
173 206 255
173 206 255
173 206 255
173 206 255
173 206 255
172 206 255
172 206 255
172 206 255
172 206 255
172 206 255
172 205 255
172 205 255
172 205 255
172 205 255
172 205 255
172 205 255
172 205 255
172 205 255
172 205 255
171 205 255
171 205 255
171 205 255
171 205 255
171 205 255
171 205 255
171 205 255
171 205 255
171 205 255
171 205 255
171 205 255
171 205 255
171 205 255
170 204 255
170 204 255
170 204 255
170 204 255
170 204 255
170 204 255
170 204 255
170 204 255
170 204 255
170 204 255
170 204 255
170 204 255
169 204 255
169 204 255
169 204 255
169 204 255
169 204 255
169 204 255
169 204 255
169 204 255
169 203 255
169 203 255
169 203 255
169 203 255
168 203 255
168 203 255
168 203 255
168 203 255
168 203 255
168 203 255
168 203 255
168 203 255
168 203 255
168 203 255
168 203 255
167 203 255
167 203 255
167 203 255
167 202 255
167 202 255
167 202 255
167 202 255
167 202 255
167 202 255
167 202 255
167 202 255
166 202 255
166 202 255
166 202 255
166 202 255
166 202 255
166 202 255
166 202 255
166 202 255
166 202 255
166 202 255
165 201 255
165 201 255
165 201 255
165 201 255
165 201 255
165 201 255
165 201 255
165 201 255
165 201 255
165 201 255
165 201 255
164 201 255
164 201 255
164 201 255
164 201 255
164 201 255
164 201 255
164 201 255
164 200 255
164 200 255
164 200 255
163 200 255
163 200 255
163 200 255
163 200 255
163 200 255
163 200 255
163 200 255
163 200 255
163 200 255
163 200 255
163 200 255
162 200 255
162 200 255
162 200 255
162 200 255
162 199 255
162 199 255
162 199 255
162 199 255
162 199 255
162 199 255
162 199 255
161 199 255
161 199 255
161 199 255
161 199 255
161 199 255
161 199 255
161 199 255
161 199 255
161 199 255
161 199 255
161 199 255
161 199 255
161 199 255
160 198 255
160 198 255
160 198 255
160 198 255
160 198 255
160 198 255
160 198 255
160 198 255
160 198 255
160 198 255
160 198 255
160 198 255
160 198 255
160 198 255
160 198 255
160 198 255
160 198 255
159 198 255
159 198 255
159 198 255
159 198 255
159 198 255
159 198 255
159 198 255
159 198 255
159 198 255
159 198 255
159 198 255
159 198 255
159 198 255
159 198 255
159 198 255
159 198 255
159 198 255
159 198 255
159 198 255
159 198 255
159 198 255
159 198 255
159 198 255
159 198 255
159 198 255
159 197 255
159 198 255
159 197 255
159 197 255
159 198 255
159 198 255
159 198 255
159 198 255
159 198 255
159 198 255
159 198 255
159 198 255
159 198 255
159 198 255
159 198 255
159 198 255
159 198 255
159 198 255
159 198 255
159 198 255
159 198 255
159 198 255
159 198 255
159 198 255
159 198 255
159 198 255
159 198 255
159 198 255
159 198 255
160 198 255
160 198 255
160 198 255
160 198 255
160 198 255
160 198 255
160 198 255
160 198 255
160 198 255
160 198 255
160 198 255
160 198 255
160 198 255
160 198 255
160 198 255
160 198 255
161 199 255
161 199 255
161 199 255
161 199 255
161 199 255
161 199 255
161 199 255
161 199 255
161 199 255
161 199 255
161 199 255
161 199 255
161 199 255
162 199 255
162 199 255
162 199 255
162 199 255
162 199 255
162 199 255
162 199 255
162 200 255
162 200 255
162 200 255
162 200 255
163 200 255
163 200 255
163 200 255
163 200 255
163 200 255
163 200 255
163 200 255
163 200 255
163 200 255
163 200 255
163 200 255
164 200 255
164 200 255
164 200 255
164 201 255
164 201 255
164 201 255
164 201 255
164 201 255
164 201 255
164 201 255
164 201 255
165 201 255
165 201 255
165 201 255
165 201 255
165 201 255
165 201 255
165 201 255
165 201 255
165 201 255
165 201 255
166 202 255
166 202 255
166 202 255
166 202 255
166 202 255
166 202 255
166 202 255
166 202 255
166 202 255
166 202 255
167 202 255
167 202 255
167 202 255
167 202 255
167 202 255
167 202 255
167 202 255
167 202 255
167 203 255
167 203 255
167 203 255
168 203 255
168 203 255
168 203 255
168 203 255
168 203 255
168 203 255
168 203 255
168 203 255
168 203 255
168 203 255
168 203 255
169 203 255
169 203 255
169 203 255
169 203 255
169 204 255
169 204 255
169 204 255
169 204 255
169 204 255
169 204 255
169 204 255
169 204 255
170 204 255
170 204 255
170 204 255
170 204 255
170 204 255
170 204 255
170 204 255
170 204 255
170 204 255
170 204 255
170 204 255
170 204 255
171 205 255
171 205 255
171 205 255
171 205 255
171 205 255
171 205 255
171 205 255
171 205 255
171 205 255
171 205 255
171 205 255
171 205 255
171 205 255
172 205 255
172 205 255
172 205 255
172 205 255
172 205 255
172 205 255
172 205 255
172 205 255
172 205 255
172 206 255
172 206 255
172 206 255
172 206 255
172 206 255
173 206 255
173 206 255
173 206 255
173 206 255
173 206 255
173 206 255
173 206 255
173 206 255
173 206 255
173 206 255
173 206 255
173 206 255
173 206 255
173 206 255
173 206 255
174 206 255
174 206 255
174 206 255
174 206 255
174 206 255
174 206 255
174 206 255
174 206 255
174 206 255
173 206 255
173 206 255
173 206 255
173 206 255
173 206 255
173 206 255
173 206 255
173 206 255
173 206 255
173 206 255
173 206 255
173 206 255
173 206 255
173 206 255
173 206 255
172 206 255
172 206 255
172 206 255
172 206 255
172 206 255
172 205 255
172 205 255
172 205 255
172 205 255
172 205 255
172 205 255
172 205 255
172 205 255
171 205 255
171 205 255
171 205 255
171 205 255
171 205 255
171 205 255
171 205 255
171 205 255
171 205 255
171 205 255
171 205 255
171 205 255
171 205 255
170 204 255
170 204 255
170 204 255
170 204 255
170 204 255
170 204 255
170 204 255
170 204 255
170 204 255
170 204 255
170 204 255
170 204 255
169 204 255
169 204 255
169 204 255
169 204 255
169 204 255
169 204 255
169 204 255
169 204 255
169 203 255
169 203 255
169 203 255
169 203 255
168 203 255
168 203 255
168 203 255
168 203 255
168 203 255
168 203 255
168 203 255
168 203 255
168 203 255
168 203 255
168 203 255
167 203 255
167 203 255
167 203 255
167 203 255
167 202 255
167 202 255
167 202 255
167 202 255
167 202 255
167 202 255
167 202 255
166 202 255
166 202 255
166 202 255
166 202 255
166 202 255
166 202 255
166 202 255
166 202 255
166 202 255
166 202 255
166 202 255
165 201 255
165 201 255
165 201 255
165 201 255
165 201 255
165 201 255
165 201 255
165 201 255
165 201 255
165 201 255
164 201 255
164 201 255
164 201 255
164 201 255
164 201 255
164 201 255
164 201 255
164 200 255
164 200 255
164 200 255
164 200 255
163 200 255
163 200 255
163 200 255
163 200 255
163 200 255
163 200 255
163 200 255
163 200 255
163 200 255
163 200 255
163 200 255
162 200 255
162 200 255
162 200 255
162 200 255
162 199 255
162 199 255
162 199 255
162 199 255
162 199 255
162 199 255
162 199 255
162 199 255
161 199 255
161 199 255
161 199 255
161 199 255
161 199 255
161 199 255
161 199 255
161 199 255
161 199 255
161 199 255
161 199 255
161 199 255
161 199 255
160 198 255
160 198 255
160 198 255
160 198 255
160 198 255
160 198 255
160 198 255
160 198 255
160 198 255
160 198 255
160 198 255
160 198 255
160 198 255
160 198 255
160 198 255
160 198 255
160 198 255
160 198 255
160 198 255
160 198 255
159 198 255
159 198 255
159 198 255
159 198 255
159 198 255
159 198 255
159 198 255
159 198 255
159 198 255
159 198 255
159 198 255
159 198 255
159 198 255
159 198 255
159 198 255
159 198 255
159 198 255
159 198 255
159 198 255
159 198 255
159 198 255
159 198 255
159 198 255
159 198 255
159 198 255
159 198 255
159 198 255
159 198 255
159 198 255
159 198 255
159 198 255
159 198 255
159 198 255
159 198 255
159 198 255
159 198 255
159 198 255
160 198 255
160 198 255
160 198 255
160 198 255
160 198 255
160 198 255
160 198 255
160 198 255
160 198 255
160 198 255
160 198 255
160 198 255
160 198 255
160 198 255
160 198 255
160 198 255
160 198 255
160 198 255
160 198 255
160 198 255
161 199 255
161 199 255
161 199 255
161 199 255
161 199 255
161 199 255
161 199 255
161 199 255
161 199 255
161 199 255
161 199 255
161 199 255
161 199 255
161 199 255
162 199 255
162 199 255
162 199 255
162 199 255
162 199 255
162 199 255
162 199 255
162 199 255
162 200 255
162 200 255
162 200 255
163 200 255
163 200 255
163 200 255
163 200 255
163 200 255
163 200 255
163 200 255
163 200 255
163 200 255
163 200 255
163 200 255
164 200 255
164 200 255
164 200 255
164 200 255
164 201 255
164 201 255
164 201 255
164 201 255
164 201 255
164 201 255
164 201 255
165 201 255
165 201 255
165 201 255
165 201 255
165 201 255
165 201 255
165 201 255
165 201 255
165 201 255
165 201 255
165 201 255
166 202 255
166 202 255
166 202 255
166 202 255
166 202 255
166 202 255
166 202 255
166 202 255
166 202 255
166 202 255
167 202 255
167 202 255
167 202 255
167 202 255
167 202 255
167 202 255
167 202 255
167 203 255
167 203 255
167 203 255
167 203 255
168 203 255
168 203 255
168 203 255
168 203 255
168 203 255
168 203 255
168 203 255
168 203 255
168 203 255
168 203 255
168 203 255
169 203 255
169 203 255
169 203 255
169 204 255
169 204 255
169 204 255
169 204 255
169 204 255
169 204 255
169 204 255
169 204 255
170 204 255
170 204 255
170 204 255
170 204 255
170 204 255
170 204 255
170 204 255
170 204 255
170 204 255
170 204 255
170 204 255
170 204 255
170 204 255
171 205 255
171 205 255
171 205 255
171 205 255
171 205 255
171 205 255
171 205 255
171 205 255
171 205 255
171 205 255
171 205 255
171 205 255
172 205 255
172 205 255
172 205 255
172 205 255
172 205 255
172 205 255
172 205 255
172 205 255
172 205 255
172 206 255
172 206 255
172 206 255
172 206 255
172 206 255
173 206 255
173 206 255
173 206 255
173 206 255
173 206 255
173 206 255
173 206 255
173 206 255
173 206 255
173 206 255
173 206 255
173 206 255
173 206 255
173 206 255
173 206 255
174 206 255
174 206 255
174 206 255
174 206 255
174 206 255
174 206 255
174 207 255
174 207 255
174 207 255
174 207 255
174 207 255
174 207 255
174 206 255
174 206 255
174 206 255
174 206 255
174 206 255
173 206 255
173 206 255
173 206 255
173 206 255
173 206 255
173 206 255
173 206 255
173 206 255
173 206 255
173 206 255
173 206 255
173 206 255
173 206 255
173 206 255
173 206 255
172 206 255
172 206 255
172 206 255
172 206 255
172 206 255
172 205 255
172 205 255
172 205 255
172 205 255
172 205 255
172 205 255
172 205 255
172 205 255
171 205 255
171 205 255
171 205 255
171 205 255
171 205 255
171 205 255
171 205 255
171 205 255
171 205 255
171 205 255
171 205 255
171 205 255
171 205 255
170 204 255
170 204 255
170 204 255
170 204 255
170 204 255
170 204 255
170 204 255
170 204 255
170 204 255
170 204 255
170 204 255
170 204 255
169 204 255
169 204 255
169 204 255
169 204 255
169 204 255
169 204 255
169 204 255
169 204 255
169 203 255
169 203 255
169 203 255
169 203 255
168 203 255
168 203 255
168 203 255
168 203 255
168 203 255
168 203 255
168 203 255
168 203 255
168 203 255
168 203 255
168 203 255
167 203 255
167 203 255
167 203 255
167 202 255
167 202 255
167 202 255
167 202 255
167 202 255
167 202 255
167 202 255
166 202 255
166 202 255
166 202 255
166 202 255
166 202 255
166 202 255
166 202 255
166 202 255
166 202 255
166 202 255
166 202 255
165 201 255
165 201 255
165 201 255
165 201 255
165 201 255
165 201 255
165 201 255
165 201 255
165 201 255
165 201 255
165 201 255
164 201 255
164 201 255
164 201 255
164 201 255
164 201 255
164 201 255
164 201 255
164 200 255
164 200 255
164 200 255
163 200 255
163 200 255
163 200 255
163 200 255
163 200 255
163 200 255
163 200 255
163 200 255
163 200 255
163 200 255
163 200 255
163 200 255
162 200 255
162 200 255
162 200 255
162 200 255
162 199 255
162 199 255
162 199 255
162 199 255
162 199 255
162 199 255
162 199 255
162 199 255
161 199 255
161 199 255
161 199 255
161 199 255
161 199 255
161 199 255
161 199 255
161 199 255
161 199 255
161 199 255
161 199 255
161 199 255
161 199 255
161 199 255
161 199 255
160 198 255
160 198 255
160 198 255
160 198 255
160 198 255
160 198 255
160 198 255
160 198 255
160 198 255
160 198 255
160 198 255
160 198 255
160 198 255
160 198 255
160 198 255
160 198 255
160 198 255
160 198 255
160 198 255
160 198 255
160 198 255
160 198 255
160 198 255
156 187 241
150 172 222
143 158 205
141 148 191
127 111 144
129 122 157
126 110 138
132 117 152
123 97 126
124 108 139
117 95 114
121 94 118
132 122 157
132 125 162
141 153 197
145 159 205
144 156 202
152 178 230
156 189 243
160 198 255
160 198 255
160 198 255
160 198 255
160 198 255
160 198 255
160 198 255
160 198 255
160 198 255
160 198 255
160 198 255
160 198 255
160 198 255
160 198 255
160 198 255
160 198 255
160 198 255
160 198 255
160 198 255
160 198 255
160 198 255
160 198 255
160 198 255
161 199 255
161 199 255
161 199 255
161 199 255
161 199 255
161 199 255
161 199 255
161 199 255
161 199 255
161 199 255
161 199 255
161 199 255
161 199 255
161 199 255
161 199 255
162 199 255
162 199 255
162 199 255
162 199 255
162 199 255
162 199 255
162 199 255
162 199 255
162 200 255
162 200 255
162 200 255
162 200 255
163 200 255
163 200 255
163 200 255
163 200 255
163 200 255
163 200 255
163 200 255
163 200 255
163 200 255
163 200 255
163 200 255
164 200 255
164 200 255
164 200 255
164 200 255
164 201 255
164 201 255
164 201 255
164 201 255
164 201 255
164 201 255
164 201 255
165 201 255
165 201 255
165 201 255
165 201 255
165 201 255
165 201 255
165 201 255
165 201 255
165 201 255
165 201 255
165 201 255
166 202 255
166 202 255
166 202 255
166 202 255
166 202 255
166 202 255
166 202 255
166 202 255
166 202 255
166 202 255
167 202 255
167 202 255
167 202 255
167 202 255
167 202 255
167 202 255
167 202 255
167 202 255
167 203 255
167 203 255
167 203 255
168 203 255
168 203 255
168 203 255
168 203 255
168 203 255
168 203 255
168 203 255
168 203 255
168 203 255
168 203 255
168 203 255
169 203 255
169 203 255
169 203 255
169 203 255
169 204 255
169 204 255
169 204 255
169 204 255
169 204 255
169 204 255
169 204 255
170 204 255
170 204 255
170 204 255
170 204 255
170 204 255
170 204 255
170 204 255
170 204 255
170 204 255
170 204 255
170 204 255
170 204 255
170 204 255
171 205 255
171 205 255
171 205 255
171 205 255
171 205 255
171 205 255
171 205 255
171 205 255
171 205 255
171 205 255
171 205 255
171 205 255
171 205 255
172 205 255
172 205 255
172 205 255
172 205 255
172 205 255
172 205 255
172 205 255
172 205 255
172 205 255
172 206 255
172 206 255
172 206 255
172 206 255
172 206 255
173 206 255
173 206 255
173 206 255
173 206 255
173 206 255
173 206 255
173 206 255
173 206 255
173 206 255
173 206 255
173 206 255
173 206 255
173 206 255
173 206 255
173 206 255
174 206 255
174 206 255
174 206 255
174 206 255
174 206 255
174 207 255
174 207 255
174 207 255
174 207 255
174 207 255
174 207 255
174 207 255
174 207 255
174 207 255
174 207 255
174 207 255
174 207 255
174 207 255
174 207 255
174 206 255
174 206 255
174 206 255
174 206 255
174 206 255
173 206 255
173 206 255
173 206 255
173 206 255
173 206 255
173 206 255
173 206 255
173 206 255
173 206 255
173 206 255
173 206 255
173 206 255
173 206 255
173 206 255
172 206 255
172 206 255
172 206 255
172 206 255
172 206 255
172 205 255
172 205 255
172 205 255
172 205 255
172 205 255
172 205 255
172 205 255
172 205 255
172 205 255
171 205 255
171 205 255
171 205 255
171 205 255
171 205 255
171 205 255
171 205 255
171 205 255
171 205 255
171 205 255
171 205 255
171 205 255
171 205 255
170 204 255
170 204 255
170 204 255
170 204 255
170 204 255
170 204 255
170 204 255
170 204 255
170 204 255
170 204 255
170 204 255
169 204 255
169 204 255
169 204 255
169 204 255
169 204 255
169 204 255
169 204 255
169 204 255
169 203 255
169 203 255
169 203 255
169 203 255
168 203 255
168 203 255
168 203 255
168 203 255
168 203 255
168 203 255
168 203 255
168 203 255
168 203 255
168 203 255
168 203 255
167 203 255
167 203 255
167 203 255
167 203 255
167 202 255
167 202 255
167 202 255
167 202 255
167 202 255
167 202 255
167 202 255
166 202 255
166 202 255
166 202 255
166 202 255
166 202 255
166 202 255
166 202 255
166 202 255
166 202 255
166 202 255
166 202 255
165 201 255
165 201 255
165 201 255
165 201 255
165 201 255
165 201 255
165 201 255
165 201 255
165 201 255
165 201 255
164 201 255
164 201 255
164 201 255
164 201 255
164 201 255
164 201 255
164 201 255
164 201 255
164 200 255
164 200 255
164 200 255
163 200 255
163 200 255
163 200 255
163 200 255
163 200 255
163 200 255
163 200 255
163 200 255
163 200 255
163 200 255
163 200 255
163 200 255
162 200 255
162 200 255
162 200 255
162 200 255
162 199 255
162 199 255
162 199 255
162 199 255
162 199 255
162 199 255
162 199 255
162 199 255
162 199 255
161 199 255
161 199 255
161 199 255
161 199 255
161 199 255
161 199 255
161 199 255
161 199 255
161 199 255
161 199 255
161 199 255
161 199 255
161 199 255
161 199 255
161 199 255
161 199 255
161 199 255
160 198 255
160 198 255
160 198 255
160 198 255
160 198 255
160 198 255
160 198 255
160 198 255
160 198 255
160 198 255
160 198 255
148 170 220
145 156 202
133 130 163
115 85 109
116 83 104
107 58 73
103 57 73
105 57 73
105 57 70
105 57 73
107 57 67
107 57 70
106 57 70
109 58 72
109 58 72
104 57 73
108 58 72
111 58 72
108 58 75
108 57 69
104 57 72
105 57 72
105 57 75
110 58 73
112 67 84
114 85 108
139 142 182
143 148 191
153 181 234
160 198 255
160 198 255
160 198 255
160 198 255
160 198 255
160 198 255
160 198 255
160 198 255
160 198 255
160 198 255
161 199 255
161 199 255
161 199 255
161 199 255
161 199 255
161 199 255
161 199 255
161 199 255
161 199 255
161 199 255
161 199 255
161 199 255
161 199 255
161 199 255
161 199 255
161 199 255
161 199 255
161 199 255
162 199 255
162 199 255
162 199 255
162 199 255
162 199 255
162 199 255
162 199 255
162 199 255
162 199 255
162 200 255
162 200 255
162 200 255
162 200 255
163 200 255
163 200 255
163 200 255
163 200 255
163 200 255
163 200 255
163 200 255
163 200 255
163 200 255
163 200 255
163 200 255
163 200 255
164 200 255
164 200 255
164 200 255
164 201 255
164 201 255
164 201 255
164 201 255
164 201 255
164 201 255
164 201 255
164 201 255
165 201 255
165 201 255
165 201 255
165 201 255
165 201 255
165 201 255
165 201 255
165 201 255
165 201 255
165 201 255
166 202 255
166 202 255
166 202 255
166 202 255
166 202 255
166 202 255
166 202 255
166 202 255
166 202 255
166 202 255
166 202 255
167 202 255
167 202 255
167 202 255
167 202 255
167 202 255
167 202 255
167 202 255
167 203 255
167 203 255
167 203 255
167 203 255
168 203 255
168 203 255
168 203 255
168 203 255
168 203 255
168 203 255
168 203 255
168 203 255
168 203 255
168 203 255
168 203 255
169 203 255
169 203 255
169 203 255
169 203 255
169 204 255
169 204 255
169 204 255
169 204 255
169 204 255
169 204 255
169 204 255
170 204 255
170 204 255
170 204 255
170 204 255
170 204 255
170 204 255
170 204 255
170 204 255
170 204 255
170 204 255
170 204 255
170 204 255
171 205 255
171 205 255
171 205 255
171 205 255
171 205 255
171 205 255
171 205 255
171 205 255
171 205 255
171 205 255
171 205 255
171 205 255
171 205 255
172 205 255
172 205 255
172 205 255
172 205 255
172 205 255
172 205 255
172 205 255
172 205 255
172 205 255
172 206 255
172 206 255
172 206 255
172 206 255
172 206 255
173 206 255
173 206 255
173 206 255
173 206 255
173 206 255
173 206 255
173 206 255
173 206 255
173 206 255
173 206 255
173 206 255
173 206 255
173 206 255
173 206 255
174 206 255
174 206 255
174 206 255
174 206 255
174 206 255
174 207 255
174 207 255
174 207 255
174 207 255
174 207 255
174 207 255
174 207 255
174 207 255
174 207 255
174 207 255
175 207 255
175 207 255
174 207 255
174 207 255
174 207 255
174 207 255
174 207 255
174 207 255
174 207 255
174 207 255
174 207 255
174 207 255
174 206 255
174 206 255
174 206 255
174 206 255
174 206 255
174 206 255
173 206 255
173 206 255
173 206 255
173 206 255
173 206 255
173 206 255
173 206 255
173 206 255
173 206 255
173 206 255
173 206 255
173 206 255
173 206 255
173 206 255
172 206 255
172 206 255
172 206 255
172 206 255
172 206 255
172 205 255
172 205 255
172 205 255
172 205 255
172 205 255
172 205 255
172 205 255
172 205 255
172 205 255
171 205 255
171 205 255
171 205 255
171 205 255
171 205 255
171 205 255
171 205 255
171 205 255
171 205 255
171 205 255
171 205 255
171 205 255
171 205 255
170 204 255
170 204 255
170 204 255
170 204 255
170 204 255
170 204 255
170 204 255
170 204 255
170 204 255
170 204 255
170 204 255
169 204 255
169 204 255
169 204 255
169 204 255
169 204 255
169 204 255
169 204 255
169 204 255
169 203 255
169 203 255
169 203 255
169 203 255
168 203 255
168 203 255
168 203 255
168 203 255
168 203 255
168 203 255
168 203 255
168 203 255
168 203 255
168 203 255
168 203 255
167 203 255
167 203 255
167 203 255
167 202 255
167 202 255
167 202 255
167 202 255
167 202 255
167 202 255
167 202 255
167 202 255
166 202 255
166 202 255
166 202 255
166 202 255
166 202 255
166 202 255
166 202 255
166 202 255
166 202 255
166 202 255
165 201 255
165 201 255
165 201 255
165 201 255
165 201 255
165 201 255
165 201 255
165 201 255
165 201 255
165 201 255
165 201 255
164 201 255
164 201 255
164 201 255
164 201 255
164 201 255
164 201 255
164 201 255
164 201 255
164 200 255
164 200 255
164 200 255
164 200 255
163 200 255
163 200 255
163 200 255
163 200 255
163 200 255
163 200 255
163 200 255
163 200 255
163 200 255
163 200 255
163 200 255
163 200 255
162 200 255
162 200 255
162 200 255
162 200 255
162 199 255
162 199 255
162 199 255
162 199 255
162 199 255
162 199 255
162 199 255
162 199 255
162 199 255
162 199 255
161 199 255
161 199 255
161 199 255
161 199 255
161 199 255
161 199 255
161 199 255
161 199 255
161 199 255
161 199 255
161 199 255
161 199 255
161 199 255
161 199 255
161 199 255
161 199 255
161 199 255
161 199 255
155 187 241
138 142 182
117 91 115
109 68 89
102 56 72
107 57 69
109 58 73
110 58 72
107 58 75
105 57 73
106 57 72
106 57 70
107 57 70
110 58 70
109 58 67
110 58 72
105 57 70
108 58 73
110 58 72
107 57 72
109 58 72
109 58 69
106 57 73
108 58 69
107 57 72
109 58 72
108 58 73
107 57 72
108 58 72
108 58 73
105 57 70
104 57 72
109 58 73
110 68 81
125 105 133
138 134 173
154 184 235
161 199 255
161 199 255
161 199 255
161 199 255
161 199 255
161 199 255
161 199 255
161 199 255
161 199 255
161 199 255
161 199 255
161 199 255
161 199 255
161 199 255
161 199 255
161 199 255
161 199 255
161 199 255
162 199 255
162 199 255
162 199 255
162 199 255
162 199 255
162 199 255
162 199 255
162 199 255
162 199 255
162 199 255
162 200 255
162 200 255
162 200 255
162 200 255
162 200 255
163 200 255
163 200 255
163 200 255
163 200 255
163 200 255
163 200 255
163 200 255
163 200 255
163 200 255
163 200 255
163 200 255
163 200 255
164 200 255
164 200 255
164 200 255
164 201 255
164 201 255
164 201 255
164 201 255
164 201 255
164 201 255
164 201 255
164 201 255
165 201 255
165 201 255
165 201 255
165 201 255
165 201 255
165 201 255
165 201 255
165 201 255
165 201 255
165 201 255
165 201 255
166 202 255
166 202 255
166 202 255
166 202 255
166 202 255
166 202 255
166 202 255
166 202 255
166 202 255
166 202 255
167 202 255
167 202 255
167 202 255
167 202 255
167 202 255
167 202 255
167 202 255
167 202 255
167 203 255
167 203 255
167 203 255
168 203 255
168 203 255
168 203 255
168 203 255
168 203 255
168 203 255
168 203 255
168 203 255
168 203 255
168 203 255
168 203 255
169 203 255
169 203 255
169 203 255
169 203 255
169 204 255
169 204 255
169 204 255
169 204 255
169 204 255
169 204 255
169 204 255
169 204 255
170 204 255
170 204 255
170 204 255
170 204 255
170 204 255
170 204 255
170 204 255
170 204 255
170 204 255
170 204 255
170 204 255
170 204 255
171 205 255
171 205 255
171 205 255
171 205 255
171 205 255
171 205 255
171 205 255
171 205 255
171 205 255
171 205 255
171 205 255
171 205 255
172 205 255
172 205 255
172 205 255
172 205 255
172 205 255
172 205 255
172 205 255
172 205 255
172 205 255
172 206 255
172 206 255
172 206 255
172 206 255
172 206 255
173 206 255
173 206 255
173 206 255
173 206 255
173 206 255
173 206 255
173 206 255
173 206 255
173 206 255
173 206 255
173 206 255
173 206 255
173 206 255
173 206 255
174 206 255
174 206 255
174 206 255
174 206 255
174 206 255
174 206 255
174 207 255
174 207 255
174 207 255
174 207 255
174 207 255
174 207 255
174 207 255
174 207 255
174 207 255
174 207 255
175 207 255
175 207 255
175 207 255
175 207 255
175 207 255
175 207 255
175 207 255
175 207 255
175 207 255
174 207 255
174 207 255
174 207 255
174 207 255
174 207 255
174 207 255
174 207 255
174 207 255
174 207 255
174 207 255
174 207 255
174 206 255
174 206 255
174 206 255
174 206 255
174 206 255
173 206 255
173 206 255
173 206 255
173 206 255
173 206 255
173 206 255
173 206 255
173 206 255
173 206 255
173 206 255
173 206 255
173 206 255
173 206 255
173 206 255
172 206 255
172 206 255
172 206 255
172 206 255
172 206 255
172 205 255
172 205 255
172 205 255
172 205 255
172 205 255
172 205 255
172 205 255
172 205 255
172 205 255
171 205 255
171 205 255
171 205 255
171 205 255
171 205 255
171 205 255
171 205 255
171 205 255
171 205 255
171 205 255
171 205 255
171 205 255
170 204 255
170 204 255
170 204 255
170 204 255
170 204 255
170 204 255
170 204 255
170 204 255
170 204 255
170 204 255
170 204 255
170 204 255
169 204 255
169 204 255
169 204 255
169 204 255
169 204 255
169 204 255
169 204 255
169 204 255
169 203 255
169 203 255
169 203 255
168 203 255
168 203 255
168 203 255
168 203 255
168 203 255
168 203 255
168 203 255
168 203 255
168 203 255
168 203 255
168 203 255
167 203 255
167 203 255
167 203 255
167 203 255
167 202 255
167 202 255
167 202 255
167 202 255
167 202 255
167 202 255
167 202 255
166 202 255
166 202 255
166 202 255
166 202 255
166 202 255
166 202 255
166 202 255
166 202 255
166 202 255
166 202 255
166 202 255
165 201 255
165 201 255
165 201 255
165 201 255
165 201 255
165 201 255
165 201 255
165 201 255
165 201 255
165 201 255
165 201 255
164 201 255
164 201 255
164 201 255
164 201 255
164 201 255
164 201 255
164 201 255
164 201 255
164 200 255
164 200 255
164 200 255
164 200 255
163 200 255
163 200 255
163 200 255
163 200 255
163 200 255
163 200 255
163 200 255
163 200 255
163 200 255
163 200 255
163 200 255
163 200 255
163 200 255
162 200 255
162 200 255
162 200 255
162 200 255
162 200 255
162 199 255
162 199 255
162 199 255
162 199 255
162 199 255
162 199 255
162 199 255
162 199 255
162 199 255
162 199 255
161 199 255
161 199 255
161 199 255
161 199 255
161 199 255
161 199 255
161 199 255
161 199 255
161 199 255
151 173 223
132 128 163
111 71 88
104 57 70
107 58 75
109 58 70
108 58 70
106 57 70
107 57 73
104 57 72
110 58 72
108 58 69
111 58 72
107 58 73
108 58 70
104 57 70
112 59 76
105 57 70
107 57 66
110 58 69
105 57 67
110 58 70
104 56 69
104 57 72
109 58 69
106 57 67
110 58 73
105 57 72
108 58 70
105 57 69
107 58 75
109 58 73
107 57 67
106 57 66
104 57 70
106 57 69
109 58 70
107 57 70
103 56 64
110 58 73
122 95 123
136 134 172
149 168 216
161 199 255
161 199 255
161 199 255
161 199 255
161 199 255
161 199 255
161 199 255
161 199 255
162 199 255
162 199 255
162 199 255
162 199 255
162 199 255
162 199 255
162 199 255
162 199 255
162 199 255
162 199 255
162 199 255
162 200 255
162 200 255
162 200 255
162 200 255
162 200 255
163 200 255
163 200 255
163 200 255
163 200 255
163 200 255
163 200 255
163 200 255
163 200 255
163 200 255
163 200 255
163 200 255
163 200 255
163 200 255
164 200 255
164 200 255
164 200 255
164 200 255
164 200 255
164 201 255
164 201 255
164 201 255
164 201 255
164 201 255
164 201 255
164 201 255
165 201 255
165 201 255
165 201 255
165 201 255
165 201 255
165 201 255
165 201 255
165 201 255
165 201 255
165 201 255
165 201 255
166 202 255
166 202 255
166 202 255
166 202 255
166 202 255
166 202 255
166 202 255
166 202 255
166 202 255
166 202 255
166 202 255
167 202 255
167 202 255
167 202 255
167 202 255
167 202 255
167 202 255
167 202 255
167 203 255
167 203 255
167 203 255
167 203 255
168 203 255
168 203 255
168 203 255
168 203 255
168 203 255
168 203 255
168 203 255
168 203 255
168 203 255
168 203 255
168 203 255
169 203 255
169 203 255
169 203 255
169 204 255
169 204 255
169 204 255
169 204 255
169 204 255
169 204 255
169 204 255
169 204 255
170 204 255
170 204 255
170 204 255
170 204 255
170 204 255
170 204 255
170 204 255
170 204 255
170 204 255
170 204 255
170 204 255
170 204 255
171 205 255
171 205 255
171 205 255
171 205 255
171 205 255
171 205 255
171 205 255
171 205 255
171 205 255
171 205 255
171 205 255
171 205 255
172 205 255
172 205 255
172 205 255
172 205 255
172 205 255
172 205 255
172 205 255
172 205 255
172 205 255
172 205 255
172 206 255
172 206 255
172 206 255
172 206 255
173 206 255
173 206 255
173 206 255
173 206 255
173 206 255
173 206 255
173 206 255
173 206 255
173 206 255
173 206 255
173 206 255
173 206 255
173 206 255
173 206 255
174 206 255
174 206 255
174 206 255
174 206 255
174 206 255
174 207 255
174 207 255
174 207 255
174 207 255
174 207 255
174 207 255
174 207 255
174 207 255
174 207 255
174 207 255
174 207 255
175 207 255
175 207 255
175 207 255
175 207 255
175 207 255
175 207 255
175 207 255
175 207 255
175 207 255
175 207 255
175 207 255
175 207 255
175 207 255
175 207 255
175 207 255
175 207 255
175 207 255
174 207 255
174 207 255
174 207 255
174 207 255
174 207 255
174 207 255
174 207 255
174 207 255
174 207 255
174 207 255
174 207 255
174 206 255
174 206 255
174 206 255
174 206 255
174 206 255
173 206 255
173 206 255
173 206 255
173 206 255
173 206 255
173 206 255
173 206 255
173 206 255
173 206 255
173 206 255
173 206 255
173 206 255
173 206 255
173 206 255
172 206 255
172 206 255
172 206 255
172 206 255
172 205 255
172 205 255
172 205 255
172 205 255
172 205 255
172 205 255
172 205 255
172 205 255
172 205 255
172 205 255
171 205 255
171 205 255
171 205 255
171 205 255
171 205 255
171 205 255
171 205 255
171 205 255
171 205 255
171 205 255
171 205 255
171 205 255
170 204 255
170 204 255
170 204 255
170 204 255
170 204 255
170 204 255
170 204 255
170 204 255
170 204 255
170 204 255
170 204 255
170 204 255
169 204 255
169 204 255
169 204 255
169 204 255
169 204 255
169 204 255
169 204 255
169 203 255
169 203 255
169 203 255
169 203 255
168 203 255
168 203 255
168 203 255
168 203 255
168 203 255
168 203 255
168 203 255
168 203 255
168 203 255
168 203 255
168 203 255
167 203 255
167 203 255
167 203 255
167 203 255
167 202 255
167 202 255
167 202 255
167 202 255
167 202 255
167 202 255
167 202 255
166 202 255
166 202 255
166 202 255
166 202 255
166 202 255
166 202 255
166 202 255
166 202 255
166 202 255
166 202 255
166 202 255
165 201 255
165 201 255
165 201 255
165 201 255
165 201 255
165 201 255
165 201 255
165 201 255
165 201 255
165 201 255
165 201 255
164 201 255
164 201 255
164 201 255
164 201 255
164 201 255
164 201 255
164 201 255
164 201 255
164 200 255
164 200 255
164 200 255
164 200 255
164 200 255
163 200 255
163 200 255
163 200 255
163 200 255
163 200 255
163 200 255
163 200 255
163 200 255
163 200 255
163 200 255
163 200 255
163 200 255
163 200 255
162 200 255
162 200 255
162 200 255
162 200 255
162 200 255
162 200 255
162 199 255
162 199 255
162 199 255
162 199 255
162 199 255
162 199 255
162 199 255
162 199 255
162 199 255
162 199 255
157 188 240
136 134 172
112 74 95
104 57 72
107 57 70
105 57 70
107 57 66
107 57 72
108 58 72
109 58 69
105 57 69
109 58 69
111 58 70
104 57 72
106 57 64
106 57 69
106 57 69
106 57 73
108 57 66
109 58 70
107 57 69
105 57 69
107 58 72
105 57 66
107 57 67
105 57 67
111 59 72
109 57 70
106 57 73
107 57 67
105 57 69
110 58 70
108 57 67
107 57 72
108 57 64
104 57 70
109 58 67
106 57 62
107 57 67
107 57 72
105 57 70
107 58 73
105 56 67
108 57 66
108 58 72
107 58 72
115 72 90
141 145 187
157 188 241
162 199 255
162 199 255
162 199 255
162 199 255
162 199 255
162 199 255
162 199 255
162 199 255
162 199 255
162 199 255
162 200 255
162 200 255
162 200 255
162 200 255
162 200 255
163 200 255
163 200 255
163 200 255
163 200 255
163 200 255
163 200 255
163 200 255
163 200 255
163 200 255
163 200 255
163 200 255
163 200 255
163 200 255
163 200 255
163 200 255
164 200 255
164 200 255
164 200 255
164 200 255
164 201 255
164 201 255
164 201 255
164 201 255
164 201 255
164 201 255
164 201 255
164 201 255
165 201 255
165 201 255
165 201 255
165 201 255
165 201 255
165 201 255
165 201 255
165 201 255
165 201 255
165 201 255
165 201 255
166 202 255
166 202 255
166 202 255
166 202 255
166 202 255
166 202 255
166 202 255
166 202 255
166 202 255
166 202 255
166 202 255
167 202 255
167 202 255
167 202 255
167 202 255
167 202 255
167 202 255
167 202 255
167 203 255
167 203 255
167 203 255
167 203 255
168 203 255
168 203 255
168 203 255
168 203 255
168 203 255
168 203 255
168 203 255
168 203 255
168 203 255
168 203 255
168 203 255
169 203 255
169 203 255
169 203 255
169 203 255
169 204 255
169 204 255
169 204 255
169 204 255
169 204 255
169 204 255
169 204 255
170 204 255
170 204 255
170 204 255
170 204 255
170 204 255
170 204 255
170 204 255
170 204 255
170 204 255
170 204 255
170 204 255
170 204 255
171 205 255
171 205 255
171 205 255
171 205 255
171 205 255
171 205 255
171 205 255
171 205 255
171 205 255
171 205 255
171 205 255
171 205 255
171 205 255
172 205 255
172 205 255
172 205 255
172 205 255
172 205 255
172 205 255
172 205 255
172 205 255
172 206 255
172 206 255
172 206 255
172 206 255
172 206 255
173 206 255
173 206 255
173 206 255
173 206 255
173 206 255
173 206 255
173 206 255
173 206 255
173 206 255
173 206 255
173 206 255
173 206 255
173 206 255
173 206 255
174 206 255
174 206 255
174 206 255
174 206 255
174 206 255
174 207 255
174 207 255
174 207 255
174 207 255
174 207 255
174 207 255
174 207 255
174 207 255
174 207 255
174 207 255
174 207 255
175 207 255
175 207 255
175 207 255
175 207 255
175 207 255
175 207 255
175 207 255
175 207 255
175 207 255
175 207 255
175 207 255
175 207 255
175 207 255
175 207 255
175 207 255
175 207 255
175 207 255
175 207 255
175 207 255
175 207 255
175 207 255
175 207 255
175 207 255
175 207 255
175 207 255
174 207 255
174 207 255
174 207 255
174 207 255
174 207 255
174 207 255
174 207 255
174 207 255
174 207 255
174 207 255
174 207 255
174 206 255
174 206 255
174 206 255
174 206 255
174 206 255
173 206 255
173 206 255
173 206 255
173 206 255
173 206 255
173 206 255
173 206 255
173 206 255
173 206 255
173 206 255
173 206 255
173 206 255
173 206 255
173 206 255
172 206 255
172 206 255
172 206 255
172 206 255
172 206 255
172 205 255
172 205 255
172 205 255
172 205 255
172 205 255
172 205 255
172 205 255
172 205 255
171 205 255
171 205 255
171 205 255
171 205 255
171 205 255
171 205 255
171 205 255
171 205 255
171 205 255
171 205 255
171 205 255
171 205 255
171 205 255
170 204 255
170 204 255
170 204 255
170 204 255
170 204 255
170 204 255
170 204 255
170 204 255
170 204 255
170 204 255
170 204 255
170 204 255
169 204 255
169 204 255
169 204 255
169 204 255
169 204 255
169 204 255
169 204 255
169 203 255
169 203 255
169 203 255
169 203 255
168 203 255
168 203 255
168 203 255
168 203 255
168 203 255
168 203 255
168 203 255
168 203 255
168 203 255
168 203 255
168 203 255
167 203 255
167 203 255
167 203 255
167 202 255
167 202 255
167 202 255
167 202 255
167 202 255
167 202 255
167 202 255
167 202 255
166 202 255
166 202 255
166 202 255
166 202 255
166 202 255
166 202 255
166 202 255
166 202 255
166 202 255
166 202 255
166 202 255
165 201 255
165 201 255
165 201 255
165 201 255
165 201 255
165 201 255
165 201 255
165 201 255
165 201 255
165 201 255
165 201 255
165 201 255
164 201 255
164 201 255
164 201 255
164 201 255
164 201 255
164 201 255
164 201 255
164 201 255
164 200 255
164 200 255
164 200 255
164 200 255
163 200 255
163 200 255
163 200 255
163 200 255
163 200 255
163 200 255
163 200 255
163 200 255
163 200 255
163 200 255
163 200 255
163 200 255
163 200 255
163 200 255
163 200 255
162 200 255
162 200 255
162 200 255
162 200 255
162 200 255
162 200 255
162 199 255
162 199 255
150 166 212
128 111 138
109 61 75
107 57 69
108 58 73
109 57 69
106 57 66
110 58 66
110 58 72
107 57 70
106 58 75
106 57 73
108 57 67
107 58 72
102 56 66
102 56 64
105 57 67
106 57 64
107 57 66
104 56 64
109 58 67
107 57 70
105 57 66
111 58 72
107 57 70
106 57 72
109 58 67
106 57 67
105 57 70
106 57 62
106 57 66
103 56 69
105 56 64
104 56 69
104 56 66
110 58 70
109 57 66
108 58 69
104 56 64
108 58 70
107 57 66
106 57 69
107 58 73
105 57 70
105 57 67
110 58 72
106 57 70
107 57 64
109 58 69
105 57 73
108 60 75
125 103 131
150 171 217
162 199 255
162 200 255
162 200 255
162 200 255
162 200 255
162 200 255
162 200 255
163 200 255
163 200 255
163 200 255
163 200 255
163 200 255
163 200 255
163 200 255
163 200 255
163 200 255
163 200 255
163 200 255
163 200 255
163 200 255
163 200 255
163 200 255
163 200 255
164 200 255
164 200 255
164 200 255
164 200 255
164 201 255
164 201 255
164 201 255
164 201 255
164 201 255
164 201 255
164 201 255
164 201 255
165 201 255
165 201 255
165 201 255
165 201 255
165 201 255
165 201 255
165 201 255
165 201 255
165 201 255
165 201 255
165 201 255
165 201 255
166 202 255
166 202 255
166 202 255
166 202 255
166 202 255
166 202 255
166 202 255
166 202 255
166 202 255
166 202 255
166 202 255
167 202 255
167 202 255
167 202 255
167 202 255
167 202 255
167 202 255
167 202 255
167 203 255
167 203 255
167 203 255
167 203 255
168 203 255
168 203 255
168 203 255
168 203 255
168 203 255
168 203 255
168 203 255
168 203 255
168 203 255
168 203 255
168 203 255
169 203 255
169 203 255
169 203 255
169 203 255
169 204 255
169 204 255
169 204 255
169 204 255
169 204 255
169 204 255
169 204 255
169 204 255
170 204 255
170 204 255
170 204 255
170 204 255
170 204 255
170 204 255
170 204 255
170 204 255
170 204 255
170 204 255
170 204 255
171 205 255
171 205 255
171 205 255
171 205 255
171 205 255
171 205 255
171 205 255
171 205 255
171 205 255
171 205 255
171 205 255
171 205 255
171 205 255
172 205 255
172 205 255
172 205 255
172 205 255
172 205 255
172 205 255
172 205 255
172 205 255
172 206 255
172 206 255
172 206 255
172 206 255
172 206 255
173 206 255
173 206 255
173 206 255
173 206 255
173 206 255
173 206 255
173 206 255
173 206 255
173 206 255
173 206 255
173 206 255
173 206 255
173 206 255
173 206 255
174 206 255
174 206 255
174 206 255
174 206 255
174 206 255
174 207 255
174 207 255
174 207 255
174 207 255
174 207 255
174 207 255
174 207 255
174 207 255
174 207 255
174 207 255
174 207 255
175 207 255
175 207 255
175 207 255
175 207 255
175 207 255
175 207 255
175 207 255
175 207 255
175 207 255
175 207 255
175 207 255
175 207 255
175 207 255
175 207 255
175 207 255
176 208 255
176 208 255
176 208 255
175 207 255
175 207 255
175 207 255
175 207 255
175 207 255
175 207 255
175 207 255
175 207 255
175 207 255
175 207 255
175 207 255
175 207 255
175 207 255
175 207 255
175 207 255
175 207 255
174 207 255
174 207 255
174 207 255
174 207 255
174 207 255
174 207 255
174 207 255
174 207 255
174 207 255
174 207 255
174 206 255
174 206 255
174 206 255
174 206 255
174 206 255
173 206 255
173 206 255
173 206 255
173 206 255
173 206 255
173 206 255
173 206 255
173 206 255
173 206 255
173 206 255
173 206 255
173 206 255
173 206 255
173 206 255
172 206 255
172 206 255
172 206 255
172 206 255
172 205 255
172 205 255
172 205 255
172 205 255
172 205 255
172 205 255
172 205 255
172 205 255
172 205 255
171 205 255
171 205 255
171 205 255
171 205 255
171 205 255
171 205 255
171 205 255
171 205 255
171 205 255
171 205 255
171 205 255
171 205 255
171 205 255
170 204 255
170 204 255
170 204 255
170 204 255
170 204 255
170 204 255
170 204 255
170 204 255
170 204 255
170 204 255
170 204 255
169 204 255
169 204 255
169 204 255
169 204 255
169 204 255
169 204 255
169 204 255
169 204 255
169 203 255
169 203 255
169 203 255
169 203 255
168 203 255
168 203 255
168 203 255
168 203 255
168 203 255
168 203 255
168 203 255
168 203 255
168 203 255
168 203 255
168 203 255
167 203 255
167 203 255
167 203 255
167 203 255
167 202 255
167 202 255
167 202 255
167 202 255
167 202 255
167 202 255
167 202 255
166 202 255
166 202 255
166 202 255
166 202 255
166 202 255
166 202 255
166 202 255
166 202 255
166 202 255
166 202 255
166 202 255
165 201 255
165 201 255
165 201 255
165 201 255
165 201 255
165 201 255
165 201 255
165 201 255
165 201 255
165 201 255
165 201 255
165 201 255
164 201 255
164 201 255
164 201 255
164 201 255
164 201 255
164 201 255
164 201 255
164 201 255
164 201 255
164 200 255
164 200 255
164 200 255
164 200 255
164 200 255
163 200 255
163 200 255
163 200 255
163 200 255
163 200 255
163 200 255
163 200 255
163 200 255
163 200 255
163 200 255
163 200 255
163 200 255
163 200 255
163 200 255
163 200 255
144 152 195
118 88 111
109 58 72
107 57 67
104 56 64
102 56 69
113 59 76
108 57 69
106 56 67
106 57 66
106 57 64
107 57 70
106 56 69
105 56 64
105 57 66
109 58 69
105 56 61
105 56 64
110 58 72
113 59 72
108 57 66
109 58 67
106 57 67
104 56 61
107 57 67
108 57 69
107 57 69
106 57 66
107 57 67
106 57 69
109 58 67
111 58 69
103 56 67
104 57 69
107 57 69
109 58 69
107 57 69
110 58 72
112 59 73
109 58 70
108 57 69
104 56 64
107 57 66
108 58 72
103 56 67
108 57 67
109 58 70
107 57 64
102 56 69
108 58 70
106 57 67
107 57 62
107 57 70
108 57 69
107 58 73
113 74 87
150 169 216
163 200 255
163 200 255
163 200 255
163 200 255
163 200 255
163 200 255
163 200 255
163 200 255
163 200 255
163 200 255
163 200 255
163 200 255
163 200 255
163 200 255
163 200 255
164 200 255
164 200 255
164 200 255
164 200 255
164 200 255
164 201 255
164 201 255
164 201 255
164 201 255
164 201 255
164 201 255
164 201 255
164 201 255
164 201 255
165 201 255
165 201 255
165 201 255
165 201 255
165 201 255
165 201 255
165 201 255
165 201 255
165 201 255
165 201 255
165 201 255
165 201 255
166 202 255
166 202 255
166 202 255
166 202 255
166 202 255
166 202 255
166 202 255
166 202 255
166 202 255
166 202 255
166 202 255
167 202 255
167 202 255
167 202 255
167 202 255
167 202 255
167 202 255
167 202 255
167 202 255
167 203 255
167 203 255
167 203 255
168 203 255
168 203 255
168 203 255
168 203 255
168 203 255
168 203 255
168 203 255
168 203 255
168 203 255
168 203 255
168 203 255
169 203 255
169 203 255
169 203 255
169 203 255
169 204 255
169 204 255
169 204 255
169 204 255
169 204 255
169 204 255
169 204 255
169 204 255
170 204 255
170 204 255
170 204 255
170 204 255
170 204 255
170 204 255
170 204 255
170 204 255
170 204 255
170 204 255
170 204 255
170 204 255
171 205 255
171 205 255
171 205 255
171 205 255
171 205 255
171 205 255
171 205 255
171 205 255
171 205 255
171 205 255
171 205 255
171 205 255
172 205 255
172 205 255
172 205 255
172 205 255
172 205 255
172 205 255
172 205 255
172 205 255
172 205 255
172 206 255
172 206 255
172 206 255
172 206 255
173 206 255
173 206 255
173 206 255
173 206 255
173 206 255
173 206 255
173 206 255
173 206 255
173 206 255
173 206 255
173 206 255
173 206 255
173 206 255
173 206 255
174 206 255
174 206 255
174 206 255
174 206 255
174 206 255
174 207 255
174 207 255
174 207 255
174 207 255
174 207 255
174 207 255
174 207 255
174 207 255
174 207 255
174 207 255
175 207 255
175 207 255
175 207 255
175 207 255
175 207 255
175 207 255
175 207 255
175 207 255
175 207 255
175 207 255
175 207 255
175 207 255
175 207 255
175 207 255
175 207 255
175 207 255
175 207 255
176 208 255
176 208 255
176 208 255
176 208 255
176 208 255
176 208 255
176 208 255
176 208 255
176 208 255
175 207 255
175 207 255
175 207 255
175 207 255
175 207 255
175 207 255
175 207 255
175 207 255
175 207 255
175 207 255
175 207 255
175 207 255
175 207 255
175 207 255
175 207 255
175 207 255
175 207 255
174 207 255
174 207 255
174 207 255
174 207 255
174 207 255
174 207 255
174 207 255
174 207 255
174 207 255
174 207 255
174 206 255
174 206 255
174 206 255
174 206 255
174 206 255
173 206 255
173 206 255
173 206 255
173 206 255
173 206 255
173 206 255
173 206 255
173 206 255
173 206 255
173 206 255
173 206 255
173 206 255
173 206 255
173 206 255
172 206 255
172 206 255
172 206 255
172 206 255
172 205 255
172 205 255
172 205 255
172 205 255
172 205 255
172 205 255
172 205 255
172 205 255
172 205 255
171 205 255
171 205 255
171 205 255
171 205 255
171 205 255
171 205 255
171 205 255
171 205 255
171 205 255
171 205 255
171 205 255
171 205 255
171 205 255
170 204 255
170 204 255
170 204 255
170 204 255
170 204 255
170 204 255
170 204 255
170 204 255
170 204 255
170 204 255
170 204 255
169 204 255
169 204 255
169 204 255
169 204 255
169 204 255
169 204 255
169 204 255
169 204 255
169 203 255
169 203 255
169 203 255
169 203 255
168 203 255
168 203 255
168 203 255
168 203 255
168 203 255
168 203 255
168 203 255
168 203 255
168 203 255
168 203 255
168 203 255
167 203 255
167 203 255
167 203 255
167 203 255
167 202 255
167 202 255
167 202 255
167 202 255
167 202 255
167 202 255
167 202 255
166 202 255
166 202 255
166 202 255
166 202 255
166 202 255
166 202 255
166 202 255
166 202 255
166 202 255
166 202 255
166 202 255
166 202 255
165 201 255
165 201 255
165 201 255
165 201 255
165 201 255
165 201 255
165 201 255
165 201 255
165 201 255
165 201 255
165 201 255
165 201 255
164 201 255
164 201 255
164 201 255
164 201 255
164 201 255
164 201 255
164 201 255
164 201 255
164 201 255
164 201 255
164 200 255
164 200 255
164 200 255
164 200 255
164 200 255
163 200 255
163 200 255
163 200 255
163 200 255
163 200 255
163 200 255
163 200 255
139 142 181
114 82 99
108 58 73
107 57 70
108 58 72
108 57 67
106 57 70
105 57 67
106 57 72
109 58 73
105 56 61
106 57 64
109 58 73
101 55 66
106 56 64
105 57 72
107 57 69
106 57 69
106 56 66
106 57 70
112 59 72
106 57 67
108 57 66
106 56 61
103 56 62
108 58 70
106 57 66
107 57 66
109 58 72
108 57 67
109 58 70
107 57 67
110 58 67
107 57 61
107 57 66
104 56 62
110 58 66
107 57 67
109 58 67
108 57 66
106 57 69
105 57 67
108 57 64
105 57 69
110 58 75
108 57 69
108 57 72
109 58 72
101 54 59
104 57 69
110 58 69
111 58 70
107 58 72
110 58 72
105 56 64
108 58 70
111 58 72
102 56 66
107 57 70
122 92 110
137 135 173
163 200 255
163 200 255
163 200 255
163 200 255
163 200 255
163 200 255
163 200 255
164 200 255
164 200 255
164 200 255
164 200 255
164 200 255
164 200 255
164 201 255
164 201 255
164 201 255
164 201 255
164 201 255
164 201 255
164 201 255
164 201 255
164 201 255
165 201 255
165 201 255
165 201 255
165 201 255
165 201 255
165 201 255
165 201 255
165 201 255
165 201 255
165 201 255
165 201 255
165 201 255
165 201 255
166 202 255
166 202 255
166 202 255
166 202 255
166 202 255
166 202 255
166 202 255
166 202 255
166 202 255
166 202 255
166 202 255
167 202 255
167 202 255
167 202 255
167 202 255
167 202 255
167 202 255
167 202 255
167 202 255
167 203 255
167 203 255
167 203 255
167 203 255
168 203 255
168 203 255
168 203 255
168 203 255
168 203 255
168 203 255
168 203 255
168 203 255
168 203 255
168 203 255
169 203 255
169 203 255
169 203 255
169 203 255
169 204 255
169 204 255
169 204 255
169 204 255
169 204 255
169 204 255
169 204 255
169 204 255
170 204 255
170 204 255
170 204 255
170 204 255
170 204 255
170 204 255
170 204 255
170 204 255
170 204 255
170 204 255
170 204 255
170 204 255
171 205 255
171 205 255
171 205 255
171 205 255
171 205 255
171 205 255
171 205 255
171 205 255
171 205 255
171 205 255
171 205 255
171 205 255
172 205 255
172 205 255
172 205 255
172 205 255
172 205 255
172 205 255
172 205 255
172 205 255
172 205 255
172 206 255
172 206 255
172 206 255
172 206 255
173 206 255
173 206 255
173 206 255
173 206 255
173 206 255
173 206 255
173 206 255
173 206 255
173 206 255
173 206 255
173 206 255
173 206 255
173 206 255
173 206 255
174 206 255
174 206 255
174 206 255
174 206 255
174 206 255
174 207 255
174 207 255
174 207 255
174 207 255
174 207 255
174 207 255
174 207 255
174 207 255
174 207 255
174 207 255
175 207 255
175 207 255
175 207 255
175 207 255
175 207 255
175 207 255
175 207 255
175 207 255
175 207 255
175 207 255
175 207 255
175 207 255
175 207 255
175 207 255
175 207 255
175 207 255
175 207 255
176 208 255
176 208 255
176 208 255
176 208 255
176 208 255
176 208 255
176 208 255
176 208 255
176 208 255
176 208 255
176 208 255
176 208 255
176 208 255
176 208 255
176 208 255
176 208 255
176 208 255
176 208 255
175 207 255
175 207 255
175 207 255
175 207 255
175 207 255
175 207 255
175 207 255
175 207 255
175 207 255
175 207 255
175 207 255
175 207 255
175 207 255
175 207 255
175 207 255
175 207 255
175 207 255
174 207 255
174 207 255
174 207 255
174 207 255
174 207 255
174 207 255
174 207 255
174 207 255
174 207 255
174 206 255
174 206 255
174 206 255
174 206 255
174 206 255
173 206 255
173 206 255
173 206 255
173 206 255
173 206 255
173 206 255
173 206 255
173 206 255
173 206 255
173 206 255
173 206 255
173 206 255
173 206 255
173 206 255
172 206 255
172 206 255
172 206 255
172 206 255
172 205 255
172 205 255
172 205 255
172 205 255
172 205 255
172 205 255
172 205 255
172 205 255
172 205 255
171 205 255
171 205 255
171 205 255
171 205 255
171 205 255
171 205 255
171 205 255
171 205 255
171 205 255
171 205 255
171 205 255
171 205 255
170 204 255
170 204 255
170 204 255
170 204 255
170 204 255
170 204 255
170 204 255
170 204 255
170 204 255
170 204 255
170 204 255
170 204 255
169 204 255
169 204 255
169 204 255
169 204 255
169 204 255
169 204 255
169 204 255
169 204 255
169 203 255
169 203 255
169 203 255
168 203 255
168 203 255
168 203 255
168 203 255
168 203 255
168 203 255
168 203 255
168 203 255
168 203 255
168 203 255
168 203 255
168 203 255
167 203 255
167 203 255
167 203 255
167 203 255
167 202 255
167 202 255
167 202 255
167 202 255
167 202 255
167 202 255
167 202 255
167 202 255
166 202 255
166 202 255
166 202 255
166 202 255
166 202 255
166 202 255
166 202 255
166 202 255
166 202 255
166 202 255
166 202 255
166 202 255
165 201 255
165 201 255
165 201 255
165 201 255
165 201 255
165 201 255
165 201 255
165 201 255
165 201 255
165 201 255
165 201 255
165 201 255
164 201 255
164 201 255
164 201 255
164 201 255
164 201 255
164 201 255
164 201 255
164 201 255
164 201 255
164 201 255
164 201 255
164 200 255
164 200 255
164 200 255
164 200 255
151 171 217
128 106 131
103 56 62
103 56 69
108 58 70
107 57 69
105 57 67
107 57 61
105 56 66
108 57 67
106 57 67
106 57 64
103 56 61
109 58 67
111 58 69
108 58 70
111 58 69
108 57 64
107 57 70
104 56 64
108 58 75
103 56 62
107 58 72
105 57 66
105 56 62
110 58 62
104 57 70
106 57 67
107 57 69
108 57 69
105 57 69
108 58 72
110 58 69
110 58 73
109 58 69
106 57 67
108 57 64
103 55 59
109 57 64
106 57 64
107 57 62
108 57 67
110 58 69
109 57 62
104 56 61
104 56 66
109 58 67
105 56 58
104 56 66
105 56 66
108 58 70
111 58 67
112 59 69
105 56 64
108 58 73
108 57 67
105 56 64
108 57 69
108 57 69
104 56 66
108 58 73
103 56 67
108 58 70
120 91 112
144 154 194
164 200 255
164 200 255
164 200 255
164 200 255
164 201 255
164 201 255
164 201 255
164 201 255
164 201 255
164 201 255
164 201 255
164 201 255
164 201 255
164 201 255
165 201 255
165 201 255
165 201 255
165 201 255
165 201 255
165 201 255
165 201 255
165 201 255
165 201 255
165 201 255
165 201 255
165 201 255
165 201 255
165 201 255
166 202 255
166 202 255
166 202 255
166 202 255
166 202 255
166 202 255
166 202 255
166 202 255
166 202 255
166 202 255
166 202 255
167 202 255
167 202 255
167 202 255
167 202 255
167 202 255
167 202 255
167 202 255
167 202 255
167 203 255
167 203 255
167 203 255
167 203 255
168 203 255
168 203 255
168 203 255
168 203 255
168 203 255
168 203 255
168 203 255
168 203 255
168 203 255
168 203 255
168 203 255
168 203 255
169 203 255
169 203 255
169 203 255
169 203 255
169 204 255
169 204 255
169 204 255
169 204 255
169 204 255
169 204 255
169 204 255
170 204 255
170 204 255
170 204 255
170 204 255
170 204 255
170 204 255
170 204 255
170 204 255
170 204 255
170 204 255
170 204 255
170 204 255
171 205 255
171 205 255
171 205 255
171 205 255
171 205 255
171 205 255
171 205 255
171 205 255
171 205 255
171 205 255
171 205 255
171 205 255
172 205 255
172 205 255
172 205 255
172 205 255
172 205 255
172 205 255
172 205 255
172 205 255
172 205 255
172 206 255
172 206 255
172 206 255
172 206 255
173 206 255
173 206 255
173 206 255
173 206 255
173 206 255
173 206 255
173 206 255
173 206 255
173 206 255
173 206 255
173 206 255
173 206 255
173 206 255
173 206 255
174 206 255
174 206 255
174 206 255
174 206 255
174 207 255
174 207 255
174 207 255
174 207 255
174 207 255
174 207 255
174 207 255
174 207 255
174 207 255
174 207 255
174 207 255
175 207 255
175 207 255
175 207 255
175 207 255
175 207 255
175 207 255
175 207 255
175 207 255
175 207 255
175 207 255
175 207 255
175 207 255
175 207 255
175 207 255
175 207 255
175 207 255
176 208 255
176 208 255
176 208 255
176 208 255
176 208 255
176 208 255
176 208 255
176 208 255
176 208 255
176 208 255
176 208 255
176 208 255
176 208 255
176 208 255
176 208 255
176 208 255
176 208 255
176 208 255
176 208 255
176 208 255
176 208 255
176 208 255
176 208 255
176 208 255
176 208 255
176 208 255
176 208 255
176 208 255
175 207 255
175 207 255
175 207 255
175 207 255
175 207 255
175 207 255
175 207 255
175 207 255
175 207 255
175 207 255
175 207 255
175 207 255
175 207 255
175 207 255
175 207 255
175 207 255
174 207 255
174 207 255
174 207 255
174 207 255
174 207 255
174 207 255
174 207 255
174 207 255
174 207 255
174 207 255
174 206 255
174 206 255
174 206 255
174 206 255
173 206 255
173 206 255
173 206 255
173 206 255
173 206 255
173 206 255
173 206 255
173 206 255
173 206 255
173 206 255
173 206 255
173 206 255
173 206 255
173 206 255
172 206 255
172 206 255
172 206 255
172 206 255
172 206 255
172 205 255
172 205 255
172 205 255
172 205 255
172 205 255
172 205 255
172 205 255
172 205 255
171 205 255
171 205 255
171 205 255
171 205 255
171 205 255
171 205 255
171 205 255
171 205 255
171 205 255
171 205 255
171 205 255
171 205 255
170 204 255
170 204 255
170 204 255
170 204 255
170 204 255
170 204 255
170 204 255
170 204 255
170 204 255
170 204 255
170 204 255
170 204 255
169 204 255
169 204 255
169 204 255
169 204 255
169 204 255
169 204 255
169 204 255
169 204 255
169 203 255
169 203 255
169 203 255
168 203 255
168 203 255
168 203 255
168 203 255
168 203 255
168 203 255
168 203 255
168 203 255
168 203 255
168 203 255
168 203 255
168 203 255
167 203 255
167 203 255
167 203 255
167 203 255
167 202 255
167 202 255
167 202 255
167 202 255
167 202 255
167 202 255
167 202 255
167 202 255
166 202 255
166 202 255
166 202 255
166 202 255
166 202 255
166 202 255
166 202 255
166 202 255
166 202 255
166 202 255
166 202 255
166 202 255
165 201 255
165 201 255
165 201 255
165 201 255
165 201 255
165 201 255
165 201 255
165 201 255
165 201 255
165 201 255
165 201 255
165 201 255
165 201 255
165 201 255
164 201 255
164 201 255
164 201 255
164 201 255
164 201 255
164 201 255
164 201 255
160 189 241
130 117 148
105 57 70
103 56 64
110 58 70
104 56 66
106 57 66
104 57 69
109 58 67
109 58 75
108 58 69
107 57 67
108 57 64
108 57 64
108 57 66
105 56 62
106 57 66
108 57 66
105 56 62
110 58 67
107 57 70
105 56 62
106 57 69
106 57 72
107 57 66
103 56 62
103 56 64
107 57 66
106 56 56
109 58 69
102 56 66
106 57 66
107 57 69
108 57 64
104 56 64
106 57 62
104 56 62
109 58 69
105 56 64
102 55 61
106 57 70
108 57 66
108 57 67
107 57 67
106 57 66
105 56 62
108 57 66
107 57 69
103 56 66
109 58 67
106 57 64
106 57 64
107 58 76
110 58 66
109 58 70
110 58 70
106 57 64
106 57 69
109 58 69
106 57 66
105 57 69
103 56 62
103 56 64
105 57 66
107 57 69
106 57 69
109 58 70
127 99 123
160 184 234
164 201 255
164 201 255
164 201 255
164 201 255
164 201 255
164 201 255
165 201 255
165 201 255
165 201 255
165 201 255
165 201 255
165 201 255
165 201 255
165 201 255
165 201 255
165 201 255
165 201 255
165 201 255
165 201 255
165 201 255
165 201 255
166 202 255
166 202 255
166 202 255
166 202 255
166 202 255
166 202 255
166 202 255
166 202 255
166 202 255
166 202 255
166 202 255
166 202 255
167 202 255
167 202 255
167 202 255
167 202 255
167 202 255
167 202 255
167 202 255
167 202 255
167 203 255
167 203 255
167 203 255
167 203 255
168 203 255
168 203 255
168 203 255
168 203 255
168 203 255
168 203 255
168 203 255
168 203 255
168 203 255
168 203 255
168 203 255
168 203 255
169 203 255
169 203 255
169 203 255
169 204 255
169 204 255
169 204 255
169 204 255
169 204 255
169 204 255
169 204 255
169 204 255
170 204 255
170 204 255
170 204 255
170 204 255
170 204 255
170 204 255
170 204 255
170 204 255
170 204 255
170 204 255
170 204 255
170 204 255
171 205 255
171 205 255
171 205 255
171 205 255
171 205 255
171 205 255
171 205 255
171 205 255
171 205 255
171 205 255
171 205 255
171 205 255
172 205 255
172 205 255
172 205 255
172 205 255
172 205 255
172 205 255
172 205 255
172 205 255
172 206 255
172 206 255
172 206 255
172 206 255
172 206 255
173 206 255
173 206 255
173 206 255
173 206 255
173 206 255
173 206 255
173 206 255
173 206 255
173 206 255
173 206 255
173 206 255
173 206 255
173 206 255
174 206 255
174 206 255
174 206 255
174 206 255
174 206 255
174 207 255
174 207 255
174 207 255
174 207 255
174 207 255
174 207 255
174 207 255
174 207 255
174 207 255
174 207 255
175 207 255
175 207 255
175 207 255
175 207 255
175 207 255
175 207 255
175 207 255
175 207 255
175 207 255
175 207 255
175 207 255
175 207 255
175 207 255
175 207 255
175 207 255
175 207 255
176 208 255
176 208 255
176 208 255
176 208 255
176 208 255
176 208 255
176 208 255
176 208 255
176 208 255
176 208 255
176 208 255
176 208 255
176 208 255
176 208 255
176 208 255
176 208 255
176 208 255
177 208 255
177 208 255
177 208 255
176 208 255
176 208 255
176 208 255
176 208 255
176 208 255
176 208 255
176 208 255
176 208 255
176 208 255
176 208 255
176 208 255
176 208 255
176 208 255
176 208 255
176 208 255
176 208 255
176 208 255
175 207 255
175 207 255
175 207 255
175 207 255
175 207 255
175 207 255
175 207 255
175 207 255
175 207 255
175 207 255
175 207 255
175 207 255
175 207 255
175 207 255
175 207 255
175 207 255
174 207 255
174 207 255
174 207 255
174 207 255
174 207 255
174 207 255
174 207 255
174 207 255
174 207 255
174 207 255
174 206 255
174 206 255
174 206 255
174 206 255
174 206 255
173 206 255
173 206 255
173 206 255
173 206 255
173 206 255
173 206 255
173 206 255
173 206 255
173 206 255
173 206 255
173 206 255
173 206 255
173 206 255
172 206 255
172 206 255
172 206 255
172 206 255
172 206 255
172 205 255
172 205 255
172 205 255
172 205 255
172 205 255
172 205 255
172 205 255
172 205 255
171 205 255
171 205 255
171 205 255
171 205 255
171 205 255
171 205 255
171 205 255
171 205 255
171 205 255
171 205 255
171 205 255
171 205 255
171 205 255
170 204 255
170 204 255
170 204 255
170 204 255
170 204 255
170 204 255
170 204 255
170 204 255
170 204 255
170 204 255
170 204 255
170 204 255
169 204 255
169 204 255
169 204 255
169 204 255
169 204 255
169 204 255
169 204 255
169 203 255
169 203 255
169 203 255
169 203 255
168 203 255
168 203 255
168 203 255
168 203 255
168 203 255
168 203 255
168 203 255
168 203 255
168 203 255
168 203 255
168 203 255
167 203 255
167 203 255
167 203 255
167 203 255
167 202 255
167 202 255
167 202 255
167 202 255
167 202 255
167 202 255
167 202 255
167 202 255
167 202 255
166 202 255
166 202 255
166 202 255
166 202 255
166 202 255
166 202 255
166 202 255
166 202 255
166 202 255
166 202 255
166 202 255
166 202 255
166 202 255
165 201 255
165 201 255
165 201 255
165 201 255
165 201 255
165 201 255
165 201 255
165 201 255
165 201 255
165 201 255
165 201 255
165 201 255
165 201 255
165 201 255
145 152 193
112 69 83
110 58 69
105 56 61
107 57 70
110 58 73
111 58 67
105 56 56
108 58 72
110 58 72
107 57 69
110 58 62
106 56 59
106 56 58
103 56 59
108 57 66
108 57 64
103 55 55
107 57 67
106 56 62
107 57 62
108 57 67
105 57 67
108 58 69
107 57 69
108 57 66
110 58 70
103 55 58
108 57 66
107 57 70
104 55 61
104 56 64
107 57 70
106 57 66
107 57 64
105 56 56
105 57 67
105 56 62
109 57 62
111 58 72
108 57 67
109 57 62
105 56 62
104 56 61
107 56 64
104 56 61
106 57 66
104 56 62
106 57 66
105 57 66
106 57 66
108 57 62
108 57 67
105 56 62
108 57 62
106 57 70
108 57 66
105 57 69
107 57 69
105 57 67
106 57 66
107 57 62
103 55 56
105 57 67
106 57 67
107 57 67
100 55 64
105 56 64
113 59 75
109 58 75
135 134 165
165 201 255
165 201 255
165 201 255
165 201 255
165 201 255
165 201 255
165 201 255
165 201 255
165 201 255
165 201 255
165 201 255
165 201 255
165 201 255
165 201 255
166 202 255
166 202 255
166 202 255
166 202 255
166 202 255
166 202 255
166 202 255
166 202 255
166 202 255
166 202 255
166 202 255
166 202 255
166 202 255
167 202 255
167 202 255
167 202 255
167 202 255
167 202 255
167 202 255
167 202 255
167 202 255
167 202 255
167 203 255
167 203 255
167 203 255
168 203 255
168 203 255
168 203 255
168 203 255
168 203 255
168 203 255
168 203 255
168 203 255
168 203 255
168 203 255
168 203 255
168 203 255
169 203 255
169 203 255
169 203 255
169 203 255
169 204 255
169 204 255
169 204 255
169 204 255
169 204 255
169 204 255
169 204 255
169 204 255
170 204 255
170 204 255
170 204 255
170 204 255
170 204 255
170 204 255
170 204 255
170 204 255
170 204 255
170 204 255
170 204 255
170 204 255
171 205 255
171 205 255
171 205 255
171 205 255
171 205 255
171 205 255
171 205 255
171 205 255
171 205 255
171 205 255
171 205 255
171 205 255
172 205 255
172 205 255
172 205 255
172 205 255
172 205 255
172 205 255
172 205 255
172 205 255
172 206 255
172 206 255
172 206 255
172 206 255
172 206 255
173 206 255
173 206 255
173 206 255
173 206 255
173 206 255
173 206 255
173 206 255
173 206 255
173 206 255
173 206 255
173 206 255
173 206 255
173 206 255
174 206 255
174 206 255
174 206 255
174 206 255
174 206 255
174 207 255
174 207 255
174 207 255
174 207 255
174 207 255
174 207 255
174 207 255
174 207 255
174 207 255
174 207 255
175 207 255
175 207 255
175 207 255
175 207 255
175 207 255
175 207 255
175 207 255
175 207 255
175 207 255
175 207 255
175 207 255
175 207 255
175 207 255
175 207 255
175 207 255
175 207 255
176 208 255
176 208 255
176 208 255
176 208 255
176 208 255
176 208 255
176 208 255
176 208 255
176 208 255
176 208 255
176 208 255
176 208 255
176 208 255
176 208 255
176 208 255
176 208 255
176 208 255
177 208 255
177 208 255
177 208 255
177 208 255
177 208 255
177 208 255
177 208 255
177 208 255
177 208 255
177 208 255
177 208 255
176 208 255
176 208 255
176 208 255
176 208 255
176 208 255
176 208 255
176 208 255
176 208 255
176 208 255
176 208 255
176 208 255
176 208 255
176 208 255
176 208 255
176 208 255
176 208 255
176 208 255
176 208 255
175 207 255
175 207 255
175 207 255
175 207 255
175 207 255
175 207 255
175 207 255
175 207 255
175 207 255
175 207 255
175 207 255
175 207 255
175 207 255
175 207 255
175 207 255
175 207 255
174 207 255
174 207 255
174 207 255
174 207 255
174 207 255
174 207 255
174 207 255
174 207 255
174 207 255
174 206 255
174 206 255
174 206 255
174 206 255
174 206 255
173 206 255
173 206 255
173 206 255
173 206 255
173 206 255
173 206 255
173 206 255
173 206 255
173 206 255
173 206 255
173 206 255
173 206 255
173 206 255
172 206 255
172 206 255
172 206 255
172 206 255
172 206 255
172 205 255
172 205 255
172 205 255
172 205 255
172 205 255
172 205 255
172 205 255
172 205 255
171 205 255
171 205 255
171 205 255
171 205 255
171 205 255
171 205 255
171 205 255
171 205 255
171 205 255
171 205 255
171 205 255
171 205 255
171 205 255
170 204 255
170 204 255
170 204 255
170 204 255
170 204 255
170 204 255
170 204 255
170 204 255
170 204 255
170 204 255
170 204 255
169 204 255
169 204 255
169 204 255
169 204 255
169 204 255
169 204 255
169 204 255
169 204 255
169 203 255
169 203 255
169 203 255
169 203 255
168 203 255
168 203 255
168 203 255
168 203 255
168 203 255
168 203 255
168 203 255
168 203 255
168 203 255
168 203 255
168 203 255
168 203 255
167 203 255
167 203 255
167 203 255
167 203 255
167 202 255
167 202 255
167 202 255
167 202 255
167 202 255
167 202 255
167 202 255
167 202 255
166 202 255
166 202 255
166 202 255
166 202 255
166 202 255
166 202 255
166 202 255
166 202 255
166 202 255
166 202 255
166 202 255
166 202 255
166 202 255
166 202 255
166 202 255
165 201 255
165 201 255
165 201 255
165 201 255
165 201 255
165 201 255
158 187 236
127 99 122
108 58 69
105 56 59
109 58 69
107 57 67
103 55 62
106 56 64
107 57 70
107 57 69
105 56 62
105 56 61
106 57 69
107 57 67
105 56 62
108 57 67
109 58 72
103 56 62
106 56 59
102 55 58
108 57 69
109 58 70
106 57 64
108 57 66
105 55 53
103 55 53
105 56 64
108 57 62
106 56 62
105 56 59
107 57 70
107 57 69
103 56 61
107 57 61
103 56 64
104 56 62
104 56 62
107 57 69
106 57 66
110 58 62
107 57 62
111 59 72
105 56 55
109 57 66
106 57 64
107 57 70
108 57 67
106 57 66
106 56 62
105 56 66
106 57 69
106 57 66
104 56 67
105 57 66
104 56 66
107 57 66
107 57 64
105 56 62
108 57 67
107 57 64
104 56 64
107 57 67
110 57 62
111 58 70
108 57 64
106 56 62
107 56 59
107 57 70
109 58 67
109 57 66
111 58 72
107 57 67
107 57 66
125 103 123
157 181 229
165 201 255
165 201 255
165 201 255
165 201 255
165 201 255
165 201 255
166 202 255
166 202 255
166 202 255
166 202 255
166 202 255
166 202 255
166 202 255
166 202 255
166 202 255
166 202 255
166 202 255
166 202 255
166 202 255
166 202 255
166 202 255
167 202 255
167 202 255
167 202 255
167 202 255
167 202 255
167 202 255
167 202 255
167 202 255
167 203 255
167 203 255
167 203 255
167 203 255
168 203 255
168 203 255
168 203 255
168 203 255
168 203 255
168 203 255
168 203 255
168 203 255
168 203 255
168 203 255
168 203 255
168 203 255
169 203 255
169 203 255
169 203 255
169 203 255
169 204 255
169 204 255
169 204 255
169 204 255
169 204 255
169 204 255
169 204 255
169 204 255
170 204 255
170 204 255
170 204 255
170 204 255
170 204 255
170 204 255
170 204 255
170 204 255
170 204 255
170 204 255
170 204 255
171 205 255
171 205 255
171 205 255
171 205 255
171 205 255
171 205 255
171 205 255
171 205 255
171 205 255
171 205 255
171 205 255
171 205 255
172 205 255
172 205 255
172 205 255
172 205 255
172 205 255
172 205 255
172 205 255
172 205 255
172 205 255
172 206 255
172 206 255
172 206 255
172 206 255
173 206 255
173 206 255
173 206 255
173 206 255
173 206 255
173 206 255
173 206 255
173 206 255
173 206 255
173 206 255
173 206 255
173 206 255
173 206 255
173 206 255
174 206 255
174 206 255
174 206 255
174 206 255
174 206 255
174 207 255
174 207 255
174 207 255
174 207 255
174 207 255
174 207 255
174 207 255
174 207 255
174 207 255
175 207 255
175 207 255
175 207 255
175 207 255
175 207 255
175 207 255
175 207 255
175 207 255
175 207 255
175 207 255
175 207 255
175 207 255
175 207 255
175 207 255
175 207 255
175 207 255
176 208 255
176 208 255
176 208 255
176 208 255
176 208 255
176 208 255
176 208 255
176 208 255
176 208 255
176 208 255
176 208 255
176 208 255
176 208 255
176 208 255
176 208 255
176 208 255
176 208 255
177 208 255
177 208 255
177 208 255
177 208 255
177 208 255
177 208 255
177 208 255
177 208 255
177 208 255
177 208 255
177 208 255
177 208 255
177 208 255
177 208 255
177 208 255
177 208 255
177 208 255
177 208 255
177 208 255
177 208 255
177 208 255
176 208 255
176 208 255
176 208 255
176 208 255
176 208 255
176 208 255
176 208 255
176 208 255
176 208 255
176 208 255
176 208 255
176 208 255
176 208 255
176 208 255
176 208 255
176 208 255
176 208 255
176 208 255
175 207 255
175 207 255
175 207 255
175 207 255
175 207 255
175 207 255
175 207 255
175 207 255
175 207 255
175 207 255
175 207 255
175 207 255
175 207 255
175 207 255
175 207 255
174 207 255
174 207 255
174 207 255
174 207 255
174 207 255
174 207 255
174 207 255
174 207 255
174 207 255
174 207 255
174 206 255
174 206 255
174 206 255
174 206 255
174 206 255
173 206 255
173 206 255
173 206 255
173 206 255
173 206 255
173 206 255
173 206 255
173 206 255
173 206 255
173 206 255
173 206 255
173 206 255
173 206 255
172 206 255
172 206 255
172 206 255
172 206 255
172 205 255
172 205 255
172 205 255
172 205 255
172 205 255
172 205 255
172 205 255
172 205 255
172 205 255
171 205 255
171 205 255
171 205 255
171 205 255
171 205 255
171 205 255
171 205 255
171 205 255
171 205 255
171 205 255
171 205 255
171 205 255
170 204 255
170 204 255
170 204 255
170 204 255
170 204 255
170 204 255
170 204 255
170 204 255
170 204 255
170 204 255
170 204 255
169 204 255
169 204 255
169 204 255
169 204 255
169 204 255
169 204 255
169 204 255
169 204 255
169 204 255
169 203 255
169 203 255
169 203 255
169 203 255
168 203 255
168 203 255
168 203 255
168 203 255
168 203 255
168 203 255
168 203 255
168 203 255
168 203 255
168 203 255
168 203 255
168 203 255
167 203 255
167 203 255
167 203 255
167 203 255
167 202 255
167 202 255
167 202 255
167 202 255
167 202 255
167 202 255
167 202 255
167 202 255
167 202 255
166 202 255
166 202 255
166 202 255
166 202 255
166 202 255
166 202 255
166 202 255
166 202 255
166 202 255
166 202 255
166 202 255
166 202 255
166 202 255
166 202 255
149 158 200
111 61 74
105 56 64
105 57 66
106 57 66
106 57 69
105 57 66
104 56 61
104 56 61
107 56 64
107 57 67
102 55 61
104 56 59
111 58 67
110 58 70
106 57 62
107 57 66
109 57 62
106 56 61
103 55 59
105 56 61
107 57 64
104 56 59
110 58 69
106 57 67
105 56 62
106 57 62
106 57 67
110 58 66
109 58 67
108 57 67
107 57 64
109 57 61
106 56 61
108 57 67
107 57 67
106 57 62
106 57 64
106 57 64
108 57 67
106 56 61
104 56 62
107 57 64
105 57 66
105 56 62
106 56 61
103 56 61
108 58 70
110 58 70
107 57 66
111 58 64
103 55 58
106 56 58
109 58 67
106 57 62
110 58 69
108 58 69
104 56 59
106 57 73
108 57 66
101 55 56
105 56 62
110 58 67
108 57 67
105 56 61
107 57 66
106 57 66
102 55 61
106 56 59
109 58 72
107 57 64
109 58 66
109 58 72
104 56 62
109 58 69
110 63 73
146 153 193
166 202 255
166 202 255
166 202 255
166 202 255
166 202 255
166 202 255
166 202 255
166 202 255
166 202 255
166 202 255
166 202 255
166 202 255
166 202 255
166 202 255
167 202 255
167 202 255
167 202 255
167 202 255
167 202 255
167 202 255
167 202 255
167 202 255
167 202 255
167 203 255
167 203 255
167 203 255
167 203 255
168 203 255
168 203 255
168 203 255
168 203 255
168 203 255
168 203 255
168 203 255
168 203 255
168 203 255
168 203 255
168 203 255
168 203 255
169 203 255
169 203 255
169 203 255
169 203 255
169 204 255
169 204 255
169 204 255
169 204 255
169 204 255
169 204 255
169 204 255
169 204 255
170 204 255
170 204 255
170 204 255
170 204 255
170 204 255
170 204 255
170 204 255
170 204 255
170 204 255
170 204 255
170 204 255
170 204 255
171 205 255
171 205 255
171 205 255
171 205 255
171 205 255
171 205 255
171 205 255
171 205 255
171 205 255
171 205 255
171 205 255
171 205 255
172 205 255
172 205 255
172 205 255
172 205 255
172 205 255
172 205 255
172 205 255
172 205 255
172 205 255
172 206 255
172 206 255
172 206 255
172 206 255
173 206 255
173 206 255
173 206 255
173 206 255
173 206 255
173 206 255
173 206 255
173 206 255
173 206 255
173 206 255
173 206 255
173 206 255
173 206 255
173 206 255
174 206 255
174 206 255
174 206 255
174 206 255
174 207 255
174 207 255
174 207 255
174 207 255
174 207 255
174 207 255
174 207 255
174 207 255
174 207 255
174 207 255
175 207 255
175 207 255
175 207 255
175 207 255
175 207 255
175 207 255
175 207 255
175 207 255
175 207 255
175 207 255
175 207 255
175 207 255
175 207 255
175 207 255
175 207 255
175 207 255
176 208 255
176 208 255
176 208 255
176 208 255
176 208 255
176 208 255
176 208 255
176 208 255
176 208 255
176 208 255
176 208 255
176 208 255
176 208 255
176 208 255
176 208 255
176 208 255
176 208 255
177 208 255
177 208 255
177 208 255
177 208 255
177 208 255
177 208 255
177 208 255
177 208 255
177 208 255
177 208 255
177 208 255
177 208 255
177 209 255
177 209 255
177 209 255
177 209 255
177 209 255
177 209 255
177 208 255
177 208 255
177 208 255
177 208 255
177 208 255
177 208 255
177 208 255
177 208 255
177 208 255
177 208 255
177 208 255
177 208 255
177 208 255
176 208 255
176 208 255
176 208 255
176 208 255
176 208 255
176 208 255
176 208 255
176 208 255
176 208 255
176 208 255
176 208 255
176 208 255
176 208 255
176 208 255
176 208 255
176 208 255
175 207 255
175 207 255
175 207 255
175 207 255
175 207 255
175 207 255
175 207 255
175 207 255
175 207 255
175 207 255
175 207 255
175 207 255
175 207 255
175 207 255
175 207 255
175 207 255
174 207 255
174 207 255
174 207 255
174 207 255
174 207 255
174 207 255
174 207 255
174 207 255
174 207 255
174 206 255
174 206 255
174 206 255
174 206 255
174 206 255
173 206 255
173 206 255
173 206 255
173 206 255
173 206 255
173 206 255
173 206 255
173 206 255
173 206 255
173 206 255
173 206 255
173 206 255
173 206 255
172 206 255
172 206 255
172 206 255
172 206 255
172 205 255
172 205 255
172 205 255
172 205 255
172 205 255
172 205 255
172 205 255
172 205 255
172 205 255
171 205 255
171 205 255
171 205 255
171 205 255
171 205 255
171 205 255
171 205 255
171 205 255
171 205 255
171 205 255
171 205 255
171 205 255
170 204 255
170 204 255
170 204 255
170 204 255
170 204 255
170 204 255
170 204 255
170 204 255
170 204 255
170 204 255
170 204 255
170 204 255
169 204 255
169 204 255
169 204 255
169 204 255
169 204 255
169 204 255
169 204 255
169 204 255
169 203 255
169 203 255
169 203 255
169 203 255
169 203 255
168 203 255
168 203 255
168 203 255
168 203 255
168 203 255
168 203 255
168 203 255
168 203 255
168 203 255
168 203 255
168 203 255
168 203 255
167 203 255
167 203 255
167 203 255
167 203 255
167 202 255
167 202 255
167 202 255
167 202 255
167 202 255
167 202 255
167 202 255
167 202 255
167 202 255
167 202 255
166 202 255
166 202 255
166 202 255
166 202 255
166 202 255
166 202 255
162 193 245
126 106 128
103 56 66
108 57 66
106 56 56
104 57 73
108 57 66
106 57 69
103 55 64
110 58 64
108 57 66
109 57 64
106 57 67
111 58 69
106 57 67
107 57 64
110 58 69
104 56 61
110 58 64
104 56 59
106 57 67
107 57 67
109 57 66
108 58 69
105 56 64
106 56 61
107 57 67
105 56 62
101 54 50
107 57 64
105 57 66
110 58 64
105 56 62
107 57 66
109 58 66
109 57 62
111 58 69
107 57 61
108 57 67
105 56 64
107 57 67
107 57 66
104 56 59
108 57 67
106 57 62
107 57 69
103 55 56
106 56 59
110 58 66
104 56 56
104 56 64
109 58 66
106 57 64
103 56 64
106 56 61
108 57 67
108 58 70
106 56 58
103 56 59
109 58 72
102 55 61
103 55 56
107 56 64
110 57 61
103 55 59
107 56 66
109 57 62
101 54 56
106 57 67
107 57 62
108 58 72
105 56 64
106 56 56
102 55 55
109 58 69
108 57 66
104 56 66
110 58 73
105 56 64
120 89 113
166 202 255
166 202 255
166 202 255
166 202 255
166 202 255
166 202 255
166 202 255
167 202 255
167 202 255
167 202 255
167 202 255
167 202 255
167 202 255
167 202 255
167 202 255
167 202 255
167 202 255
167 203 255
167 203 255
167 203 255
167 203 255
168 203 255
168 203 255
168 203 255
168 203 255
168 203 255
168 203 255
168 203 255
168 203 255
168 203 255
168 203 255
168 203 255
168 203 255
168 203 255
169 203 255
169 203 255
169 203 255
169 204 255
169 204 255
169 204 255
169 204 255
169 204 255
169 204 255
169 204 255
169 204 255
169 204 255
170 204 255
170 204 255
170 204 255
170 204 255
170 204 255
170 204 255
170 204 255
170 204 255
170 204 255
170 204 255
170 204 255
170 204 255
171 205 255
171 205 255
171 205 255
171 205 255
171 205 255
171 205 255
171 205 255
171 205 255
171 205 255
171 205 255
171 205 255
171 205 255
172 205 255
172 205 255
172 205 255
172 205 255
172 205 255
172 205 255
172 205 255
172 205 255
172 206 255
172 206 255
172 206 255
172 206 255
172 206 255
173 206 255
173 206 255
173 206 255
173 206 255
173 206 255
173 206 255
173 206 255
173 206 255
173 206 255
173 206 255
173 206 255
173 206 255
173 206 255
174 206 255
174 206 255
174 206 255
174 206 255
174 206 255
174 207 255
174 207 255
174 207 255
174 207 255
174 207 255
174 207 255
174 207 255
174 207 255
174 207 255
174 207 255
175 207 255
175 207 255
175 207 255
175 207 255
175 207 255
175 207 255
175 207 255
175 207 255
175 207 255
175 207 255
175 207 255
175 207 255
175 207 255
175 207 255
176 208 255
176 208 255
176 208 255
176 208 255
176 208 255
176 208 255
176 208 255
176 208 255
176 208 255
176 208 255
176 208 255
176 208 255
176 208 255
176 208 255
176 208 255
176 208 255
176 208 255
176 208 255
177 208 255
177 208 255
177 208 255
177 208 255
177 208 255
177 208 255
177 208 255
177 208 255
177 208 255
177 208 255
177 208 255
177 208 255
177 209 255
177 209 255
177 209 255
177 209 255
177 209 255
177 209 255
178 209 255
178 209 255
178 209 255
178 209 255
177 209 255
177 209 255
177 209 255
177 209 255
177 209 255
177 209 255
177 208 255
177 208 255
177 208 255
177 208 255
177 208 255
177 208 255
177 208 255
177 208 255
177 208 255
177 208 255
177 208 255
177 208 255
176 208 255
176 208 255
176 208 255
176 208 255
176 208 255
176 208 255
176 208 255
176 208 255
176 208 255
176 208 255
176 208 255
176 208 255
176 208 255
176 208 255
176 208 255
176 208 255
176 208 255
175 207 255
175 207 255
175 207 255
175 207 255
175 207 255
175 207 255
175 207 255
175 207 255
175 207 255
175 207 255
175 207 255
175 207 255
175 207 255
175 207 255
175 207 255
174 207 255
174 207 255
174 207 255
174 207 255
174 207 255
174 207 255
174 207 255
174 207 255
174 207 255
174 207 255
174 206 255
174 206 255
174 206 255
174 206 255
173 206 255
173 206 255
173 206 255
173 206 255
173 206 255
173 206 255
173 206 255
173 206 255
173 206 255
173 206 255
173 206 255
173 206 255
173 206 255
172 206 255
172 206 255
172 206 255
172 206 255
172 206 255
172 205 255
172 205 255
172 205 255
172 205 255
172 205 255
172 205 255
172 205 255
172 205 255
171 205 255
171 205 255
171 205 255
171 205 255
171 205 255
171 205 255
171 205 255
171 205 255
171 205 255
171 205 255
171 205 255
171 205 255
171 205 255
170 204 255
170 204 255
170 204 255
170 204 255
170 204 255
170 204 255
170 204 255
170 204 255
170 204 255
170 204 255
170 204 255
170 204 255
169 204 255
169 204 255
169 204 255
169 204 255
169 204 255
169 204 255
169 204 255
169 204 255
169 203 255
169 203 255
169 203 255
169 203 255
168 203 255
168 203 255
168 203 255
168 203 255
168 203 255
168 203 255
168 203 255
168 203 255
168 203 255
168 203 255
168 203 255
168 203 255
168 203 255
167 203 255
167 203 255
167 203 255
167 203 255
167 203 255
167 202 255
167 202 255
167 202 255
167 202 255
167 202 255
167 202 255
167 202 255
167 202 255
167 202 255
158 182 229
112 73 90
110 58 66
105 57 69
103 55 62
106 57 69
108 57 66
111 58 66
106 56 61
104 56 66
107 57 66
107 57 66
103 55 59
103 55 56
104 56 61
105 56 58
107 57 64
107 57 61
102 55 56
108 57 64
104 56 64
103 56 61
107 57 66
106 57 62
105 56 58
106 56 64
113 59 73
103 56 61
104 56 64
109 57 61
108 57 62
108 57 62
106 57 72
106 55 55
107 57 64
108 57 66
107 57 69
107 57 66
102 55 59
102 55 56
104 56 61
104 56 62
105 56 58
106 56 61
104 56 58
106 56 61
112 59 72
107 57 69
106 56 59
111 58 62
106 56 61
111 58 66
104 56 64
108 58 70
105 56 58
110 58 70
109 57 64
106 57 62
103 56 66
105 56 64
105 56 56
104 55 56
104 56 58
107 57 59
105 56 59
105 56 62
108 58 70
103 56 62
105 56 62
104 56 69
106 57 66
105 56 58
104 56 64
105 57 67
105 57 67
105 56 61
105 56 62
102 56 66
107 57 67
106 57 72
110 58 72
118 83 99
160 188 238
167 202 255
167 202 255
167 202 255
167 202 255
167 202 255
167 202 255
167 202 255
167 202 255
167 202 255
167 203 255
167 203 255
167 203 255
167 203 255
167 203 255
168 203 255
168 203 255
168 203 255
168 203 255
168 203 255
168 203 255
168 203 255
168 203 255
168 203 255
168 203 255
168 203 255
168 203 255
169 203 255
169 203 255
169 203 255
169 203 255
169 203 255
169 204 255
169 204 255
169 204 255
169 204 255
169 204 255
169 204 255
169 204 255
169 204 255
170 204 255
170 204 255
170 204 255
170 204 255
170 204 255
170 204 255
170 204 255
170 204 255
170 204 255
170 204 255
170 204 255
170 204 255
171 205 255
171 205 255
171 205 255
171 205 255
171 205 255
171 205 255
171 205 255
171 205 255
171 205 255
171 205 255
171 205 255
171 205 255
171 205 255
172 205 255
172 205 255
172 205 255
172 205 255
172 205 255
172 205 255
172 205 255
172 205 255
172 206 255
172 206 255
172 206 255
172 206 255
173 206 255
173 206 255
173 206 255
173 206 255
173 206 255
173 206 255
173 206 255
173 206 255
173 206 255
173 206 255
173 206 255
173 206 255
173 206 255
174 206 255
174 206 255
174 206 255
174 206 255
174 206 255
174 207 255
174 207 255
174 207 255
174 207 255
174 207 255
174 207 255
174 207 255
174 207 255
174 207 255
174 207 255
175 207 255
175 207 255
175 207 255
175 207 255
175 207 255
175 207 255
175 207 255
175 207 255
175 207 255
175 207 255
175 207 255
175 207 255
175 207 255
175 207 255
175 207 255
176 208 255
176 208 255
176 208 255
176 208 255
176 208 255
176 208 255
176 208 255
176 208 255
176 208 255
176 208 255
176 208 255
176 208 255
176 208 255
176 208 255
176 208 255
176 208 255
176 208 255
177 208 255
177 208 255
177 208 255
177 208 255
177 208 255
177 208 255
177 208 255
177 208 255
177 208 255
177 208 255
177 208 255
177 208 255
177 209 255
177 209 255
177 209 255
177 209 255
177 209 255
177 209 255
178 209 255
178 209 255
178 209 255
178 209 255
178 209 255
178 209 255
178 209 255
178 209 255
178 209 255
178 209 255
178 209 255
178 209 255
178 209 255
178 209 255
177 209 255
177 209 255
177 209 255
177 209 255
177 209 255
177 209 255
177 208 255
177 208 255
177 208 255
177 208 255
177 208 255
177 208 255
177 208 255
177 208 255
177 208 255
177 208 255
177 208 255
177 208 255
176 208 255
176 208 255
176 208 255
176 208 255
176 208 255
176 208 255
176 208 255
176 208 255
176 208 255
176 208 255
176 208 255
176 208 255
176 208 255
176 208 255
176 208 255
176 208 255
175 207 255
175 207 255
175 207 255
175 207 255
175 207 255
175 207 255
175 207 255
175 207 255
175 207 255
175 207 255
175 207 255
175 207 255
175 207 255
175 207 255
175 207 255
175 207 255
174 207 255
174 207 255
174 207 255
174 207 255
174 207 255
174 207 255
174 207 255
174 207 255
174 207 255
174 207 255
174 206 255
174 206 255
174 206 255
174 206 255
173 206 255
173 206 255
173 206 255
173 206 255
173 206 255
173 206 255
173 206 255
173 206 255
173 206 255
173 206 255
173 206 255
173 206 255
173 206 255
172 206 255
172 206 255
172 206 255
172 206 255
172 205 255
172 205 255
172 205 255
172 205 255
172 205 255
172 205 255
172 205 255
172 205 255
172 205 255
171 205 255
171 205 255
171 205 255
171 205 255
171 205 255
171 205 255
171 205 255
171 205 255
171 205 255
171 205 255
171 205 255
171 205 255
170 204 255
170 204 255
170 204 255
170 204 255
170 204 255
170 204 255
170 204 255
170 204 255
170 204 255
170 204 255
170 204 255
170 204 255
170 204 255
169 204 255
169 204 255
169 204 255
169 204 255
169 204 255
169 204 255
169 204 255
169 204 255
169 203 255
169 203 255
169 203 255
169 203 255
168 203 255
168 203 255
168 203 255
168 203 255
168 203 255
168 203 255
168 203 255
168 203 255
168 203 255
168 203 255
168 203 255
168 203 255
168 203 255
168 203 255
167 203 255
167 203 255
167 203 255
167 203 255
167 203 255
167 202 255
167 202 255
155 171 216
108 62 73
106 57 67
106 57 66
111 58 67
107 57 64
107 57 66
106 57 66
106 56 61
108 57 66
107 57 64
106 56 62
108 57 62
107 56 61
109 58 67
102 55 58
107 57 67
111 58 72
110 58 69
107 56 59
109 57 64
110 57 64
109 58 67
105 55 64
110 58 67
104 55 55
106 56 61
105 56 62
106 57 64
104 56 59
104 56 59
107 57 61
107 57 66
108 57 69
105 56 59
105 55 58
103 56 59
105 56 61
107 57 69
107 57 64
105 56 56
109 57 62
108 57 69
111 58 64
108 57 67
107 57 66
106 57 66
105 56 62
110 58 69
105 56 53
107 57 66
106 56 61
108 57 61
109 57 59
109 58 67
106 57 69
105 56 59
106 56 61
106 57 64
104 55 58
104 56 59
111 58 72
112 58 67
108 57 67
105 56 64
104 56 62
105 56 62
104 56 61
104 56 61
111 58 70
106 57 69
103 54 56
109 58 69
109 57 62
105 56 55
104 56 67
110 57 64
110 58 72
107 57 72
106 57 64
105 56 64
112 59 69
107 57 64
111 64 79
152 167 209
167 202 255
167 202 255
167 203 255
167 203 255
167 203 255
167 203 255
167 203 255
168 203 255
168 203 255
168 203 255
168 203 255
168 203 255
168 203 255
168 203 255
168 203 255
168 203 255
168 203 255
168 203 255
168 203 255
168 203 255
168 203 255
169 203 255
169 203 255
169 203 255
169 203 255
169 204 255
169 204 255
169 204 255
169 204 255
169 204 255
169 204 255
169 204 255
169 204 255
170 204 255
170 204 255
170 204 255
170 204 255
170 204 255
170 204 255
170 204 255
170 204 255
170 204 255
170 204 255
170 204 255
170 204 255
170 204 255
171 205 255
171 205 255
171 205 255
171 205 255
171 205 255
171 205 255
171 205 255
171 205 255
171 205 255
171 205 255
171 205 255
171 205 255
172 205 255
172 205 255
172 205 255
172 205 255
172 205 255
172 205 255
172 205 255
172 205 255
172 206 255
172 206 255
172 206 255
172 206 255
172 206 255
173 206 255
173 206 255
173 206 255
173 206 255
173 206 255
173 206 255
173 206 255
173 206 255
173 206 255
173 206 255
173 206 255
173 206 255
173 206 255
174 206 255
174 206 255
174 206 255
174 206 255
174 206 255
174 207 255
174 207 255
174 207 255
174 207 255
174 207 255
174 207 255
174 207 255
174 207 255
174 207 255
175 207 255
175 207 255
175 207 255
175 207 255
175 207 255
175 207 255
175 207 255
175 207 255
175 207 255
175 207 255
175 207 255
175 207 255
175 207 255
175 207 255
175 207 255
176 208 255
176 208 255
176 208 255
176 208 255
176 208 255
176 208 255
176 208 255
176 208 255
176 208 255
176 208 255
176 208 255
176 208 255
176 208 255
176 208 255
176 208 255
176 208 255
176 208 255
177 208 255
177 208 255
177 208 255
177 208 255
177 208 255
177 208 255
177 208 255
177 208 255
177 208 255
177 208 255
177 208 255
177 208 255
177 209 255
177 209 255
177 209 255
177 209 255
177 209 255
177 209 255
178 209 255
178 209 255
178 209 255
178 209 255
178 209 255
178 209 255
178 209 255
178 209 255
178 209 255
178 209 255
178 209 255
178 209 255
178 209 255
178 209 255
178 209 255
178 209 255
178 209 255
178 209 255
178 209 255
178 209 255
178 209 255
178 209 255
178 209 255
178 209 255
177 209 255
177 209 255
177 209 255
177 209 255
177 209 255
177 209 255
177 209 255
177 208 255
177 208 255
177 208 255
177 208 255
177 208 255
177 208 255
177 208 255
177 208 255
177 208 255
177 208 255
177 208 255
176 208 255
176 208 255
176 208 255
176 208 255
176 208 255
176 208 255
176 208 255
176 208 255
176 208 255
176 208 255
176 208 255
176 208 255
176 208 255
176 208 255
176 208 255
176 208 255
175 207 255
175 207 255
175 207 255
175 207 255
175 207 255
175 207 255
175 207 255
175 207 255
175 207 255
175 207 255
175 207 255
175 207 255
175 207 255
175 207 255
175 207 255
174 207 255
174 207 255
174 207 255
174 207 255
174 207 255
174 207 255
174 207 255
174 207 255
174 207 255
174 207 255
174 206 255
174 206 255
174 206 255
174 206 255
173 206 255
173 206 255
173 206 255
173 206 255
173 206 255
173 206 255
173 206 255
173 206 255
173 206 255
173 206 255
173 206 255
173 206 255
173 206 255
173 206 255
172 206 255
172 206 255
172 206 255
172 206 255
172 205 255
172 205 255
172 205 255
172 205 255
172 205 255
172 205 255
172 205 255
172 205 255
171 205 255
171 205 255
171 205 255
171 205 255
171 205 255
171 205 255
171 205 255
171 205 255
171 205 255
171 205 255
171 205 255
171 205 255
171 205 255
170 204 255
170 204 255
170 204 255
170 204 255
170 204 255
170 204 255
170 204 255
170 204 255
170 204 255
170 204 255
170 204 255
170 204 255
170 204 255
169 204 255
169 204 255
169 204 255
169 204 255
169 204 255
169 204 255
169 204 255
169 204 255
169 204 255
169 203 255
169 203 255
169 203 255
169 203 255
168 203 255
168 203 255
168 203 255
168 203 255
168 203 255
168 203 255
168 203 255
168 203 255
168 203 255
168 203 255
168 203 255
168 203 255
168 203 255
168 203 255
140 136 170
107 60 71
103 56 59
106 57 64
108 57 61
109 58 67
111 58 67
106 57 67
102 55 58
108 56 61
106 57 67
107 57 67
101 54 56
108 57 59
106 57 67
104 55 56
107 56 58
105 56 59
105 56 59
105 56 59
106 57 64
109 58 67
107 57 61
108 57 62
102 55 59
99 53 52
106 56 67
105 56 64
104 56 62
102 55 56
106 56 66
109 58 67
110 58 66
105 56 59
111 58 67
108 57 62
109 58 66
106 56 56
102 54 53
103 55 59
103 55 52
101 54 56
108 57 64
104 56 58
109 57 66
110 58 73
106 57 67
107 56 64
102 55 59
102 55 53
100 54 53
106 56 62
107 57 66
105 56 62
106 56 58
103 55 59
110 57 67
106 56 55
107 56 64
110 58 61
106 56 59
102 55 55
108 57 67
111 58 59
104 56 61
108 57 62
106 57 64
107 57 67
105 56 61
113 59 67
106 56 66
107 57 66
110 57 69
106 57 66
106 57 64
107 57 61
107 57 66
106 56 61
103 55 53
105 56 61
109 57 66
105 56 64
104 56 62
103 55 58
107 57 67
110 58 72
143 147 184
168 203 255
168 203 255
168 203 255
168 203 255
168 203 255
168 203 255
168 203 255
168 203 255
168 203 255
168 203 255
168 203 255
168 203 255
168 203 255
168 203 255
169 203 255
169 203 255
169 203 255
169 203 255
169 204 255
169 204 255
169 204 255
169 204 255
169 204 255
169 204 255
169 204 255
169 204 255
169 204 255
170 204 255
170 204 255
170 204 255
170 204 255
170 204 255
170 204 255
170 204 255
170 204 255
170 204 255
170 204 255
170 204 255
170 204 255
170 204 255
171 205 255
171 205 255
171 205 255
171 205 255
171 205 255
171 205 255
171 205 255
171 205 255
171 205 255
171 205 255
171 205 255
171 205 255
171 205 255
172 205 255
172 205 255
172 205 255
172 205 255
172 205 255
172 205 255
172 205 255
172 205 255
172 206 255
172 206 255
172 206 255
172 206 255
173 206 255
173 206 255
173 206 255
173 206 255
173 206 255
173 206 255
173 206 255
173 206 255
173 206 255
173 206 255
173 206 255
173 206 255
173 206 255
174 206 255
174 206 255
174 206 255
174 206 255
174 206 255
174 207 255
174 207 255
174 207 255
174 207 255
174 207 255
174 207 255
174 207 255
174 207 255
174 207 255
174 207 255
175 207 255
175 207 255
175 207 255
175 207 255
175 207 255
175 207 255
175 207 255
175 207 255
175 207 255
175 207 255
175 207 255
175 207 255
175 207 255
175 207 255
175 207 255
176 208 255
176 208 255
176 208 255
176 208 255
176 208 255
176 208 255
176 208 255
176 208 255
176 208 255
176 208 255
176 208 255
176 208 255
176 208 255
176 208 255
176 208 255
176 208 255
177 208 255
177 208 255
177 208 255
177 208 255
177 208 255
177 208 255
177 208 255
177 208 255
177 208 255
177 208 255
177 208 255
177 208 255
177 209 255
177 209 255
177 209 255
177 209 255
177 209 255
177 209 255
178 209 255
178 209 255
178 209 255
178 209 255
178 209 255
178 209 255
178 209 255
178 209 255
178 209 255
178 209 255
178 209 255
178 209 255
178 209 255
178 209 255
178 209 255
178 209 255
178 209 255
178 209 255
178 209 255
178 209 255
178 209 255
178 209 255
178 209 255
178 209 255
178 209 255
178 209 255
178 209 255
178 209 255
178 209 255
178 209 255
178 209 255
178 209 255
178 209 255
178 209 255
177 209 255
177 209 255
177 209 255
177 209 255
177 209 255
177 209 255
177 208 255
177 208 255
177 208 255
177 208 255
177 208 255
177 208 255
177 208 255
177 208 255
177 208 255
177 208 255
177 208 255
177 208 255
176 208 255
176 208 255
176 208 255
176 208 255
176 208 255
176 208 255
176 208 255
176 208 255
176 208 255
176 208 255
176 208 255
176 208 255
176 208 255
176 208 255
176 208 255
176 208 255
175 207 255
175 207 255
175 207 255
175 207 255
175 207 255
175 207 255
175 207 255
175 207 255
175 207 255
175 207 255
175 207 255
175 207 255
175 207 255
175 207 255
175 207 255
174 207 255
174 207 255
174 207 255
174 207 255
174 207 255
174 207 255
174 207 255
174 207 255
174 207 255
174 207 255
174 206 255
174 206 255
174 206 255
174 206 255
173 206 255
173 206 255
173 206 255
173 206 255
173 206 255
173 206 255
173 206 255
173 206 255
173 206 255
173 206 255
173 206 255
173 206 255
173 206 255
172 206 255
172 206 255
172 206 255
172 206 255
172 205 255
172 205 255
172 205 255
172 205 255
172 205 255
172 205 255
172 205 255
172 205 255
172 205 255
171 205 255
171 205 255
171 205 255
171 205 255
171 205 255
171 205 255
171 205 255
171 205 255
171 205 255
171 205 255
171 205 255
171 205 255
171 205 255
170 204 255
170 204 255
170 204 255
170 204 255
170 204 255
170 204 255
170 204 255
170 204 255
170 204 255
170 204 255
170 204 255
170 204 255
170 204 255
169 204 255
169 204 255
169 204 255
169 204 255
169 204 255
169 204 255
169 204 255
169 204 255
169 204 255
169 203 255
169 203 255
169 203 255
169 203 255
169 203 255
168 203 255
168 203 255
168 203 255
168 203 255
168 203 255
168 203 255
168 203 255
135 124 156
109 57 66
111 59 72
108 56 62
106 57 69
102 55 61
104 56 58
106 57 70
110 58 70
106 56 61
105 56 62
108 57 67
108 57 66
109 57 62
110 58 64
107 56 62
103 55 58
105 56 61
103 56 66
109 57 64
105 56 56
107 57 66
108 57 61
107 57 69
107 57 67
104 56 64
109 57 66
108 57 59
107 57 64
105 56 61
105 56 58
105 56 64
109 57 64
107 57 59
107 57 61
110 58 69
105 56 64
102 54 52
102 55 61
104 56 58
109 58 67
105 55 59
106 56 59
109 58 66
104 56 58
108 57 66
105 56 64
103 55 67
108 57 64
106 56 58
107 57 66
109 57 62
106 56 59
106 57 66
107 56 59
107 56 66
106 55 58
107 57 61
101 55 55
101 55 55
106 56 59
106 56 58
111 58 66
108 57 61
107 57 66
102 55 56
102 55 59
109 57 61
109 57 61
109 58 67
108 57 69
107 57 62
105 57 69
108 57 66
105 56 59
111 58 66
111 58 61
108 57 62
106 57 64
103 56 69
107 57 64
107 57 66
108 57 69
105 56 61
104 55 59
104 56 67
105 57 69
106 57 69
142 147 184
168 203 255
168 203 255
168 203 255
168 203 255
168 203 255
168 203 255
168 203 255
168 203 255
169 203 255
169 203 255
169 203 255
169 203 255
169 204 255
169 204 255
169 204 255
169 204 255
169 204 255
169 204 255
169 204 255
169 204 255
169 204 255
170 204 255
170 204 255
170 204 255
170 204 255
170 204 255
170 204 255
170 204 255
170 204 255
170 204 255
170 204 255
170 204 255
170 204 255
170 204 255
171 205 255
171 205 255
171 205 255
171 205 255
171 205 255
171 205 255
171 205 255
171 205 255
171 205 255
171 205 255
171 205 255
171 205 255
171 205 255
172 205 255
172 205 255
172 205 255
172 205 255
172 205 255
172 205 255
172 205 255
172 205 255
172 205 255
172 206 255
172 206 255
172 206 255
173 206 255
173 206 255
173 206 255
173 206 255
173 206 255
173 206 255
173 206 255
173 206 255
173 206 255
173 206 255
173 206 255
173 206 255
173 206 255
173 206 255
174 206 255
174 206 255
174 206 255
174 206 255
174 207 255
174 207 255
174 207 255
174 207 255
174 207 255
174 207 255
174 207 255
174 207 255
174 207 255
174 207 255
175 207 255
175 207 255
175 207 255
175 207 255
175 207 255
175 207 255
175 207 255
175 207 255
175 207 255
175 207 255
175 207 255
175 207 255
175 207 255
175 207 255
175 207 255
176 208 255
176 208 255
176 208 255
176 208 255
176 208 255
176 208 255
176 208 255
176 208 255
176 208 255
176 208 255
176 208 255
176 208 255
176 208 255
176 208 255
176 208 255
176 208 255
177 208 255
177 208 255
177 208 255
177 208 255
177 208 255
177 208 255
177 208 255
177 208 255
177 208 255
177 208 255
177 208 255
177 208 255
177 209 255
177 209 255
177 209 255
177 209 255
177 209 255
177 209 255
178 209 255
178 209 255
178 209 255
178 209 255
178 209 255
178 209 255
178 209 255
178 209 255
178 209 255
178 209 255
178 209 255
178 209 255
178 209 255
178 209 255
178 209 255
178 209 255
178 209 255
178 209 255
178 209 255
178 209 255
179 209 255
179 209 255
179 209 255
179 209 255
179 209 255
178 209 255
178 209 255
178 209 255
178 209 255
178 209 255
178 209 255
178 209 255
178 209 255
178 209 255
178 209 255
178 209 255
178 209 255
178 209 255
178 209 255
178 209 255
178 209 255
178 209 255
178 209 255
178 209 255
178 209 255
177 209 255
177 209 255
177 209 255
177 209 255
177 209 255
177 209 255
177 208 255
177 208 255
177 208 255
177 208 255
177 208 255
177 208 255
177 208 255
177 208 255
177 208 255
177 208 255
177 208 255
176 208 255
176 208 255
176 208 255
176 208 255
176 208 255
176 208 255
176 208 255
176 208 255
176 208 255
176 208 255
176 208 255
176 208 255
176 208 255
176 208 255
176 208 255
176 208 255
175 207 255
175 207 255
175 207 255
175 207 255
175 207 255
175 207 255
175 207 255
175 207 255
175 207 255
175 207 255
175 207 255
175 207 255
175 207 255
175 207 255
175 207 255
174 207 255
174 207 255
174 207 255
174 207 255
174 207 255
174 207 255
174 207 255
174 207 255
174 207 255
174 206 255
174 206 255
174 206 255
174 206 255
174 206 255
173 206 255
173 206 255
173 206 255
173 206 255
173 206 255
173 206 255
173 206 255
173 206 255
173 206 255
173 206 255
173 206 255
173 206 255
173 206 255
172 206 255
172 206 255
172 206 255
172 206 255
172 205 255
172 205 255
172 205 255
172 205 255
172 205 255
172 205 255
172 205 255
172 205 255
172 205 255
171 205 255
171 205 255
171 205 255
171 205 255
171 205 255
171 205 255
171 205 255
171 205 255
171 205 255
171 205 255
171 205 255
171 205 255
171 205 255
170 204 255
170 204 255
170 204 255
170 204 255
170 204 255
170 204 255
170 204 255
170 204 255
170 204 255
170 204 255
170 204 255
170 204 255
170 204 255
169 204 255
169 204 255
169 204 255
169 204 255
169 204 255
169 204 255
169 204 255
169 204 255
169 204 255
169 204 255
169 203 255
169 203 255
169 203 255
169 203 255
169 203 255
136 125 154
105 57 69
104 56 64
104 56 64
107 56 61
109 58 67
103 56 59
107 57 66
104 56 58
105 56 56
103 54 55
107 57 62
108 57 66
108 57 66
104 56 64
99 54 55
108 57 67
107 57 66
106 57 64
104 56 62
104 55 50
108 57 62
108 57 64
105 56 59
104 55 53
102 55 53
101 54 50
106 56 61
106 57 64
107 57 69
105 56 58
107 57 69
104 56 58
112 59 69
114 59 70
107 57 61
106 56 62
108 57 64
106 56 62
105 56 59
110 58 67
107 57 67
107 56 58
108 57 64
100 54 49
104 55 56
104 55 55
104 56 56
107 57 62
107 56 59
104 56 61
106 56 59
102 54 53
102 55 56
108 57 64
102 55 55
102 55 58
106 57 62
109 57 64
105 56 56
113 58 66
105 56 64
104 56 56
110 58 69
108 57 66
106 56 59
111 58 66
112 58 67
104 56 61
108 57 69
107 57 66
104 56 61
103 55 58
102 55 55
107 56 56
107 57 61
105 56 59
111 58 66
105 56 62
112 58 66
104 55 55
110 58 67
105 56 56
106 57 64
108 56 59
113 59 72
104 56 67
104 56 62
104 56 59
103 56 64
133 121 149
169 203 255
169 203 255
169 203 255
169 203 255
169 203 255
169 204 255
169 204 255
169 204 255
169 204 255
169 204 255
169 204 255
169 204 255
169 204 255
169 204 255
169 204 255
170 204 255
170 204 255
170 204 255
170 204 255
170 204 255
170 204 255
170 204 255
170 204 255
170 204 255
170 204 255
170 204 255
170 204 255
170 204 255
171 205 255
171 205 255
171 205 255
171 205 255
171 205 255
171 205 255
171 205 255
171 205 255
171 205 255
171 205 255
171 205 255
171 205 255
171 205 255
172 205 255
172 205 255
172 205 255
172 205 255
172 205 255
172 205 255
172 205 255
172 205 255
172 206 255
172 206 255
172 206 255
172 206 255
172 206 255
173 206 255
173 206 255
173 206 255
173 206 255
173 206 255
173 206 255
173 206 255
173 206 255
173 206 255
173 206 255
173 206 255
173 206 255
173 206 255
174 206 255
174 206 255
174 206 255
174 206 255
174 206 255
174 207 255
174 207 255
174 207 255
174 207 255
174 207 255
174 207 255
174 207 255
174 207 255
174 207 255
175 207 255
175 207 255
175 207 255
175 207 255
175 207 255
175 207 255
175 207 255
175 207 255
175 207 255
175 207 255
175 207 255
175 207 255
175 207 255
175 207 255
175 207 255
176 208 255
176 208 255
176 208 255
176 208 255
176 208 255
176 208 255
176 208 255
176 208 255
176 208 255
176 208 255
176 208 255
176 208 255
176 208 255
176 208 255
176 208 255
176 208 255
177 208 255
177 208 255
177 208 255
177 208 255
177 208 255
177 208 255
177 208 255
177 208 255
177 208 255
177 208 255
177 208 255
177 209 255
177 209 255
177 209 255
177 209 255
177 209 255
177 209 255
177 209 255
178 209 255
178 209 255
178 209 255
178 209 255
178 209 255
178 209 255
178 209 255
178 209 255
178 209 255
178 209 255
178 209 255
178 209 255
178 209 255
178 209 255
178 209 255
178 209 255
178 209 255
178 209 255
178 209 255
179 209 255
179 209 255
179 209 255
179 209 255
179 209 255
179 209 255
179 210 255
179 210 255
179 210 255
179 209 255
179 209 255
179 209 255
179 209 255
179 209 255
179 209 255
179 209 255
178 209 255
178 209 255
178 209 255
178 209 255
178 209 255
178 209 255
178 209 255
178 209 255
178 209 255
178 209 255
178 209 255
178 209 255
178 209 255
178 209 255
178 209 255
178 209 255
178 209 255
178 209 255
178 209 255
178 209 255
177 209 255
177 209 255
177 209 255
177 209 255
177 209 255
177 209 255
177 208 255
177 208 255
177 208 255
177 208 255
177 208 255
177 208 255
177 208 255
177 208 255
177 208 255
177 208 255
177 208 255
176 208 255
176 208 255
176 208 255
176 208 255
176 208 255
176 208 255
176 208 255
176 208 255
176 208 255
176 208 255
176 208 255
176 208 255
176 208 255
176 208 255
176 208 255
176 208 255
175 207 255
175 207 255
175 207 255
175 207 255
175 207 255
175 207 255
175 207 255
175 207 255
175 207 255
175 207 255
175 207 255
175 207 255
175 207 255
175 207 255
175 207 255
174 207 255
174 207 255
174 207 255
174 207 255
174 207 255
174 207 255
174 207 255
174 207 255
174 207 255
174 206 255
174 206 255
174 206 255
174 206 255
174 206 255
173 206 255
173 206 255
173 206 255
173 206 255
173 206 255
173 206 255
173 206 255
173 206 255
173 206 255
173 206 255
173 206 255
173 206 255
173 206 255
172 206 255
172 206 255
172 206 255
172 206 255
172 205 255
172 205 255
172 205 255
172 205 255
172 205 255
172 205 255
172 205 255
172 205 255
172 205 255
171 205 255
171 205 255
171 205 255
171 205 255
171 205 255
171 205 255
171 205 255
171 205 255
171 205 255
171 205 255
171 205 255
171 205 255
171 205 255
170 204 255
170 204 255
170 204 255
170 204 255
170 204 255
170 204 255
170 204 255
170 204 255
170 204 255
170 204 255
170 204 255
170 204 255
170 204 255
170 204 255
169 204 255
169 204 255
169 204 255
169 204 255
169 204 255
169 204 255
169 204 255
169 204 255
129 112 138
108 57 66
110 58 69
108 57 66
109 57 64
108 57 62
109 58 69
104 55 61
104 55 58
108 57 69
106 56 58
108 56 66
109 57 64
107 57 59
105 56 61
104 56 58
104 56 61
107 57 58
101 55 53
106 56 56
105 56 55
107 57 62
105 56 59
105 55 58
104 56 58
107 57 67
105 56 59
111 58 66
108 57 66
111 58 64
110 58 64
108 57 61
114 59 66
108 57 66
103 55 53
109 57 66
105 56 58
106 56 59
109 57 62
105 55 49
103 55 55
102 55 55
104 55 55
107 57 61
105 56 61
112 58 64
105 56 56
100 54 52
109 57 64
110 58 66
107 57 62
107 56 62
104 56 62
107 57 62
103 55 53
107 56 58
103 55 56
107 57 62
111 58 66
107 57 61
106 57 64
104 56 56
109 57 58
102 54 53
106 57 62
111 58 67
111 58 67
103 55 59
107 57 61
110 57 64
102 55 58
103 55 49
107 57 61
112 58 69
109 58 67
105 57 69
108 57 62
105 56 61
105 56 55
106 56 62
106 57 62
105 56 56
105 56 62
110 58 64
105 56 56
101 54 55
107 57 64
108 57 66
104 56 59
108 58 70
107 57 66
106 56 61
129 113 141
169 204 255
169 204 255
169 204 255
169 204 255
169 204 255
169 204 255
169 204 255
170 204 255
170 204 255
170 204 255
170 204 255
170 204 255
170 204 255
170 204 255
170 204 255
170 204 255
170 204 255
170 204 255
170 204 255
170 204 255
170 204 255
170 204 255
171 205 255
171 205 255
171 205 255
171 205 255
171 205 255
171 205 255
171 205 255
171 205 255
171 205 255
171 205 255
171 205 255
171 205 255
171 205 255
172 205 255
172 205 255
172 205 255
172 205 255
172 205 255
172 205 255
172 205 255
172 205 255
172 205 255
172 206 255
172 206 255
172 206 255
172 206 255
173 206 255
173 206 255
173 206 255
173 206 255
173 206 255
173 206 255
173 206 255
173 206 255
173 206 255
173 206 255
173 206 255
173 206 255
173 206 255
174 206 255
174 206 255
174 206 255
174 206 255
174 206 255
174 207 255
174 207 255
174 207 255
174 207 255
174 207 255
174 207 255
174 207 255
174 207 255
174 207 255
175 207 255
175 207 255
175 207 255
175 207 255
175 207 255
175 207 255
175 207 255
175 207 255
175 207 255
175 207 255
175 207 255
175 207 255
175 207 255
175 207 255
175 207 255
176 208 255
176 208 255
176 208 255
176 208 255
176 208 255
176 208 255
176 208 255
176 208 255
176 208 255
176 208 255
176 208 255
176 208 255
176 208 255
176 208 255
176 208 255
176 208 255
177 208 255
177 208 255
177 208 255
177 208 255
177 208 255
177 208 255
177 208 255
177 208 255
177 208 255
177 208 255
177 208 255
177 209 255
177 209 255
177 209 255
177 209 255
177 209 255
177 209 255
178 209 255
178 209 255
178 209 255
178 209 255
178 209 255
178 209 255
178 209 255
178 209 255
178 209 255
178 209 255
178 209 255
178 209 255
178 209 255
178 209 255
178 209 255
178 209 255
178 209 255
178 209 255
178 209 255
178 209 255
179 209 255
179 209 255
179 209 255
179 209 255
179 209 255
179 209 255
179 210 255
179 210 255
179 210 255
179 210 255
179 210 255
179 210 255
179 210 255
179 210 255
179 210 255
179 210 255
179 210 255
179 210 255
179 210 255
179 210 255
179 209 255
179 209 255
179 209 255
179 209 255
179 209 255
179 209 255
179 209 255
178 209 255
178 209 255
178 209 255
178 209 255
178 209 255
178 209 255
178 209 255
178 209 255
178 209 255
178 209 255
178 209 255
178 209 255
178 209 255
178 209 255
178 209 255
178 209 255
178 209 255
178 209 255
178 209 255
177 209 255
177 209 255
177 209 255
177 209 255
177 209 255
177 209 255
177 208 255
177 208 255
177 208 255
177 208 255
177 208 255
177 208 255
177 208 255
177 208 255
177 208 255
177 208 255
177 208 255
176 208 255
176 208 255
176 208 255
176 208 255
176 208 255
176 208 255
176 208 255
176 208 255
176 208 255
176 208 255
176 208 255
176 208 255
176 208 255
176 208 255
176 208 255
176 208 255
176 208 255
175 207 255
175 207 255
175 207 255
175 207 255
175 207 255
175 207 255
175 207 255
175 207 255
175 207 255
175 207 255
175 207 255
175 207 255
175 207 255
175 207 255
174 207 255
174 207 255
174 207 255
174 207 255
174 207 255
174 207 255
174 207 255
174 207 255
174 207 255
174 206 255
174 206 255
174 206 255
174 206 255
174 206 255
173 206 255
173 206 255
173 206 255
173 206 255
173 206 255
173 206 255
173 206 255
173 206 255
173 206 255
173 206 255
173 206 255
173 206 255
173 206 255
172 206 255
172 206 255
172 206 255
172 206 255
172 206 255
172 205 255
172 205 255
172 205 255
172 205 255
172 205 255
172 205 255
172 205 255
172 205 255
172 205 255
171 205 255
171 205 255
171 205 255
171 205 255
171 205 255
171 205 255
171 205 255
171 205 255
171 205 255
171 205 255
171 205 255
171 205 255
171 205 255
170 204 255
170 204 255
170 204 255
170 204 255
170 204 255
170 204 255
170 204 255
170 204 255
170 204 255
170 204 255
170 204 255
170 204 255
170 204 255
170 204 255
170 204 255
137 130 163
105 56 58
104 56 56
110 58 64
109 57 64
106 56 62
106 56 59
107 57 61
102 55 58
104 56 59
102 55 59
103 55 58
109 57 66
104 56 59
108 57 66
107 57 69
105 56 62
99 54 55
104 56 59
108 57 67
105 55 59
111 57 61
111 58 61
107 57 61
114 59 64
110 57 58
103 54 53
106 56 55
107 56 52
106 55 50
108 57 64
106 56 61
103 54 58
103 55 56
104 56 58
110 57 61
107 57 59
106 57 67
109 56 58
110 57 66
108 57 66
110 57 56
105 55 52
107 57 64
106 56 59
108 57 64
105 56 56
104 56 58
105 55 53
105 56 62
110 58 64
104 55 55
106 56 59
108 56 58
104 56 61
105 56 59
109 57 59
103 55 58
102 55 52
104 55 53
109 57 66
106 57 64
102 55 52
109 57 62
110 58 69
106 56 55
106 57 64
101 54 53
107 57 62
108 57 64
106 56 58
108 57 58
109 58 64
104 56 59
105 56 64
106 56 62
106 56 59
106 56 61
103 55 55
110 58 62
110 58 64
107 57 61
106 56 62
109 57 64
109 57 64
108 57 66
106 57 62
107 57 61
103 55 58
108 57 64
107 56 61
106 56 62
109 58 70
105 56 62
139 133 163
170 204 255
170 204 255
170 204 255
170 204 255
170 204 255
170 204 255
170 204 255
170 204 255
170 204 255
170 204 255
170 204 255
170 204 255
170 204 255
170 204 255
170 204 255
171 205 255
171 205 255
171 205 255
171 205 255
171 205 255
171 205 255
171 205 255
171 205 255
171 205 255
171 205 255
171 205 255
171 205 255
171 205 255
171 205 255
172 205 255
172 205 255
172 205 255
172 205 255
172 205 255
172 205 255
172 205 255
172 205 255
172 206 255
172 206 255
172 206 255
172 206 255
172 206 255
173 206 255
173 206 255
173 206 255
173 206 255
173 206 255
173 206 255
173 206 255
173 206 255
173 206 255
173 206 255
173 206 255
173 206 255
173 206 255
174 206 255
174 206 255
174 206 255
174 206 255
174 206 255
174 207 255
174 207 255
174 207 255
174 207 255
174 207 255
174 207 255
174 207 255
174 207 255
174 207 255
175 207 255
175 207 255
175 207 255
175 207 255
175 207 255
175 207 255
175 207 255
175 207 255
175 207 255
175 207 255
175 207 255
175 207 255
175 207 255
175 207 255
176 208 255
176 208 255
176 208 255
176 208 255
176 208 255
176 208 255
176 208 255
176 208 255
176 208 255
176 208 255
176 208 255
176 208 255
176 208 255
176 208 255
176 208 255
176 208 255
176 208 255
177 208 255
177 208 255
177 208 255
177 208 255
177 208 255
177 208 255
177 208 255
177 208 255
177 208 255
177 208 255
177 208 255
177 209 255
177 209 255
177 209 255
177 209 255
177 209 255
177 209 255
178 209 255
178 209 255
178 209 255
178 209 255
178 209 255
178 209 255
178 209 255
178 209 255
178 209 255
178 209 255
178 209 255
178 209 255
178 209 255
178 209 255
178 209 255
178 209 255
178 209 255
178 209 255
178 209 255
179 209 255
179 209 255
179 209 255
179 209 255
179 209 255
179 209 255
179 209 255
179 210 255
179 210 255
179 210 255
179 210 255
179 210 255
179 210 255
179 210 255
179 210 255
179 210 255
179 210 255
179 210 255
179 210 255
179 210 255
179 210 255
179 210 255
179 210 255
179 210 255
179 210 255
179 210 255
179 210 255
179 210 255
179 210 255
179 210 255
179 210 255
179 210 255
179 209 255
179 209 255
179 209 255
179 209 255
179 209 255
179 209 255
179 209 255
178 209 255
178 209 255
178 209 255
178 209 255
178 209 255
178 209 255
178 209 255
178 209 255
178 209 255
178 209 255
178 209 255
178 209 255
178 209 255
178 209 255
178 209 255
178 209 255
178 209 255
178 209 255
178 209 255
177 209 255
177 209 255
177 209 255
177 209 255
177 209 255
177 208 255
177 208 255
177 208 255
177 208 255
177 208 255
177 208 255
177 208 255
177 208 255
177 208 255
177 208 255
177 208 255
177 208 255
176 208 255
176 208 255
176 208 255
176 208 255
176 208 255
176 208 255
176 208 255
176 208 255
176 208 255
176 208 255
176 208 255
176 208 255
176 208 255
176 208 255
176 208 255
175 207 255
175 207 255
175 207 255
175 207 255
175 207 255
175 207 255
175 207 255
175 207 255
175 207 255
175 207 255
175 207 255
175 207 255
175 207 255
175 207 255
175 207 255
174 207 255
174 207 255
174 207 255
174 207 255
174 207 255
174 207 255
174 207 255
174 207 255
174 207 255
174 206 255
174 206 255
174 206 255
174 206 255
174 206 255
173 206 255
173 206 255
173 206 255
173 206 255
173 206 255
173 206 255
173 206 255
173 206 255
173 206 255
173 206 255
173 206 255
173 206 255
173 206 255
172 206 255
172 206 255
172 206 255
172 206 255
172 206 255
172 205 255
172 205 255
172 205 255
172 205 255
172 205 255
172 205 255
172 205 255
172 205 255
172 205 255
171 205 255
171 205 255
171 205 255
171 205 255
171 205 255
171 205 255
171 205 255
171 205 255
171 205 255
171 205 255
171 205 255
171 205 255
171 205 255
171 205 255
170 204 255
170 204 255
170 204 255
170 204 255
170 204 255
170 204 255
170 204 255
170 204 255
147 141 175
109 57 66
104 56 69
104 56 62
108 57 61
110 57 66
111 58 67
109 58 69
110 58 66
102 55 62
104 56 61
103 56 61
107 57 66
102 55 58
107 57 66
109 58 67
110 57 67
105 55 59
108 57 62
106 56 61
104 56 58
105 55 55
102 55 55
103 55 58
108 57 64
106 55 52
107 56 64
101 55 53
104 56 62
106 56 61
107 57 61
109 57 62
111 58 69
109 57 59
110 57 61
107 56 58
107 57 62
104 56 56
104 55 55
105 56 66
104 56 59
110 58 69
104 56 58
104 56 58
97 52 49
109 57 62
105 55 55
105 56 59
107 57 67
106 55 58
106 56 56
107 57 61
106 56 59
107 57 61
108 57 64
103 55 56
110 57 61
107 57 64
105 55 47
106 56 61
104 55 59
110 58 64
109 58 67
105 56 62
104 56 59
107 57 66
109 57 62
110 58 62
105 55 56
110 58 67
105 56 61
106 57 64
104 56 62
109 57 62
111 57 64
107 56 59
107 57 62
107 57 61
107 57 67
107 56 56
109 58 67
105 56 62
108 57 66
107 56 67
104 55 55
108 57 59
106 56 56
108 58 69
104 56 58
101 54 52
108 57 62
110 58 72
104 56 61
109 58 64
107 57 67
103 55 50
136 127 155
170 204 255
170 204 255
170 204 255
170 204 255
170 204 255
170 204 255
170 204 255
170 204 255
171 205 255
171 205 255
171 205 255
171 205 255
171 205 255
171 205 255
171 205 255
171 205 255
171 205 255
171 205 255
171 205 255
171 205 255
171 205 255
171 205 255
172 205 255
172 205 255
172 205 255
172 205 255
172 205 255
172 205 255
172 205 255
172 205 255
172 205 255
172 206 255
172 206 255
172 206 255
172 206 255
172 206 255
173 206 255
173 206 255
173 206 255
173 206 255
173 206 255
173 206 255
173 206 255
173 206 255
173 206 255
173 206 255
173 206 255
173 206 255
173 206 255
174 206 255
174 206 255
174 206 255
174 206 255
174 207 255
174 207 255
174 207 255
174 207 255
174 207 255
174 207 255
174 207 255
174 207 255
174 207 255
174 207 255
175 207 255
175 207 255
175 207 255
175 207 255
175 207 255
175 207 255
175 207 255
175 207 255
175 207 255
175 207 255
175 207 255
175 207 255
175 207 255
175 207 255
176 208 255
176 208 255
176 208 255
176 208 255
176 208 255
176 208 255
176 208 255
176 208 255
176 208 255
176 208 255
176 208 255
176 208 255
176 208 255
176 208 255
176 208 255
176 208 255
176 208 255
177 208 255
177 208 255
177 208 255
177 208 255
177 208 255
177 208 255
177 208 255
177 208 255
177 208 255
177 208 255
177 208 255
177 209 255
177 209 255
177 209 255
177 209 255
177 209 255
178 209 255
178 209 255
178 209 255
178 209 255
178 209 255
178 209 255
178 209 255
178 209 255
178 209 255
178 209 255
178 209 255
178 209 255
178 209 255
178 209 255
178 209 255
178 209 255
178 209 255
178 209 255
178 209 255
179 209 255
179 209 255
179 209 255
179 209 255
179 209 255
179 209 255
179 209 255
179 210 255
179 210 255
179 210 255
179 210 255
179 210 255
179 210 255
179 210 255
179 210 255
179 210 255
179 210 255
179 210 255
179 210 255
179 210 255
179 210 255
180 210 255
180 210 255
180 210 255
180 210 255
180 210 255
180 210 255
180 210 255
180 210 255
179 210 255
179 210 255
179 210 255
179 210 255
179 210 255
179 210 255
179 210 255
179 210 255
179 210 255
179 210 255
179 210 255
179 210 255
179 210 255
179 210 255
179 210 255
179 209 255
179 209 255
179 209 255
179 209 255
179 209 255
179 209 255
178 209 255
178 209 255
178 209 255
178 209 255
178 209 255
178 209 255
178 209 255
178 209 255
178 209 255
178 209 255
178 209 255
178 209 255
178 209 255
178 209 255
178 209 255
178 209 255
178 209 255
178 209 255
178 209 255
177 209 255
177 209 255
177 209 255
177 209 255
177 209 255
177 209 255
177 208 255
177 208 255
177 208 255
177 208 255
177 208 255
177 208 255
177 208 255
177 208 255
177 208 255
177 208 255
177 208 255
176 208 255
176 208 255
176 208 255
176 208 255
176 208 255
176 208 255
176 208 255
176 208 255
176 208 255
176 208 255
176 208 255
176 208 255
176 208 255
176 208 255
176 208 255
176 208 255
175 207 255
175 207 255
175 207 255
175 207 255
175 207 255
175 207 255
175 207 255
175 207 255
175 207 255
175 207 255
175 207 255
175 207 255
175 207 255
175 207 255
174 207 255
174 207 255
174 207 255
174 207 255
174 207 255
174 207 255
174 207 255
174 207 255
174 207 255
174 206 255
174 206 255
174 206 255
174 206 255
174 206 255
174 206 255
173 206 255
173 206 255
173 206 255
173 206 255
173 206 255
173 206 255
173 206 255
173 206 255
173 206 255
173 206 255
173 206 255
173 206 255
173 206 255
172 206 255
172 206 255
172 206 255
172 206 255
172 206 255
172 205 255
172 205 255
172 205 255
172 205 255
172 205 255
172 205 255
172 205 255
172 205 255
172 205 255
171 205 255
171 205 255
171 205 255
171 205 255
171 205 255
171 205 255
171 205 255
171 205 255
171 205 255
171 205 255
171 205 255
171 205 255
171 205 255
171 205 255
171 205 255
143 138 173
110 58 67
104 56 61
110 58 69
108 57 64
104 55 53
104 55 52
109 57 59
105 56 58
102 55 52
105 56 56
110 58 69
108 57 62
109 57 62
107 57 59
102 54 55
104 56 64
104 56 61
108 58 69
106 55 59
109 57 58
107 56 59
102 55 59
107 56 59
102 55 62
107 56 61
105 56 55
104 55 58
109 58 66
110 57 59
106 56 58
106 56 53
104 55 58
109 57 62
109 57 61
105 56 55
103 55 53
106 56 61
106 56 59
107 57 64
104 56 56
109 57 61
108 57 61
107 57 61
111 58 66
108 57 64
106 56 58
107 56 64
108 56 55
107 56 53
109 57 62
107 56 56
104 56 58
107 57 62
106 56 58
102 55 58
108 57 56
105 55 52
102 54 55
102 54 58
102 54 44
111 58 61
107 56 59
109 57 67
108 57 66
102 55 66
107 57 62
105 56 58
104 56 66
107 56 55
103 55 58
108 57 64
106 56 55
105 56 61
105 55 58
104 55 53
109 57 64
109 57 66
106 56 61
104 55 52
105 56 64
106 56 59
108 57 66
109 57 59
110 58 67
108 57 59
104 56 61
103 55 59
108 57 62
109 57 64
107 57 64
105 55 55
108 57 69
107 57 69
108 57 64
105 56 61
105 55 53
107 57 67
146 156 190
171 205 255
171 205 255
171 205 255
171 205 255
171 205 255
171 205 255
171 205 255
171 205 255
171 205 255
171 205 255
171 205 255
171 205 255
171 205 255
171 205 255
171 205 255
172 205 255
172 205 255
172 205 255
172 205 255
172 205 255
172 205 255
172 205 255
172 205 255
172 205 255
172 206 255
172 206 255
172 206 255
172 206 255
172 206 255
173 206 255
173 206 255
173 206 255
173 206 255
173 206 255
173 206 255
173 206 255
173 206 255
173 206 255
173 206 255
173 206 255
173 206 255
173 206 255
173 206 255
174 206 255
174 206 255
174 206 255
174 206 255
174 207 255
174 207 255
174 207 255
174 207 255
174 207 255
174 207 255
174 207 255
174 207 255
174 207 255
174 207 255
175 207 255
175 207 255
175 207 255
175 207 255
175 207 255
175 207 255
175 207 255
175 207 255
175 207 255
175 207 255
175 207 255
175 207 255
175 207 255
175 207 255
176 208 255
176 208 255
176 208 255
176 208 255
176 208 255
176 208 255
176 208 255
176 208 255
176 208 255
176 208 255
176 208 255
176 208 255
176 208 255
176 208 255
176 208 255
176 208 255
177 208 255
177 208 255
177 208 255
177 208 255
177 208 255
177 208 255
177 208 255
177 208 255
177 208 255
177 208 255
177 208 255
177 209 255
177 209 255
177 209 255
177 209 255
177 209 255
178 209 255
178 209 255
178 209 255
178 209 255
178 209 255
178 209 255
178 209 255
178 209 255
178 209 255
178 209 255
178 209 255
178 209 255
178 209 255
178 209 255
178 209 255
178 209 255
178 209 255
178 209 255
178 209 255
179 209 255
179 209 255
179 209 255
179 209 255
179 209 255
179 209 255
179 209 255
179 210 255
179 210 255
179 210 255
179 210 255
179 210 255
179 210 255
179 210 255
179 210 255
179 210 255
179 210 255
179 210 255
179 210 255
179 210 255
179 210 255
180 210 255
180 210 255
180 210 255
180 210 255
180 210 255
180 210 255
180 210 255
180 210 255
180 210 255
180 210 255
180 210 255
180 210 255
180 210 255
180 210 255
180 210 255
180 210 255
180 210 255
180 210 255
180 210 255
180 210 255
180 210 255
179 210 255
179 210 255
179 210 255
179 210 255
179 210 255
179 210 255
179 210 255
179 210 255
179 210 255
179 210 255
179 210 255
179 210 255
179 210 255
179 210 255
179 209 255
179 209 255
179 209 255
179 209 255
179 209 255
179 209 255
179 209 255
178 209 255
178 209 255
178 209 255
178 209 255
178 209 255
178 209 255
178 209 255
178 209 255
178 209 255
178 209 255
178 209 255
178 209 255
178 209 255
178 209 255
178 209 255
178 209 255
178 209 255
178 209 255
177 209 255
177 209 255
177 209 255
177 209 255
177 209 255
177 208 255
177 208 255
177 208 255
177 208 255
177 208 255
177 208 255
177 208 255
177 208 255
177 208 255
177 208 255
177 208 255
177 208 255
176 208 255
176 208 255
176 208 255
176 208 255
176 208 255
176 208 255
176 208 255
176 208 255
176 208 255
176 208 255
176 208 255
176 208 255
176 208 255
176 208 255
176 208 255
175 207 255
175 207 255
175 207 255
175 207 255
175 207 255
175 207 255
175 207 255
175 207 255
175 207 255
175 207 255
175 207 255
175 207 255
175 207 255
175 207 255
174 207 255
174 207 255
174 207 255
174 207 255
174 207 255
174 207 255
174 207 255
174 207 255
174 207 255
174 207 255
174 206 255
174 206 255
174 206 255
174 206 255
173 206 255
173 206 255
173 206 255
173 206 255
173 206 255
173 206 255
173 206 255
173 206 255
173 206 255
173 206 255
173 206 255
173 206 255
173 206 255
173 206 255
173 206 255
172 206 255
172 206 255
172 206 255
172 206 255
172 206 255
172 205 255
172 205 255
172 205 255
172 205 255
172 205 255
172 205 255
172 205 255
172 205 255
172 205 255
171 205 255
171 205 255
171 205 255
171 205 255
171 205 255
171 205 255
171 205 255
171 205 255
159 173 216
111 65 78
108 57 61
105 56 64
106 56 59
107 57 61
105 56 58
106 57 62
105 56 55
107 57 59
105 56 58
105 56 61
102 55 50
108 57 61
104 56 59
103 55 52
109 57 64
105 56 64
106 56 59
109 58 69
109 57 62
104 55 56
109 57 62
106 56 58
104 56 59
104 56 58
109 57 66
105 56 58
107 57 69
105 56 56
109 57 58
107 57 61
104 55 55
102 55 58
104 55 50
106 56 61
110 58 64
103 55 56
105 56 58
107 56 61
106 56 58
108 57 61
104 54 55
106 56 56
104 55 52
107 56 53
106 56 62
112 59 67
105 56 59
105 56 58
104 55 52
105 56 55
106 56 58
107 57 62
103 55 55
102 55 59
110 58 66
110 58 64
105 56 58
103 55 56
106 56 59
103 54 53
111 58 66
107 56 61
104 55 56
107 57 64
106 56 58
111 58 64
106 56 62
105 56 59
106 57 67
104 55 58
107 57 61
108 57 59
106 57 62
107 57 64
104 56 58
105 56 61
107 56 59
105 55 52
107 56 62
106 56 64
111 58 69
108 57 59
108 57 64
104 55 56
108 56 61
106 56 59
109 57 66
107 57 67
107 56 59
104 55 50
110 58 69
108 57 61
108 57 66
107 56 59
109 58 66
102 55 62
106 57 64
108 63 74
156 170 212
171 205 255
171 205 255
171 205 255
171 205 255
171 205 255
171 205 255
171 205 255
171 205 255
172 205 255
172 205 255
172 205 255
172 205 255
172 205 255
172 205 255
172 205 255
172 205 255
172 205 255
172 205 255
172 206 255
172 206 255
172 206 255
172 206 255
173 206 255
173 206 255
173 206 255
173 206 255
173 206 255
173 206 255
173 206 255
173 206 255
173 206 255
173 206 255
173 206 255
173 206 255
173 206 255
173 206 255
174 206 255
174 206 255
174 206 255
174 206 255
174 206 255
174 207 255
174 207 255
174 207 255
174 207 255
174 207 255
174 207 255
174 207 255
174 207 255
174 207 255
175 207 255
175 207 255
175 207 255
175 207 255
175 207 255
175 207 255
175 207 255
175 207 255
175 207 255
175 207 255
175 207 255
175 207 255
175 207 255
175 207 255
175 207 255
176 208 255
176 208 255
176 208 255
176 208 255
176 208 255
176 208 255
176 208 255
176 208 255
176 208 255
176 208 255
176 208 255
176 208 255
176 208 255
176 208 255
176 208 255
176 208 255
177 208 255
177 208 255
177 208 255
177 208 255
177 208 255
177 208 255
177 208 255
177 208 255
177 208 255
177 208 255
177 208 255
177 209 255
177 209 255
177 209 255
177 209 255
177 209 255
178 209 255
178 209 255
178 209 255
178 209 255
178 209 255
178 209 255
178 209 255
178 209 255
178 209 255
178 209 255
178 209 255
178 209 255
178 209 255
178 209 255
178 209 255
178 209 255
178 209 255
178 209 255
178 209 255
179 209 255
179 209 255
179 209 255
179 209 255
179 209 255
179 209 255
179 210 255
179 210 255
179 210 255
179 210 255
179 210 255
179 210 255
179 210 255
179 210 255
179 210 255
179 210 255
179 210 255
179 210 255
179 210 255
179 210 255
180 210 255
180 210 255
180 210 255
180 210 255
180 210 255
180 210 255
180 210 255
180 210 255
180 210 255
180 210 255
180 210 255
180 210 255
180 210 255
180 210 255
180 210 255
180 210 255
180 210 255
180 210 255
180 210 255
180 210 255
180 210 255
180 210 255
180 210 255
180 210 255
180 210 255
180 210 255
180 210 255
180 210 255
180 210 255
180 210 255
180 210 255
180 210 255
180 210 255
179 210 255
179 210 255
179 210 255
179 210 255
179 210 255
179 210 255
179 210 255
179 210 255
179 210 255
179 210 255
179 210 255
179 210 255
179 210 255
179 210 255
179 209 255
179 209 255
179 209 255
179 209 255
179 209 255
179 209 255
178 209 255
178 209 255
178 209 255
178 209 255
178 209 255
178 209 255
178 209 255
178 209 255
178 209 255
178 209 255
178 209 255
178 209 255
178 209 255
178 209 255
178 209 255
178 209 255
178 209 255
178 209 255
178 209 255
177 209 255
177 209 255
177 209 255
177 209 255
177 209 255
177 208 255
177 208 255
177 208 255
177 208 255
177 208 255
177 208 255
177 208 255
177 208 255
177 208 255
177 208 255
177 208 255
176 208 255
176 208 255
176 208 255
176 208 255
176 208 255
176 208 255
176 208 255
176 208 255
176 208 255
176 208 255
176 208 255
176 208 255
176 208 255
176 208 255
176 208 255
175 207 255
175 207 255
175 207 255
175 207 255
175 207 255
175 207 255
175 207 255
175 207 255
175 207 255
175 207 255
175 207 255
175 207 255
175 207 255
175 207 255
175 207 255
174 207 255
174 207 255
174 207 255
174 207 255
174 207 255
174 207 255
174 207 255
174 207 255
174 207 255
174 207 255
174 206 255
174 206 255
174 206 255
174 206 255
173 206 255
173 206 255
173 206 255
173 206 255
173 206 255
173 206 255
173 206 255
173 206 255
173 206 255
173 206 255
173 206 255
173 206 255
173 206 255
173 206 255
173 206 255
172 206 255
172 206 255
172 206 255
172 206 255
172 205 255
172 205 255
172 205 255
172 205 255
172 205 255
172 205 255
172 205 255
172 205 255
172 205 255
172 205 255
172 205 255
166 193 240
114 72 80
105 56 62
101 54 58
107 57 62
110 58 64
107 57 61
104 56 58
104 55 55
106 56 59
106 56 61
109 58 69
108 57 62
107 56 64
107 57 62
108 57 58
105 56 58
108 57 64
110 57 59
103 54 52
97 53 46
109 57 62
105 56 55
106 56 58
106 56 62
107 57 62
109 57 69
105 56 56
106 56 55
103 55 53
105 55 56
109 57 62
110 58 67
104 56 56
107 56 64
106 56 61
108 56 62
113 58 62
105 56 58
110 58 64
110 57 58
105 56 56
104 56 59
103 55 53
103 55 55
110 57 61
108 55 56
103 55 55
105 56 58
107 57 59
103 54 53
109 57 64
99 54 56
106 56 56
105 56 61
104 56 56
107 57 59
104 55 52
109 57 61
109 57 64
106 56 58
107 56 56
107 56 56
107 57 59
103 54 49
103 55 55
111 58 66
107 57 61
99 53 50
107 57 62
109 57 62
108 57 61
106 56 58
106 55 58
101 53 47
106 56 55
104 56 58
104 56 58
107 57 61
107 57 61
107 56 56
104 55 56
103 55 61
107 57 66
110 57 59
104 55 47
104 55 55
106 55 56
107 57 62
111 58 62
110 57 61
104 56 59
108 57 61
102 54 47
108 57 67
109 57 61
103 55 56
104 56 61
106 57 64
106 56 61
111 58 69
110 70 79
167 193 241
172 205 255
172 205 255
172 205 255
172 205 255
172 205 255
172 205 255
172 205 255
172 205 255
172 205 255
172 205 255
172 206 255
172 206 255
172 206 255
172 206 255
172 206 255
173 206 255
173 206 255
173 206 255
173 206 255
173 206 255
173 206 255
173 206 255
173 206 255
173 206 255
173 206 255
173 206 255
173 206 255
173 206 255
173 206 255
173 206 255
174 206 255
174 206 255
174 206 255
174 206 255
174 207 255
174 207 255
174 207 255
174 207 255
174 207 255
174 207 255
174 207 255
174 207 255
174 207 255
174 207 255
175 207 255
175 207 255
175 207 255
175 207 255
175 207 255
175 207 255
175 207 255
175 207 255
175 207 255
175 207 255
175 207 255
175 207 255
175 207 255
175 207 255
175 207 255
176 208 255
176 208 255
176 208 255
176 208 255
176 208 255
176 208 255
176 208 255
176 208 255
176 208 255
176 208 255
176 208 255
176 208 255
176 208 255
176 208 255
176 208 255
177 208 255
177 208 255
177 208 255
177 208 255
177 208 255
177 208 255
177 208 255
177 208 255
177 208 255
177 208 255
177 208 255
177 209 255
177 209 255
177 209 255
177 209 255
177 209 255
177 209 255
178 209 255
178 209 255
178 209 255
178 209 255
178 209 255
178 209 255
178 209 255
178 209 255
178 209 255
178 209 255
178 209 255
178 209 255
178 209 255
178 209 255
178 209 255
178 209 255
178 209 255
178 209 255
179 209 255
179 209 255
179 209 255
179 209 255
179 209 255
179 209 255
179 210 255
179 210 255
179 210 255
179 210 255
179 210 255
179 210 255
179 210 255
179 210 255
179 210 255
179 210 255
179 210 255
179 210 255
179 210 255
179 210 255
180 210 255
180 210 255
180 210 255
180 210 255
180 210 255
180 210 255
180 210 255
180 210 255
180 210 255
180 210 255
180 210 255
180 210 255
180 210 255
180 210 255
180 210 255
180 210 255
180 210 255
180 210 255
180 210 255
180 210 255
181 211 255
181 211 255
180 210 255
180 210 255
180 210 255
180 210 255
180 210 255
180 210 255
180 210 255
180 210 255
180 210 255
180 210 255
180 210 255
180 210 255
180 210 255
180 210 255
180 210 255
180 210 255
180 210 255
180 210 255
180 210 255
180 210 255
180 210 255
180 210 255
180 210 255
179 210 255
179 210 255
179 210 255
179 210 255
179 210 255
179 210 255
179 210 255
179 210 255
179 210 255
179 210 255
179 210 255
179 210 255
179 210 255
179 210 255
179 209 255
179 209 255
179 209 255
179 209 255
179 209 255
179 209 255
178 209 255
178 209 255
178 209 255
178 209 255
178 209 255
178 209 255
178 209 255
178 209 255
178 209 255
178 209 255
178 209 255
178 209 255
178 209 255
178 209 255
178 209 255
178 209 255
178 209 255
178 209 255
177 209 255
177 209 255
177 209 255
177 209 255
177 209 255
177 209 255
177 208 255
177 208 255
177 208 255
177 208 255
177 208 255
177 208 255
177 208 255
177 208 255
177 208 255
177 208 255
176 208 255
176 208 255
176 208 255
176 208 255
176 208 255
176 208 255
176 208 255
176 208 255
176 208 255
176 208 255
176 208 255
176 208 255
176 208 255
176 208 255
176 208 255
176 208 255
175 207 255
175 207 255
175 207 255
175 207 255
175 207 255
175 207 255
175 207 255
175 207 255
175 207 255
175 207 255
175 207 255
175 207 255
175 207 255
175 207 255
175 207 255
174 207 255
174 207 255
174 207 255
174 207 255
174 207 255
174 207 255
174 207 255
174 207 255
174 207 255
174 206 255
174 206 255
174 206 255
174 206 255
174 206 255
174 206 255
173 206 255
173 206 255
173 206 255
173 206 255
173 206 255
173 206 255
173 206 255
173 206 255
173 206 255
173 206 255
173 206 255
173 206 255
173 206 255
173 206 255
173 206 255
172 206 255
172 206 255
172 206 255
172 206 255
172 206 255
172 205 255
172 205 255
166 191 238
125 96 115
105 56 62
104 55 59
107 57 64
106 56 61
104 55 47
103 56 66
108 56 62
111 58 67
108 57 64
105 56 55
105 55 56
108 57 64
107 57 59
107 57 64
107 57 61
102 54 56
108 57 66
106 56 58
106 57 62
99 53 52
104 55 55
107 56 59
104 55 56
107 56 59
105 56 62
107 57 62
108 57 62
106 56 50
106 55 58
106 56 62
107 56 59
107 56 55
104 55 59
102 55 50
104 55 50
103 54 47
106 56 58
109 56 59
105 56 58
105 56 55
100 54 50
105 55 50
109 58 66
106 56 61
106 56 55
108 57 61
104 55 56
109 57 56
109 57 58
106 56 59
107 56 61
108 57 61
107 57 62
105 56 61
107 56 56
103 55 55
101 54 49
103 55 58
109 57 58
105 55 55
105 56 56
103 55 56
112 58 66
110 58 64
106 56 61
107 56 58
101 54 52
107 56 58
106 56 58
100 53 44
103 55 56
107 57 62
105 54 55
107 56 58
106 56 59
108 57 64
101 53 46
108 57 61
109 57 58
108 57 66
105 56 58
111 58 66
106 56 59
107 57 61
106 56 55
106 56 62
107 57 61
109 57 64
104 56 56
106 56 56
104 55 52
106 56 53
108 57 66
105 56 58
108 57 58
106 56 62
104 56 58
106 56 59
106 56 59
111 58 61
109 58 67
121 94 109
171 202 252
172 205 255
172 205 255
172 206 255
172 206 255
172 206 255
172 206 255
172 206 255
172 206 255
173 206 255
173 206 255
173 206 255
173 206 255
173 206 255
173 206 255
173 206 255
173 206 255
173 206 255
173 206 255
173 206 255
173 206 255
173 206 255
173 206 255
173 206 255
174 206 255
174 206 255
174 206 255
174 206 255
174 207 255
174 207 255
174 207 255
174 207 255
174 207 255
174 207 255
174 207 255
174 207 255
174 207 255
174 207 255
175 207 255
175 207 255
175 207 255
175 207 255
175 207 255
175 207 255
175 207 255
175 207 255
175 207 255
175 207 255
175 207 255
175 207 255
175 207 255
175 207 255
175 207 255
176 208 255
176 208 255
176 208 255
176 208 255
176 208 255
176 208 255
176 208 255
176 208 255
176 208 255
176 208 255
176 208 255
176 208 255
176 208 255
176 208 255
176 208 255
177 208 255
177 208 255
177 208 255
177 208 255
177 208 255
177 208 255
177 208 255
177 208 255
177 208 255
177 208 255
177 208 255
177 209 255
177 209 255
177 209 255
177 209 255
177 209 255
177 209 255
178 209 255
178 209 255
178 209 255
178 209 255
178 209 255
178 209 255
178 209 255
178 209 255
178 209 255
178 209 255
178 209 255
178 209 255
178 209 255
178 209 255
178 209 255
178 209 255
178 209 255
178 209 255
179 209 255
179 209 255
179 209 255
179 209 255
179 209 255
179 209 255
179 210 255
179 210 255
179 210 255
179 210 255
179 210 255
179 210 255
179 210 255
179 210 255
179 210 255
179 210 255
179 210 255
179 210 255
179 210 255
179 210 255
180 210 255
180 210 255
180 210 255
180 210 255
180 210 255
180 210 255
180 210 255
180 210 255
180 210 255
180 210 255
180 210 255
180 210 255
180 210 255
180 210 255
180 210 255
180 210 255
180 210 255
180 210 255
180 210 255
180 210 255
180 210 255
180 210 255
180 210 255
181 211 255
181 211 255
181 211 255
181 211 255
181 211 255
181 211 255
181 211 255
181 211 255
181 211 255
181 211 255
181 211 255
181 211 255
180 210 255
180 210 255
180 210 255
180 210 255
180 210 255
180 210 255
180 210 255
180 210 255
180 210 255
180 210 255
180 210 255
180 210 255
180 210 255
180 210 255
180 210 255
180 210 255
180 210 255
180 210 255
180 210 255
180 210 255
180 210 255
180 210 255
180 210 255
179 210 255
179 210 255
179 210 255
179 210 255
179 210 255
179 210 255
179 210 255
179 210 255
179 210 255
179 210 255
179 210 255
179 210 255
179 210 255
179 209 255
179 209 255
179 209 255
179 209 255
179 209 255
179 209 255
178 209 255
178 209 255
178 209 255
178 209 255
178 209 255
178 209 255
178 209 255
178 209 255
178 209 255
178 209 255
178 209 255
178 209 255
178 209 255
178 209 255
178 209 255
178 209 255
178 209 255
178 209 255
177 209 255
177 209 255
177 209 255
177 209 255
177 209 255
177 209 255
177 208 255
177 208 255
177 208 255
177 208 255
177 208 255
177 208 255
177 208 255
177 208 255
177 208 255
177 208 255
176 208 255
176 208 255
176 208 255
176 208 255
176 208 255
176 208 255
176 208 255
176 208 255
176 208 255
176 208 255
176 208 255
176 208 255
176 208 255
176 208 255
176 208 255
176 208 255
175 207 255
175 207 255
175 207 255
175 207 255
175 207 255
175 207 255
175 207 255
175 207 255
175 207 255
175 207 255
175 207 255
175 207 255
175 207 255
175 207 255
175 207 255
174 207 255
174 207 255
174 207 255
174 207 255
174 207 255
174 207 255
174 207 255
174 207 255
174 207 255
174 207 255
174 206 255
174 206 255
174 206 255
174 206 255
174 206 255
173 206 255
173 206 255
173 206 255
173 206 255
173 206 255
173 206 255
173 206 255
173 206 255
173 206 255
173 206 255
173 206 255
173 206 255
173 206 255
173 206 255
173 206 255
173 206 255
132 111 138
108 57 61
108 57 61
105 56 61
110 58 66
110 58 64
106 57 62
103 56 61
111 58 66
106 56 61
107 56 59
105 55 52
103 55 56
104 56 61
104 55 55
107 56 59
106 56 56
106 56 59
109 57 62
107 56 58
104 56 56
103 55 52
107 56 56
108 56 56
103 55 58
113 58 62
108 57 64
103 55 55
103 55 49
102 55 61
108 57 62
107 56 61
102 54 47
106 56 53
104 56 64
107 56 56
101 55 58
108 56 53
108 57 61
108 57 59
103 55 56
108 57 61
106 56 58
100 54 55
105 56 55
110 58 62
100 54 47
106 56 58
102 55 52
105 56 55
105 56 58
104 55 53
109 57 58
105 56 56
105 55 50
105 56 62
104 56 58
103 55 49
107 57 62
108 57 56
110 58 66
106 56 58
105 56 59
105 54 50
107 57 61
106 56 58
102 54 55
107 57 61
106 56 59
105 55 55
107 56 58
96 52 52
108 56 58
103 55 56
105 56 55
107 56 59
108 57 61
104 55 55
106 57 64
105 56 56
103 55 52
103 55 52
100 54 52
109 58 67
108 57 62
108 57 58
103 55 53
104 56 59
105 55 53
104 55 55
105 56 58
110 58 66
103 55 56
106 57 64
108 57 58
102 55 56
110 57 62
111 58 66
112 58 64
106 56 61
106 56 59
109 58 69
106 56 61
103 55 62
135 125 148
173 206 255
173 206 255
173 206 255
173 206 255
173 206 255
173 206 255
173 206 255
173 206 255
173 206 255
173 206 255
173 206 255
173 206 255
173 206 255
173 206 255
173 206 255
173 206 255
174 206 255
174 206 255
174 206 255
174 206 255
174 206 255
174 207 255
174 207 255
174 207 255
174 207 255
174 207 255
174 207 255
174 207 255
174 207 255
174 207 255
174 207 255
175 207 255
175 207 255
175 207 255
175 207 255
175 207 255
175 207 255
175 207 255
175 207 255
175 207 255
175 207 255
175 207 255
175 207 255
175 207 255
175 207 255
175 207 255
176 208 255
176 208 255
176 208 255
176 208 255
176 208 255
176 208 255
176 208 255
176 208 255
176 208 255
176 208 255
176 208 255
176 208 255
176 208 255
176 208 255
176 208 255
176 208 255
177 208 255
177 208 255
177 208 255
177 208 255
177 208 255
177 208 255
177 208 255
177 208 255
177 208 255
177 208 255
177 209 255
177 209 255
177 209 255
177 209 255
177 209 255
177 209 255
178 209 255
178 209 255
178 209 255
178 209 255
178 209 255
178 209 255
178 209 255
178 209 255
178 209 255
178 209 255
178 209 255
178 209 255
178 209 255
178 209 255
178 209 255
178 209 255
178 209 255
178 209 255
179 209 255
179 209 255
179 209 255
179 209 255
179 209 255
179 209 255
179 210 255
179 210 255
179 210 255
179 210 255
179 210 255
179 210 255
179 210 255
179 210 255
179 210 255
179 210 255
179 210 255
179 210 255
179 210 255
180 210 255
180 210 255
180 210 255
180 210 255
180 210 255
180 210 255
180 210 255
180 210 255
180 210 255
180 210 255
180 210 255
180 210 255
180 210 255
180 210 255
180 210 255
180 210 255
180 210 255
180 210 255
180 210 255
180 210 255
180 210 255
180 210 255
180 210 255
181 211 255
181 211 255
181 211 255
181 211 255
181 211 255
181 211 255
181 211 255
181 211 255
181 211 255
181 211 255
181 211 255
181 211 255
181 211 255
181 211 255
181 211 255
181 211 255
181 211 255
181 211 255
181 211 255
181 211 255
181 211 255
181 211 255
181 211 255
181 211 255
181 211 255
180 210 255
180 210 255
180 210 255
180 210 255
180 210 255
180 210 255
180 210 255
180 210 255
180 210 255
180 210 255
180 210 255
180 210 255
180 210 255
180 210 255
180 210 255
180 210 255
180 210 255
180 210 255
180 210 255
180 210 255
180 210 255
180 210 255
179 210 255
179 210 255
179 210 255
179 210 255
179 210 255
179 210 255
179 210 255
179 210 255
179 210 255
179 210 255
179 210 255
179 210 255
179 210 255
179 210 255
179 209 255
179 209 255
179 209 255
179 209 255
179 209 255
179 209 255
179 209 255
178 209 255
178 209 255
178 209 255
178 209 255
178 209 255
178 209 255
178 209 255
178 209 255
178 209 255
178 209 255
178 209 255
178 209 255
178 209 255
178 209 255
178 209 255
178 209 255
178 209 255
177 209 255
177 209 255
177 209 255
177 209 255
177 209 255
177 209 255
177 208 255
177 208 255
177 208 255
177 208 255
177 208 255
177 208 255
177 208 255
177 208 255
177 208 255
177 208 255
177 208 255
176 208 255
176 208 255
176 208 255
176 208 255
176 208 255
176 208 255
176 208 255
176 208 255
176 208 255
176 208 255
176 208 255
176 208 255
176 208 255
176 208 255
176 208 255
175 207 255
175 207 255
175 207 255
175 207 255
175 207 255
175 207 255
175 207 255
175 207 255
175 207 255
175 207 255
175 207 255
175 207 255
175 207 255
175 207 255
175 207 255
174 207 255
174 207 255
174 207 255
174 207 255
174 207 255
174 207 255
174 207 255
174 207 255
174 207 255
174 207 255
174 206 255
174 206 255
174 206 255
174 206 255
174 206 255
173 206 255
173 206 255
173 206 255
173 206 255
173 206 255
173 206 255
173 206 255
173 206 255
173 206 255
152 161 197
108 57 59
107 57 66
105 56 62
103 55 55
102 55 56
103 55 56
108 57 59
106 56 55
107 56 62
108 57 62
109 58 66
111 58 66
110 58 67
110 58 67
106 56 59
105 56 56
105 56 59
100 54 53
109 58 66
102 55 55
107 57 61
108 57 64
110 58 69
105 56 62
109 57 59
109 57 61
106 56 58
107 56 58
110 57 58
107 57 61
104 56 61
108 56 53
106 56 59
103 55 50
105 56 58
105 56 53
108 57 62
103 55 55
105 55 52
106 56 59
105 56 56
104 55 50
108 57 58
104 55 53
105 56 59
108 57 59
108 57 66
99 53 55
110 57 58
107 57 59
104 55 53
106 56 61
106 56 55
107 55 61
108 57 62
104 55 55
103 54 50
109 57 61
105 56 56
107 57 62
105 56 58
108 57 56
105 56 59
106 56 61
106 56 53
100 54 53
105 56 62
107 56 58
105 56 55
106 56 61
106 56 56
102 55 55
102 54 55
104 56 58
111 58 64
109 57 61
111 58 64
109 57 61
109 57 64
98 52 53
104 55 56
105 56 58
107 56 56
105 56 59
107 56 59
108 57 59
104 55 56
106 56 61
110 58 64
106 56 59
104 56 58
104 55 53
106 57 70
107 56 59
105 56 55
106 56 53
106 56 56
113 58 62
103 55 55
107 56 58
108 57 62
107 57 66
108 57 62
107 57 64
104 55 52
154 164 201
173 206 255
173 206 255
173 206 255
173 206 255
173 206 255
173 206 255
173 206 255
173 206 255
174 206 255
174 206 255
174 206 255
174 206 255
174 206 255
174 206 255
174 207 255
174 207 255
174 207 255
174 207 255
174 207 255
174 207 255
174 207 255
174 207 255
174 207 255
174 207 255
175 207 255
175 207 255
175 207 255
175 207 255
175 207 255
175 207 255
175 207 255
175 207 255
175 207 255
175 207 255
175 207 255
175 207 255
175 207 255
175 207 255
175 207 255
176 208 255
176 208 255
176 208 255
176 208 255
176 208 255
176 208 255
176 208 255
176 208 255
176 208 255
176 208 255
176 208 255
176 208 255
176 208 255
176 208 255
176 208 255
177 208 255
177 208 255
177 208 255
177 208 255
177 208 255
177 208 255
177 208 255
177 208 255
177 208 255
177 208 255
177 208 255
177 209 255
177 209 255
177 209 255
177 209 255
177 209 255
177 209 255
178 209 255
178 209 255
178 209 255
178 209 255
178 209 255
178 209 255
178 209 255
178 209 255
178 209 255
178 209 255
178 209 255
178 209 255
178 209 255
178 209 255
178 209 255
178 209 255
178 209 255
179 209 255
179 209 255
179 209 255
179 209 255
179 209 255
179 209 255
179 209 255
179 210 255
179 210 255
179 210 255
179 210 255
179 210 255
179 210 255
179 210 255
179 210 255
179 210 255
179 210 255
179 210 255
179 210 255
179 210 255
180 210 255
180 210 255
180 210 255
180 210 255
180 210 255
180 210 255
180 210 255
180 210 255
180 210 255
180 210 255
180 210 255
180 210 255
180 210 255
180 210 255
180 210 255
180 210 255
180 210 255
180 210 255
180 210 255
180 210 255
180 210 255
180 210 255
181 211 255
181 211 255
181 211 255
181 211 255
181 211 255
181 211 255
181 211 255
181 211 255
181 211 255
181 211 255
181 211 255
181 211 255
181 211 255
181 211 255
181 211 255
181 211 255
181 211 255
181 211 255
181 211 255
181 211 255
181 211 255
181 211 255
181 211 255
181 211 255
181 211 255
181 211 255
181 211 255
181 211 255
181 211 255
181 211 255
181 211 255
181 211 255
181 211 255
181 211 255
181 211 255
181 211 255
181 211 255
181 211 255
181 211 255
181 211 255
180 210 255
180 210 255
180 210 255
180 210 255
180 210 255
180 210 255
180 210 255
180 210 255
180 210 255
180 210 255
180 210 255
180 210 255
180 210 255
180 210 255
180 210 255
180 210 255
180 210 255
180 210 255
180 210 255
180 210 255
180 210 255
180 210 255
179 210 255
179 210 255
179 210 255
179 210 255
179 210 255
179 210 255
179 210 255
179 210 255
179 210 255
179 210 255
179 210 255
179 210 255
179 209 255
179 209 255
179 209 255
179 209 255
179 209 255
179 209 255
179 209 255
178 209 255
178 209 255
178 209 255
178 209 255
178 209 255
178 209 255
178 209 255
178 209 255
178 209 255
178 209 255
178 209 255
178 209 255
178 209 255
178 209 255
178 209 255
178 209 255
178 209 255
177 209 255
177 209 255
177 209 255
177 209 255
177 209 255
177 209 255
177 208 255
177 208 255
177 208 255
177 208 255
177 208 255
177 208 255
177 208 255
177 208 255
177 208 255
177 208 255
177 208 255
176 208 255
176 208 255
176 208 255
176 208 255
176 208 255
176 208 255
176 208 255
176 208 255
176 208 255
176 208 255
176 208 255
176 208 255
176 208 255
176 208 255
175 207 255
175 207 255
175 207 255
175 207 255
175 207 255
175 207 255
175 207 255
175 207 255
175 207 255
175 207 255
175 207 255
175 207 255
175 207 255
175 207 255
175 207 255
175 207 255
175 207 255
174 207 255
174 207 255
174 207 255
174 207 255
174 207 255
174 207 255
174 207 255
174 207 255
174 207 255
174 207 255
174 206 255
174 206 255
174 206 255
174 206 255
174 206 255
174 206 255
172 201 248
116 69 75
107 57 67
106 55 53
108 57 64
107 56 59
104 55 53
110 57 62
105 56 58
100 54 49
108 57 58
109 57 62
108 56 55
110 58 66
104 54 58
103 56 59
106 56 59
102 55 56
101 54 50
106 56 61
100 53 50
107 57 64
107 57 62
105 56 55
114 59 64
104 55 53
106 56 55
106 56 58
102 54 52
109 57 64
104 56 56
103 55 59
100 54 53
102 54 50
106 56 61
106 55 53
102 55 52
104 55 55
105 55 55
108 57 61
106 56 59
104 56 58
105 56 56
105 55 53
108 56 56
104 55 52
102 54 49
101 54 50
102 54 49
102 55 56
109 57 62
102 54 50
108 57 58
103 55 55
104 55 53
105 55 52
103 55 49
110 58 64
105 56 58
106 56 56
104 55 50
105 56 62
102 54 46
104 56 58
104 55 50
109 57 64
105 56 58
104 55 55
102 54 49
108 57 61
108 57 62
105 55 53
105 56 56
104 55 53
108 57 58
111 58 62
110 57 62
105 55 58
105 55 49
105 56 56
107 56 56
107 56 56
108 57 62
101 54 49
105 56 58
111 58 64
103 55 53
106 56 61
106 56 56
108 57 58
108 57 64
113 58 62
107 56 61
108 57 62
110 58 64
103 55 58
104 55 50
104 55 49
110 58 64
106 56 58
103 55 55
107 57 61
110 58 64
106 56 56
100 54 52
102 55 61
101 55 53
113 72 85
170 198 245
174 206 255
174 206 255
174 206 255
174 206 255
174 206 255
174 206 255
174 207 255
174 207 255
174 207 255
174 207 255
174 207 255
174 207 255
174 207 255
174 207 255
174 207 255
174 207 255
174 207 255
175 207 255
175 207 255
175 207 255
175 207 255
175 207 255
175 207 255
175 207 255
175 207 255
175 207 255
175 207 255
175 207 255
175 207 255
175 207 255
175 207 255
175 207 255
176 208 255
176 208 255
176 208 255
176 208 255
176 208 255
176 208 255
176 208 255
176 208 255
176 208 255
176 208 255
176 208 255
176 208 255
176 208 255
176 208 255
176 208 255
176 208 255
177 208 255
177 208 255
177 208 255
177 208 255
177 208 255
177 208 255
177 208 255
177 208 255
177 208 255
177 208 255
177 209 255
177 209 255
177 209 255
177 209 255
177 209 255
177 209 255
178 209 255
178 209 255
178 209 255
178 209 255
178 209 255
178 209 255
178 209 255
178 209 255
178 209 255
178 209 255
178 209 255
178 209 255
178 209 255
178 209 255
178 209 255
178 209 255
178 209 255
178 209 255
179 209 255
179 209 255
179 209 255
179 209 255
179 209 255
179 210 255
179 210 255
179 210 255
179 210 255
179 210 255
179 210 255
179 210 255
179 210 255
179 210 255
179 210 255
179 210 255
179 210 255
179 210 255
179 210 255
180 210 255
180 210 255
180 210 255
180 210 255
180 210 255
180 210 255
180 210 255
180 210 255
180 210 255
180 210 255
180 210 255
180 210 255
180 210 255
180 210 255
180 210 255
180 210 255
180 210 255
180 210 255
180 210 255
180 210 255
180 210 255
181 211 255
181 211 255
181 211 255
181 211 255
181 211 255
181 211 255
181 211 255
181 211 255
181 211 255
181 211 255
181 211 255
181 211 255
181 211 255
181 211 255
181 211 255
181 211 255
181 211 255
181 211 255
181 211 255
181 211 255
181 211 255
181 211 255
181 211 255
181 211 255
182 211 255
182 211 255
182 211 255
182 211 255
182 211 255
181 211 255
181 211 255
181 211 255
181 211 255
181 211 255
181 211 255
181 211 255
181 211 255
181 211 255
181 211 255
181 211 255
181 211 255
181 211 255
181 211 255
181 211 255
181 211 255
181 211 255
181 211 255
181 211 255
181 211 255
181 211 255
181 211 255
181 211 255
181 211 255
180 210 255
180 210 255
180 210 255
180 210 255
180 210 255
180 210 255
180 210 255
180 210 255
180 210 255
180 210 255
180 210 255
180 210 255
180 210 255
180 210 255
180 210 255
180 210 255
180 210 255
180 210 255
180 210 255
180 210 255
180 210 255
179 210 255
179 210 255
179 210 255
179 210 255
179 210 255
179 210 255
179 210 255
179 210 255
179 210 255
179 210 255
179 210 255
179 210 255
179 210 255
179 210 255
179 209 255
179 209 255
179 209 255
179 209 255
179 209 255
179 209 255
178 209 255
178 209 255
178 209 255
178 209 255
178 209 255
178 209 255
178 209 255
178 209 255
178 209 255
178 209 255
178 209 255
178 209 255
178 209 255
178 209 255
178 209 255
178 209 255
178 209 255
177 209 255
177 209 255
177 209 255
177 209 255
177 209 255
177 209 255
177 208 255
177 208 255
177 208 255
177 208 255
177 208 255
177 208 255
177 208 255
177 208 255
177 208 255
177 208 255
177 208 255
176 208 255
176 208 255
176 208 255
176 208 255
176 208 255
176 208 255
176 208 255
176 208 255
176 208 255
176 208 255
176 208 255
176 208 255
176 208 255
176 208 255
176 208 255
175 207 255
175 207 255
175 207 255
175 207 255
175 207 255
175 207 255
175 207 255
175 207 255
175 207 255
175 207 255
175 207 255
175 207 255
175 207 255
175 207 255
175 207 255
175 207 255
174 207 255
174 207 255
174 207 255
174 207 255
174 207 255
174 207 255
174 207 255
174 207 255
174 207 255
174 207 255
126 109 122
103 55 55
106 55 55
104 55 53
106 56 52
106 56 62
108 57 61
106 56 56
106 56 56
106 56 58
104 56 56
107 56 64
102 55 55
106 56 64
109 56 56
105 55 52
109 57 62
104 55 52
107 56 55
100 54 50
106 56 61
102 54 52
112 58 62
106 55 49
107 56 56
101 53 46
104 55 58
105 55 56
104 56 56
107 56 55
107 56 52
103 55 56
104 56 66
105 55 55
104 55 53
104 55 55
107 56 55
109 57 62
104 55 52
105 56 56
104 55 55
107 57 67
102 55 56
105 55 58
106 55 61
111 57 62
104 55 47
99 53 47
103 55 56
102 55 53
102 55 53
103 55 53
106 56 55
111 58 62
110 57 61
106 56 61
103 55 55
109 57 58
99 53 46
104 55 55
101 54 52
102 54 53
104 55 55
102 54 53
104 56 59
103 55 52
100 53 44
107 57 66
102 54 55
105 56 58
102 55 50
102 54 47
104 55 55
105 56 56
106 56 58
104 55 53
103 55 55
109 57 61
103 55 58
110 57 61
104 54 50
109 58 66
105 56 55
111 58 72
106 56 59
107 56 56
105 55 55
108 56 62
107 56 58
104 55 50
109 57 64
106 56 58
109 57 59
110 57 64
105 56 55
102 53 44
105 56 58
105 56 61
104 56 59
106 57 62
108 57 64
109 57 59
103 55 53
109 57 58
106 57 64
104 56 62
105 56 55
103 55 61
120 89 103
174 207 255
174 207 255
174 207 255
174 207 255
174 207 255
174 207 255
174 207 255
174 207 255
174 207 255
175 207 255
175 207 255
175 207 255
175 207 255
175 207 255
175 207 255
175 207 255
175 207 255
175 207 255
175 207 255
175 207 255
175 207 255
175 207 255
175 207 255
175 207 255
175 207 255
176 208 255
176 208 255
176 208 255
176 208 255
176 208 255
176 208 255
176 208 255
176 208 255
176 208 255
176 208 255
176 208 255
176 208 255
176 208 255
176 208 255
176 208 255
176 208 255
176 208 255
177 208 255
177 208 255
177 208 255
177 208 255
177 208 255
177 208 255
177 208 255
177 208 255
177 208 255
177 208 255
177 209 255
177 209 255
177 209 255
177 209 255
177 209 255
177 209 255
178 209 255
178 209 255
178 209 255
178 209 255
178 209 255
178 209 255
178 209 255
178 209 255
178 209 255
178 209 255
178 209 255
178 209 255
178 209 255
178 209 255
178 209 255
178 209 255
178 209 255
179 209 255
179 209 255
179 209 255
179 209 255
179 209 255
179 209 255
179 210 255
179 210 255
179 210 255
179 210 255
179 210 255
179 210 255
179 210 255
179 210 255
179 210 255
179 210 255
179 210 255
179 210 255
179 210 255
180 210 255
180 210 255
180 210 255
180 210 255
180 210 255
180 210 255
180 210 255
180 210 255
180 210 255
180 210 255
180 210 255
180 210 255
180 210 255
180 210 255
180 210 255
180 210 255
180 210 255
180 210 255
180 210 255
180 210 255
180 210 255
180 210 255
181 211 255
181 211 255
181 211 255
181 211 255
181 211 255
181 211 255
181 211 255
181 211 255
181 211 255
181 211 255
181 211 255
181 211 255
181 211 255
181 211 255
181 211 255
181 211 255
181 211 255
181 211 255
181 211 255
181 211 255
181 211 255
181 211 255
181 211 255
181 211 255
181 211 255
182 211 255
182 211 255
182 211 255
182 211 255
182 211 255
182 211 255
182 211 255
182 211 255
182 211 255
182 211 255
182 211 255
182 211 255
182 211 255
182 211 255
182 211 255
182 211 255
182 211 255
181 211 255
181 211 255
181 211 255
181 211 255
181 211 255
181 211 255
181 211 255
181 211 255
181 211 255
181 211 255
181 211 255
181 211 255
181 211 255
181 211 255
181 211 255
181 211 255
181 211 255
181 211 255
181 211 255
181 211 255
181 211 255
181 211 255
181 211 255
181 211 255
180 210 255
180 210 255
180 210 255
180 210 255
180 210 255
180 210 255
180 210 255
180 210 255
180 210 255
180 210 255
180 210 255
180 210 255
180 210 255
180 210 255
180 210 255
180 210 255
180 210 255
180 210 255
180 210 255
180 210 255
180 210 255
179 210 255
179 210 255
179 210 255
179 210 255
179 210 255
179 210 255
179 210 255
179 210 255
179 210 255
179 210 255
179 210 255
179 210 255
179 210 255
179 210 255
179 209 255
179 209 255
179 209 255
179 209 255
179 209 255
178 209 255
178 209 255
178 209 255
178 209 255
178 209 255
178 209 255
178 209 255
178 209 255
178 209 255
178 209 255
178 209 255
178 209 255
178 209 255
178 209 255
178 209 255
178 209 255
178 209 255
178 209 255
177 209 255
177 209 255
177 209 255
177 209 255
177 209 255
177 208 255
177 208 255
177 208 255
177 208 255
177 208 255
177 208 255
177 208 255
177 208 255
177 208 255
177 208 255
177 208 255
176 208 255
176 208 255
176 208 255
176 208 255
176 208 255
176 208 255
176 208 255
176 208 255
176 208 255
176 208 255
176 208 255
176 208 255
176 208 255
176 208 255
176 208 255
176 208 255
176 208 255
175 207 255
175 207 255
175 207 255
175 207 255
175 207 255
175 207 255
175 207 255
175 207 255
175 207 255
175 207 255
175 207 255
175 207 255
175 207 255
175 207 255
175 207 255
175 207 255
174 207 255
150 153 189
103 55 52
112 58 66
108 57 55
106 56 55
110 57 58
103 55 56
108 57 58
103 55 58
106 57 62
106 56 56
104 55 52
109 57 59
108 56 59
109 57 56
107 57 66
107 56 56
104 55 53
103 55 56
105 55 53
104 55 56
107 56 58
106 56 59
106 55 52
109 58 66
104 55 55
106 56 59
106 56 61
105 55 50
104 55 55
108 56 61
108 56 61
107 57 58
104 55 52
98 53 47
107 56 56
102 54 49
102 54 47
108 57 67
104 55 53
102 54 47
107 56 52
109 57 61
109 57 58
104 55 50
103 55 58
103 55 50
106 56 55
106 56 62
104 54 56
103 54 46
101 54 55
107 56 56
104 56 59
107 56 59
110 58 66
104 56 61
106 56 61
103 53 47
105 56 55
102 54 55
100 53 49
104 55 53
105 56 53
110 58 64
105 55 56
110 57 61
104 56 56
105 56 55
107 57 61
107 56 59
108 57 58
107 57 61
102 55 50
107 56 58
106 56 55
106 55 55
109 57 61
106 55 50
108 56 53
105 56 62
103 55 52
108 57 58
108 57 58
108 57 59
103 55 47
106 56 56
105 56 56
107 57 61
107 56 59
110 58 62
104 56 56
109 56 53
101 54 53
110 57 59
107 57 61
101 55 56
104 56 59
102 55 56
104 55 52
103 55 53
106 56 56
102 54 53
109 58 67
107 56 56
104 55 55
108 57 64
112 58 69
110 57 62
102 54 55
156 167 203
175 207 255
175 207 255
175 207 255
175 207 255
175 207 255
175 207 255
175 207 255
175 207 255
175 207 255
175 207 255
175 207 255
175 207 255
175 207 255
175 207 255
175 207 255
175 207 255
175 207 255
176 208 255
176 208 255
176 208 255
176 208 255
176 208 255
176 208 255
176 208 255
176 208 255
176 208 255
176 208 255
176 208 255
176 208 255
176 208 255
176 208 255
176 208 255
176 208 255
176 208 255
177 208 255
177 208 255
177 208 255
177 208 255
177 208 255
177 208 255
177 208 255
177 208 255
177 208 255
177 208 255
177 208 255
177 209 255
177 209 255
177 209 255
177 209 255
177 209 255
178 209 255
178 209 255
178 209 255
178 209 255
178 209 255
178 209 255
178 209 255
178 209 255
178 209 255
178 209 255
178 209 255
178 209 255
178 209 255
178 209 255
178 209 255
178 209 255
178 209 255
178 209 255
179 209 255
179 209 255
179 209 255
179 209 255
179 209 255
179 209 255
179 210 255
179 210 255
179 210 255
179 210 255
179 210 255
179 210 255
179 210 255
179 210 255
179 210 255
179 210 255
179 210 255
179 210 255
180 210 255
180 210 255
180 210 255
180 210 255
180 210 255
180 210 255
180 210 255
180 210 255
180 210 255
180 210 255
180 210 255
180 210 255
180 210 255
180 210 255
180 210 255
180 210 255
180 210 255
180 210 255
180 210 255
180 210 255
180 210 255
180 210 255
181 211 255
181 211 255
181 211 255
181 211 255
181 211 255
181 211 255
181 211 255
181 211 255
181 211 255
181 211 255
181 211 255
181 211 255
181 211 255
181 211 255
181 211 255
181 211 255
181 211 255
181 211 255
181 211 255
181 211 255
181 211 255
181 211 255
181 211 255
181 211 255
182 211 255
182 211 255
182 211 255
182 211 255
182 211 255
182 211 255
182 211 255
182 211 255
182 211 255
182 211 255
182 211 255
182 211 255
182 211 255
182 212 255
182 211 255
182 211 255
182 211 255
182 211 255
182 211 255
182 211 255
182 211 255
182 211 255
182 211 255
182 211 255
182 211 255
182 211 255
182 211 255
182 211 255
182 211 255
182 211 255
182 211 255
182 211 255
181 211 255
181 211 255
181 211 255
181 211 255
181 211 255
181 211 255
181 211 255
181 211 255
181 211 255
181 211 255
181 211 255
181 211 255
181 211 255
181 211 255
181 211 255
181 211 255
181 211 255
181 211 255
181 211 255
181 211 255
181 211 255
181 211 255
181 211 255
181 211 255
180 210 255
180 210 255
180 210 255
180 210 255
180 210 255
180 210 255
180 210 255
180 210 255
180 210 255
180 210 255
180 210 255
180 210 255
180 210 255
180 210 255
180 210 255
180 210 255
180 210 255
180 210 255
180 210 255
180 210 255
180 210 255
179 210 255
179 210 255
179 210 255
179 210 255
179 210 255
179 210 255
179 210 255
179 210 255
179 210 255
179 210 255
179 210 255
179 210 255
179 210 255
179 209 255
179 209 255
179 209 255
179 209 255
179 209 255
179 209 255
178 209 255
178 209 255
178 209 255
178 209 255
178 209 255
178 209 255
178 209 255
178 209 255
178 209 255
178 209 255
178 209 255
178 209 255
178 209 255
178 209 255
178 209 255
178 209 255
178 209 255
177 209 255
177 209 255
177 209 255
177 209 255
177 209 255
177 209 255
177 208 255
177 208 255
177 208 255
177 208 255
177 208 255
177 208 255
177 208 255
177 208 255
177 208 255
177 208 255
177 208 255
176 208 255
176 208 255
176 208 255
176 208 255
176 208 255
176 208 255
176 208 255
176 208 255
176 208 255
176 208 255
176 208 255
176 208 255
176 208 255
176 208 255
176 208 255
176 208 255
175 207 255
175 207 255
175 207 255
175 207 255
175 207 255
175 207 255
175 207 255
175 207 255
175 207 255
175 207 255
173 204 250
124 90 103
109 57 61
105 56 61
107 57 59
107 57 62
104 55 53
108 57 62
106 56 58
108 57 61
105 56 62
111 57 59
101 54 56
105 56 58
105 55 53
105 56 59
105 56 59
106 56 61
105 56 55
103 56 61
103 55 56
105 56 56
101 54 50
100 54 52
107 56 56
101 53 44
105 55 52
109 57 62
103 54 59
102 55 56
103 55 49
107 56 53
106 56 61
107 56 58
101 53 47
101 54 46
103 55 50
104 55 55
108 57 62
109 57 61
101 54 52
109 57 56
105 55 52
106 56 56
107 56 56
101 54 50
108 56 61
105 54 52
109 57 59
106 55 56
108 57 58
100 54 50
104 55 53
104 56 58
110 57 64
106 56 53
110 58 64
103 55 58
105 55 52
104 55 50
110 57 59
102 54 47
106 55 55
100 53 46
107 56 56
105 56 55
104 54 56
109 58 66
107 56 56
106 55 52
109 57 61
111 58 62
104 55 50
104 55 56
109 57 59
102 55 52
103 54 46
104 56 59
103 55 52
109 57 62
106 56 59
103 55 49
107 56 58
105 56 55
105 56 56
105 55 55
104 55 53
113 58 64
107 57 61
107 57 59
105 56 58
104 55 55
101 53 50
104 56 59
103 55 53
106 56 55
107 56 59
105 56 53
109 57 59
107 56 56
106 56 59
104 55 55
107 57 61
104 56 58
109 57 58
106 56 58
102 55 53
106 56 58
106 56 61
108 57 58
109 57 55
112 74 84
174 204 252
175 207 255
175 207 255
175 207 255
175 207 255
175 207 255
175 207 255
175 207 255
175 207 255
175 207 255
176 208 255
176 208 255
176 208 255
176 208 255
176 208 255
176 208 255
176 208 255
176 208 255
176 208 255
176 208 255
176 208 255
176 208 255
176 208 255
176 208 255
176 208 255
176 208 255
176 208 255
177 208 255
177 208 255
177 208 255
177 208 255
177 208 255
177 208 255
177 208 255
177 208 255
177 208 255
177 208 255
177 208 255
177 209 255
177 209 255
177 209 255
177 209 255
177 209 255
177 209 255
178 209 255
178 209 255
178 209 255
178 209 255
178 209 255
178 209 255
178 209 255
178 209 255
178 209 255
178 209 255
178 209 255
178 209 255
178 209 255
178 209 255
178 209 255
178 209 255
178 209 255
179 209 255
179 209 255
179 209 255
179 209 255
179 209 255
179 209 255
179 210 255
179 210 255
179 210 255
179 210 255
179 210 255
179 210 255
179 210 255
179 210 255
179 210 255
179 210 255
179 210 255
179 210 255
179 210 255
180 210 255
180 210 255
180 210 255
180 210 255
180 210 255
180 210 255
180 210 255
180 210 255
180 210 255
180 210 255
180 210 255
180 210 255
180 210 255
180 210 255
180 210 255
180 210 255
180 210 255
180 210 255
180 210 255
180 210 255
180 210 255
181 211 255
181 211 255
181 211 255
181 211 255
181 211 255
181 211 255
181 211 255
181 211 255
181 211 255
181 211 255
181 211 255
181 211 255
181 211 255
181 211 255
181 211 255
181 211 255
181 211 255
181 211 255
181 211 255
181 211 255
181 211 255
181 211 255
181 211 255
181 211 255
182 211 255
182 211 255
182 211 255
182 211 255
182 211 255
182 211 255
182 211 255
182 211 255
182 211 255
182 211 255
182 211 255
182 211 255
182 211 255
182 211 255
182 211 255
182 211 255
182 211 255
182 212 255
182 212 255
182 212 255
182 212 255
182 212 255
182 212 255
182 212 255
182 212 255
182 212 255
182 212 255
182 212 255
182 212 255
182 212 255
182 211 255
182 211 255
182 211 255
182 211 255
182 211 255
182 211 255
182 211 255
182 211 255
182 211 255
182 211 255
182 211 255
182 211 255
182 211 255
182 211 255
182 211 255
182 211 255
182 211 255
181 211 255
181 211 255
181 211 255
181 211 255
181 211 255
181 211 255
181 211 255
181 211 255
181 211 255
181 211 255
181 211 255
181 211 255
181 211 255
181 211 255
181 211 255
181 211 255
181 211 255
181 211 255
181 211 255
181 211 255
181 211 255
181 211 255
181 211 255
181 211 255
180 210 255
180 210 255
180 210 255
180 210 255
180 210 255
180 210 255
180 210 255
180 210 255
180 210 255
180 210 255
180 210 255
180 210 255
180 210 255
180 210 255
180 210 255
180 210 255
180 210 255
180 210 255
180 210 255
180 210 255
179 210 255
179 210 255
179 210 255
179 210 255
179 210 255
179 210 255
179 210 255
179 210 255
179 210 255
179 210 255
179 210 255
179 210 255
179 209 255
179 209 255
179 209 255
179 209 255
179 209 255
179 209 255
179 209 255
178 209 255
178 209 255
178 209 255
178 209 255
178 209 255
178 209 255
178 209 255
178 209 255
178 209 255
178 209 255
178 209 255
178 209 255
178 209 255
178 209 255
178 209 255
178 209 255
178 209 255
177 209 255
177 209 255
177 209 255
177 209 255
177 209 255
177 209 255
177 208 255
177 208 255
177 208 255
177 208 255
177 208 255
177 208 255
177 208 255
177 208 255
177 208 255
177 208 255
177 208 255
176 208 255
176 208 255
176 208 255
176 208 255
176 208 255
176 208 255
176 208 255
176 208 255
176 208 255
176 208 255
176 208 255
176 208 255
176 208 255
176 208 255
176 208 255
176 208 255
176 208 255
176 208 255
175 207 255
138 118 140
107 57 62
106 56 62
105 56 55
106 56 59
102 55 52
109 58 64
112 58 64
102 55 50
107 56 56
107 56 59
101 54 49
102 54 47
103 55 53
110 58 66
105 56 53
106 55 55
101 54 50
102 55 56
102 54 52
105 55 53
115 59 67
106 56 52
105 54 52
104 56 64
106 56 58
105 56 56
105 56 56
106 56 58
103 55 59
102 54 44
108 57 59
108 57 59
104 55 53
108 56 56
107 56 53
105 56 61
106 56 66
103 55 55
98 53 46
104 56 58
99 54 50
104 55 55
109 57 61
109 57 61
105 56 56
103 54 55
105 55 59
105 55 58
101 54 52
106 56 58
107 56 58
105 56 58
106 55 50
108 56 59
104 55 52
105 55 53
103 55 53
106 56 61
105 55 53
107 57 59
103 55 53
104 55 52
107 56 58
106 55 53
110 58 62
108 57 61
108 57 59
106 56 56
103 54 47
104 56 59
106 56 55
106 55 53
107 56 55
105 56 55
102 54 50
107 56 52
106 56 58
105 55 56
102 54 49
107 57 62
106 55 52
105 55 53
103 54 49
107 56 53
103 55 52
111 57 59
97 52 46
102 53 50
102 54 46
103 55 53
107 56 53
105 55 52
107 57 59
106 56 59
108 56 53
102 54 53
106 55 56
111 58 67
109 57 61
105 55 55
110 57 64
108 57 58
103 55 52
105 55 50
106 56 55
104 55 56
101 55 56
108 55 58
105 56 56
106 55 55
104 55 55
141 132 157
175 207 255
176 208 255
176 208 255
176 208 255
176 208 255
176 208 255
176 208 255
176 208 255
176 208 255
176 208 255
176 208 255
176 208 255
176 208 255
176 208 255
176 208 255
176 208 255
176 208 255
176 208 255
176 208 255
177 208 255
177 208 255
177 208 255
177 208 255
177 208 255
177 208 255
177 208 255
177 208 255
177 208 255
177 208 255
177 208 255
177 209 255
177 209 255
177 209 255
177 209 255
177 209 255
177 209 255
178 209 255
178 209 255
178 209 255
178 209 255
178 209 255
178 209 255
178 209 255
178 209 255
178 209 255
178 209 255
178 209 255
178 209 255
178 209 255
178 209 255
178 209 255
178 209 255
178 209 255
178 209 255
179 209 255
179 209 255
179 209 255
179 209 255
179 209 255
179 210 255
179 210 255
179 210 255
179 210 255
179 210 255
179 210 255
179 210 255
179 210 255
179 210 255
179 210 255
179 210 255
179 210 255
179 210 255
180 210 255
180 210 255
180 210 255
180 210 255
180 210 255
180 210 255
180 210 255
180 210 255
180 210 255
180 210 255
180 210 255
180 210 255
180 210 255
180 210 255
180 210 255
180 210 255
180 210 255
180 210 255
180 210 255
180 210 255
180 210 255
181 211 255
181 211 255
181 211 255
181 211 255
181 211 255
181 211 255
181 211 255
181 211 255
181 211 255
181 211 255
181 211 255
181 211 255
181 211 255
181 211 255
181 211 255
181 211 255
181 211 255
181 211 255
181 211 255
181 211 255
181 211 255
181 211 255
181 211 255
181 211 255
182 211 255
182 211 255
182 211 255
182 211 255
182 211 255
182 211 255
182 211 255
182 211 255
182 211 255
182 211 255
182 211 255
182 211 255
182 211 255
182 211 255
182 211 255
182 211 255
182 211 255
182 212 255
182 212 255
182 212 255
182 212 255
182 212 255
182 212 255
182 212 255
182 212 255
182 212 255
182 212 255
183 212 255
183 212 255
183 212 255
183 212 255
183 212 255
183 212 255
183 212 255
182 212 255
182 212 255
182 212 255
182 212 255
182 212 255
182 212 255
182 212 255
182 212 255
182 212 255
182 212 255
182 211 255
182 211 255
182 211 255
182 211 255
182 211 255
182 211 255
182 211 255
182 211 255
182 211 255
182 211 255
182 211 255
182 211 255
182 211 255
182 211 255
182 211 255
182 211 255
182 211 255
181 211 255
181 211 255
181 211 255
181 211 255
181 211 255
181 211 255
181 211 255
181 211 255
181 211 255
181 211 255
181 211 255
181 211 255
181 211 255
181 211 255
181 211 255
181 211 255
181 211 255
181 211 255
181 211 255
181 211 255
181 211 255
181 211 255
181 211 255
181 211 255
180 210 255
180 210 255
180 210 255
180 210 255
180 210 255
180 210 255
180 210 255
180 210 255
180 210 255
180 210 255
180 210 255
180 210 255
180 210 255
180 210 255
180 210 255
180 210 255
180 210 255
180 210 255
180 210 255
180 210 255
179 210 255
179 210 255
179 210 255
179 210 255
179 210 255
179 210 255
179 210 255
179 210 255
179 210 255
179 210 255
179 210 255
179 210 255
179 210 255
179 209 255
179 209 255
179 209 255
179 209 255
179 209 255
179 209 255
178 209 255
178 209 255
178 209 255
178 209 255
178 209 255
178 209 255
178 209 255
178 209 255
178 209 255
178 209 255
178 209 255
178 209 255
178 209 255
178 209 255
178 209 255
178 209 255
178 209 255
177 209 255
177 209 255
177 209 255
177 209 255
177 209 255
177 209 255
177 209 255
177 208 255
177 208 255
177 208 255
177 208 255
177 208 255
177 208 255
177 208 255
177 208 255
177 208 255
177 208 255
177 208 255
176 208 255
176 208 255
176 208 255
176 208 255
176 208 255
176 208 255
176 208 255
176 208 255
176 208 255
176 208 255
169 190 234
110 62 56
106 56 58
107 57 59
109 57 61
104 55 55
109 57 59
108 57 62
106 56 59
105 56 56
107 56 53
103 55 55
107 56 62
102 55 55
111 57 58
105 56 53
105 55 55
104 55 47
107 57 62
103 54 46
106 55 55
103 55 56
105 56 56
104 56 56
101 54 50
107 56 55
102 54 49
107 56 58
106 56 59
106 56 55
109 57 62
106 56 59
106 56 62
102 54 53
106 56 52
104 55 52
104 55 52
109 57 59
103 54 49
105 56 56
103 56 62
108 57 58
103 55 49
107 56 56
106 55 49
103 55 52
105 55 53
105 54 58
102 54 49
103 54 59
111 57 55
109 57 55
105 56 56
106 56 52
109 57 58
107 56 58
107 56 59
106 55 55
104 55 55
105 55 53
101 52 46
105 56 55
106 56 55
103 55 49
103 55 55
106 57 62
106 55 56
111 57 59
108 56 59
103 55 49
105 56 55
106 56 61
104 55 53
107 56 58
104 55 55
112 58 64
105 56 56
102 54 49
107 56 55
105 55 52
105 56 58
103 55 49
104 55 55
104 55 59
107 56 55
110 58 64
105 55 49
102 55 50
103 55 52
104 54 50
107 56 59
104 55 56
106 56 61
104 55 49
105 55 56
105 55 52
103 55 49
105 56 56
105 56 59
108 57 59
104 55 52
105 56 58
108 57 64
105 55 55
110 58 69
108 57 64
106 56 56
107 56 59
110 57 61
107 57 66
107 56 59
106 56 61
105 55 52
114 66 69
166 187 230
176 208 255
176 208 255
176 208 255
176 208 255
176 208 255
176 208 255
176 208 255
176 208 255
176 208 255
176 208 255
176 208 255
177 208 255
177 208 255
177 208 255
177 208 255
177 208 255
177 208 255
177 208 255
177 208 255
177 208 255
177 208 255
177 208 255
177 209 255
177 209 255
177 209 255
177 209 255
177 209 255
177 209 255
178 209 255
178 209 255
178 209 255
178 209 255
178 209 255
178 209 255
178 209 255
178 209 255
178 209 255
178 209 255
178 209 255
178 209 255
178 209 255
178 209 255
178 209 255
178 209 255
178 209 255
179 209 255
179 209 255
179 209 255
179 209 255
179 209 255
179 209 255
179 210 255
179 210 255
179 210 255
179 210 255
179 210 255
179 210 255
179 210 255
179 210 255
179 210 255
179 210 255
179 210 255
179 210 255
179 210 255
180 210 255
180 210 255
180 210 255
180 210 255
180 210 255
180 210 255
180 210 255
180 210 255
180 210 255
180 210 255
180 210 255
180 210 255
180 210 255
180 210 255
180 210 255
180 210 255
180 210 255
180 210 255
180 210 255
180 210 255
181 211 255
181 211 255
181 211 255
181 211 255
181 211 255
181 211 255
181 211 255
181 211 255
181 211 255
181 211 255
181 211 255
181 211 255
181 211 255
181 211 255
181 211 255
181 211 255
181 211 255
181 211 255
181 211 255
181 211 255
181 211 255
181 211 255
181 211 255
181 211 255
182 211 255
182 211 255
182 211 255
182 211 255
182 211 255
182 211 255
182 211 255
182 211 255
182 211 255
182 211 255
182 211 255
182 211 255
182 211 255
182 211 255
182 211 255
182 211 255
182 211 255
182 212 255
182 212 255
182 212 255
182 212 255
182 212 255
182 212 255
182 212 255
182 212 255
182 212 255
183 212 255
183 212 255
183 212 255
183 212 255
183 212 255
183 212 255
183 212 255
183 212 255
183 212 255
183 212 255
183 212 255
183 212 255
183 212 255
183 212 255
183 212 255
183 212 255
183 212 255
183 212 255
183 212 255
183 212 255
183 212 255
183 212 255
183 212 255
183 212 255
183 212 255
182 212 255
182 212 255
182 212 255
182 212 255
182 212 255
182 212 255
182 212 255
182 212 255
182 212 255
182 211 255
182 211 255
182 211 255
182 211 255
182 211 255
182 211 255
182 211 255
182 211 255
182 211 255
182 211 255
182 211 255
182 211 255
182 211 255
182 211 255
182 211 255
182 211 255
182 211 255
181 211 255
181 211 255
181 211 255
181 211 255
181 211 255
181 211 255
181 211 255
181 211 255
181 211 255
181 211 255
181 211 255
181 211 255
181 211 255
181 211 255
181 211 255
181 211 255
181 211 255
181 211 255
181 211 255
181 211 255
181 211 255
181 211 255
181 211 255
181 211 255
180 210 255
180 210 255
180 210 255
180 210 255
180 210 255
180 210 255
180 210 255
180 210 255
180 210 255
180 210 255
180 210 255
180 210 255
180 210 255
180 210 255
180 210 255
180 210 255
180 210 255
180 210 255
180 210 255
180 210 255
179 210 255
179 210 255
179 210 255
179 210 255
179 210 255
179 210 255
179 210 255
179 210 255
179 210 255
179 210 255
179 210 255
179 210 255
179 209 255
179 209 255
179 209 255
179 209 255
179 209 255
179 209 255
178 209 255
178 209 255
178 209 255
178 209 255
178 209 255
178 209 255
178 209 255
178 209 255
178 209 255
178 209 255
178 209 255
178 209 255
178 209 255
178 209 255
178 209 255
178 209 255
178 209 255
178 209 255
177 209 255
177 209 255
177 209 255
177 209 255
177 209 255
177 209 255
177 208 255
177 208 255
177 208 255
177 208 255
177 208 255
177 208 255
177 208 255
177 208 255
177 208 255
177 208 255
177 208 255
177 208 255
177 208 255
176 208 255
128 102 118
109 57 66
108 56 55
105 55 55
101 54 58
103 55 53
105 56 59
107 56 58
108 56 61
105 56 61
103 55 55
105 55 52
106 55 53
103 55 50
108 57 61
106 56 58
104 55 53
106 56 53
104 55 56
107 56 58
107 56 53
103 55 50
102 53 46
108 57 61
106 56 55
108 57 58
105 55 52
106 56 55
101 54 52
103 55 49
110 58 64
104 55 53
107 56 56
102 54 50
105 55 56
106 56 58
103 54 53
104 56 58
107 56 58
110 58 66
110 57 62
109 57 64
105 56 58
106 56 59
103 54 52
111 58 62
105 55 52
106 56 53
100 53 46
107 56 58
105 55 55
101 54 53
108 56 58
104 55 49
103 55 52
108 57 62
107 57 58
103 55 47
104 56 66
107 57 61
105 55 52
107 55 52
106 55 53
104 54 52
105 55 50
108 57 59
102 54 55
101 53 43
104 55 55
101 54 46
110 57 62
104 55 50
107 56 59
104 55 52
106 56 56
109 57 61
104 54 52
105 56 55
106 56 56
102 54 49
110 57 61
101 53 50
103 54 50
103 53 52
102 54 47
106 56 61
110 57 59
106 56 52
101 54 49
104 55 55
107 56 58
104 55 56
107 56 61
108 57 58
102 53 47
103 54 49
106 56 55
106 56 56
105 56 53
105 55 52
106 55 55
110 57 58
106 55 62
107 56 56
101 54 53
110 57 59
106 56 58
101 55 55
102 55 52
106 56 61
108 57 58
105 56 61
108 57 61
107 56 58
125 103 117
176 208 255
176 208 255
177 208 255
177 208 255
177 208 255
177 208 255
177 208 255
177 208 255
177 208 255
177 208 255
177 208 255
177 208 255
177 208 255
177 208 255
177 208 255
177 209 255
177 209 255
177 209 255
177 209 255
178 209 255
178 209 255
178 209 255
178 209 255
178 209 255
178 209 255
178 209 255
178 209 255
178 209 255
178 209 255
178 209 255
178 209 255
178 209 255
178 209 255
178 209 255
178 209 255
178 209 255
178 209 255
178 209 255
179 209 255
179 209 255
179 209 255
179 209 255
179 209 255
179 209 255
179 210 255
179 210 255
179 210 255
179 210 255
179 210 255
179 210 255
179 210 255
179 210 255
179 210 255
179 210 255
179 210 255
179 210 255
179 210 255
180 210 255
180 210 255
180 210 255
180 210 255
180 210 255
180 210 255
180 210 255
180 210 255
180 210 255
180 210 255
180 210 255
180 210 255
180 210 255
180 210 255
180 210 255
180 210 255
180 210 255
180 210 255
180 210 255
180 210 255
181 211 255
181 211 255
181 211 255
181 211 255
181 211 255
181 211 255
181 211 255
181 211 255
181 211 255
181 211 255
181 211 255
181 211 255
181 211 255
181 211 255
181 211 255
181 211 255
181 211 255
181 211 255
181 211 255
181 211 255
181 211 255
181 211 255
181 211 255
182 211 255
182 211 255
182 211 255
182 211 255
182 211 255
182 211 255
182 211 255
182 211 255
182 211 255
182 211 255
182 211 255
182 211 255
182 211 255
182 211 255
182 211 255
182 211 255
182 211 255
182 212 255
182 212 255
182 212 255
182 212 255
182 212 255
182 212 255
182 212 255
182 212 255
182 212 255
183 212 255
183 212 255
183 212 255
183 212 255
183 212 255
183 212 255
183 212 255
183 212 255
183 212 255
183 212 255
183 212 255
183 212 255
183 212 255
183 212 255
183 212 255
183 212 255
183 212 255
183 212 255
183 212 255
183 212 255
183 212 255
183 212 255
183 212 255
183 212 255
183 212 255
183 212 255
183 212 255
183 212 255
183 212 255
183 212 255
183 212 255
183 212 255
183 212 255
183 212 255
183 212 255
183 212 255
183 212 255
183 212 255
183 212 255
183 212 255
183 212 255
183 212 255
182 212 255
182 212 255
182 212 255
182 212 255
182 212 255
182 212 255
182 212 255
182 212 255
182 212 255
182 211 255
182 211 255
182 211 255
182 211 255
182 211 255
182 211 255
182 211 255
182 211 255
182 211 255
182 211 255
182 211 255
182 211 255
182 211 255
182 211 255
182 211 255
182 211 255
181 211 255
181 211 255
181 211 255
181 211 255
181 211 255
181 211 255
181 211 255
181 211 255
181 211 255
181 211 255
181 211 255
181 211 255
181 211 255
181 211 255
181 211 255
181 211 255
181 211 255
181 211 255
181 211 255
181 211 255
181 211 255
181 211 255
181 211 255
180 210 255
180 210 255
180 210 255
180 210 255
180 210 255
180 210 255
180 210 255
180 210 255
180 210 255
180 210 255
180 210 255
180 210 255
180 210 255
180 210 255
180 210 255
180 210 255
180 210 255
180 210 255
180 210 255
180 210 255
179 210 255
179 210 255
179 210 255
179 210 255
179 210 255
179 210 255
179 210 255
179 210 255
179 210 255
179 210 255
179 210 255
179 210 255
179 209 255
179 209 255
179 209 255
179 209 255
179 209 255
179 209 255
179 209 255
178 209 255
178 209 255
178 209 255
178 209 255
178 209 255
178 209 255
178 209 255
178 209 255
178 209 255
178 209 255
178 209 255
178 209 255
178 209 255
178 209 255
178 209 255
178 209 255
178 209 255
178 209 255
177 209 255
177 209 255
177 209 255
177 209 255
177 209 255
177 209 255
177 209 255
177 208 255
177 208 255
177 208 255
177 208 255
167 182 222
107 57 61
105 56 64
106 56 59
107 56 58
103 54 50
105 55 52
106 55 50
107 57 62
105 56 59
102 54 59
108 57 58
105 55 59
105 55 52
101 54 47
109 57 58
109 57 58
102 54 49
104 55 53
105 56 55
104 55 55
103 55 53
105 55 59
105 55 53
104 55 53
102 54 53
111 58 62
101 53 47
104 55 55
106 56 61
102 54 49
109 57 56
109 56 62
103 55 56
109 57 61
104 55 47
101 54 50
112 58 66
108 56 56
108 57 59
108 56 56
101 53 47
106 56 52
110 57 59
111 58 62
103 55 49
104 55 56
105 55 52
108 57 61
108 56 56
104 55 49
107 56 52
102 55 50
108 56 61
104 55 50
105 55 50
103 54 44
104 55 56
105 56 53
105 54 47
104 54 49
103 54 47
109 57 58
105 56 56
106 56 58
106 56 55
107 57 59
100 53 39
110 57 62
104 55 52
108 56 56
105 55 52
103 55 52
101 54 50
105 56 55
104 55 55
108 57 66
103 54 50
103 55 49
101 54 47
106 56 53
105 56 53
98 52 47
100 53 47
108 56 55
106 56 61
105 56 55
104 55 58
107 57 59
104 55 44
102 54 53
101 54 50
111 58 67
108 56 62
107 56 61
103 54 58
104 55 50
108 57 56
103 55 52
106 56 59
102 54 53
104 56 58
106 56 53
105 56 55
106 56 52
105 56 55
104 53 52
107 56 59
107 56 53
103 55 52
107 56 56
102 54 50
105 55 53
106 56 50
102 55 50
110 58 70
171 194 238
177 208 255
177 208 255
177 208 255
177 208 255
177 208 255
177 209 255
177 209 255
177 209 255
177 209 255
177 209 255
177 209 255
178 209 255
178 209 255
178 209 255
178 209 255
178 209 255
178 209 255
178 209 255
178 209 255
178 209 255
178 209 255
178 209 255
178 209 255
178 209 255
178 209 255
178 209 255
178 209 255
178 209 255
178 209 255
179 209 255
179 209 255
179 209 255
179 209 255
179 209 255
179 209 255
179 210 255
179 210 255
179 210 255
179 210 255
179 210 255
179 210 255
179 210 255
179 210 255
179 210 255
179 210 255
179 210 255
179 210 255
179 210 255
180 210 255
180 210 255
180 210 255
180 210 255
180 210 255
180 210 255
180 210 255
180 210 255
180 210 255
180 210 255
180 210 255
180 210 255
180 210 255
180 210 255
180 210 255
180 210 255
180 210 255
180 210 255
180 210 255
180 210 255
180 210 255
181 211 255
181 211 255
181 211 255
181 211 255
181 211 255
181 211 255
181 211 255
181 211 255
181 211 255
181 211 255
181 211 255
181 211 255
181 211 255
181 211 255
181 211 255
181 211 255
181 211 255
181 211 255
181 211 255
181 211 255
181 211 255
181 211 255
182 211 255
182 211 255
182 211 255
182 211 255
182 211 255
182 211 255
182 211 255
182 211 255
182 211 255
182 211 255
182 211 255
182 211 255
182 211 255
182 211 255
182 211 255
182 211 255
182 211 255
182 212 255
182 212 255
182 212 255
182 212 255
182 212 255
182 212 255
182 212 255
182 212 255
182 212 255
183 212 255
183 212 255
183 212 255
183 212 255
183 212 255
183 212 255
183 212 255
183 212 255
183 212 255
183 212 255
183 212 255
183 212 255
183 212 255
183 212 255
183 212 255
183 212 255
183 212 255
183 212 255
183 212 255
183 212 255
183 212 255
183 212 255
183 212 255
183 212 255
183 212 255
184 212 255
184 212 255
184 212 255
183 212 255
183 212 255
183 212 255
183 212 255
183 212 255
183 212 255
183 212 255
183 212 255
183 212 255
183 212 255
183 212 255
183 212 255
183 212 255
183 212 255
183 212 255
183 212 255
183 212 255
183 212 255
183 212 255
183 212 255
183 212 255
183 212 255
183 212 255
183 212 255
183 212 255
183 212 255
183 212 255
183 212 255
183 212 255
183 212 255
182 212 255
182 212 255
182 212 255
182 212 255
182 212 255
182 212 255
182 212 255
182 212 255
182 212 255
182 211 255
182 211 255
182 211 255
182 211 255
182 211 255
182 211 255
182 211 255
182 211 255
182 211 255
182 211 255
182 211 255
182 211 255
182 211 255
182 211 255
182 211 255
182 211 255
181 211 255
181 211 255
181 211 255
181 211 255
181 211 255
181 211 255
181 211 255
181 211 255
181 211 255
181 211 255
181 211 255
181 211 255
181 211 255
181 211 255
181 211 255
181 211 255
181 211 255
181 211 255
181 211 255
181 211 255
181 211 255
181 211 255
180 210 255
180 210 255
180 210 255
180 210 255
180 210 255
180 210 255
180 210 255
180 210 255
180 210 255
180 210 255
180 210 255
180 210 255
180 210 255
180 210 255
180 210 255
180 210 255
180 210 255
180 210 255
180 210 255
180 210 255
180 210 255
179 210 255
179 210 255
179 210 255
179 210 255
179 210 255
179 210 255
179 210 255
179 210 255
179 210 255
179 210 255
179 210 255
179 210 255
179 210 255
179 209 255
179 209 255
179 209 255
179 209 255
179 209 255
178 209 255
178 209 255
178 209 255
178 209 255
178 209 255
178 209 255
178 209 255
178 209 255
178 209 255
178 209 255
178 209 255
178 209 255
178 209 255
178 209 255
178 209 255
178 209 255
178 209 255
178 209 255
178 209 255
178 209 255
178 209 255
177 209 255
141 127 150
107 56 58
110 57 61
103 55 50
110 58 66
110 58 67
107 56 55
101 54 52
107 56 53
107 57 59
106 56 55
102 55 58
112 58 62
108 57 61
108 57 58
105 55 50
105 55 49
107 57 59
104 55 52
107 56 58
103 55 55
106 56 53
106 56 52
103 55 52
103 54 52
106 56 58
105 55 52
103 56 61
106 56 55
106 56 61
106 56 55
109 57 56
106 54 47
106 56 55
106 55 55
106 56 61
108 57 56
103 54 52
107 56 56
101 54 50
103 54 52
106 55 56
106 55 50
108 57 58
101 53 41
111 57 58
106 56 55
105 56 55
106 55 58
111 58 67
101 53 47
100 54 52
106 57 66
107 56 52
103 55 52
99 53 47
106 55 50
109 57 55
104 55 52
108 57 58
106 56 53
105 56 55
102 54 47
103 55 56
103 54 47
104 55 52
106 56 55
105 55 53
104 55 49
107 56 58
107 56 61
108 57 59
105 55 52
108 56 58
106 56 56
104 55 53
103 54 49
104 55 55
105 56 56
96 51 41
106 56 53
105 55 56
105 56 58
102 54 46
103 55 50
103 55 52
102 53 44
110 57 59
110 57 59
106 55 49
103 54 46
107 55 50
101 53 46
101 54 52
101 53 49
105 56 53
106 56 56
100 52 46
101 54 47
101 54 47
106 56 56
107 56 53
108 57 59
106 56 52
102 54 49
106 56 55
104 55 59
105 56 58
110 57 61
108 56 55
101 53 47
104 55 52
109 57 56
106 56 52
108 56 58
107 56 55
126 101 116
177 209 255
177 209 255
178 209 255
178 209 255
178 209 255
178 209 255
178 209 255
178 209 255
178 209 255
178 209 255
178 209 255
178 209 255
178 209 255
178 209 255
178 209 255
178 209 255
178 209 255
178 209 255
178 209 255
178 209 255
178 209 255
179 209 255
179 209 255
179 209 255
179 209 255
179 209 255
179 209 255
179 209 255
179 210 255
179 210 255
179 210 255
179 210 255
179 210 255
179 210 255
179 210 255
179 210 255
179 210 255
179 210 255
179 210 255
179 210 255
180 210 255
180 210 255
180 210 255
180 210 255
180 210 255
180 210 255
180 210 255
180 210 255
180 210 255
180 210 255
180 210 255
180 210 255
180 210 255
180 210 255
180 210 255
180 210 255
180 210 255
180 210 255
180 210 255
180 210 255
180 210 255
181 211 255
181 211 255
181 211 255
181 211 255
181 211 255
181 211 255
181 211 255
181 211 255
181 211 255
181 211 255
181 211 255
181 211 255
181 211 255
181 211 255
181 211 255
181 211 255
181 211 255
181 211 255
181 211 255
181 211 255
181 211 255
181 211 255
182 211 255
182 211 255
182 211 255
182 211 255
182 211 255
182 211 255
182 211 255
182 211 255
182 211 255
182 211 255
182 211 255
182 211 255
182 211 255
182 211 255
182 211 255
182 211 255
182 212 255
182 212 255
182 212 255
182 212 255
182 212 255
182 212 255
182 212 255
182 212 255
182 212 255
182 212 255
183 212 255
183 212 255
183 212 255
183 212 255
183 212 255
183 212 255
183 212 255
183 212 255
183 212 255
183 212 255
183 212 255
183 212 255
183 212 255
183 212 255
183 212 255
183 212 255
183 212 255
183 212 255
183 212 255
183 212 255
183 212 255
183 212 255
183 212 255
183 212 255
183 212 255
183 212 255
183 212 255
183 212 255
183 212 255
183 212 255
184 212 255
184 212 255
184 212 255
184 213 255
184 212 255
184 212 255
184 212 255
184 212 255
184 212 255
184 212 255
184 212 255
184 212 255
184 212 255
184 212 255
183 212 255
183 212 255
183 212 255
183 212 255
183 212 255
183 212 255
183 212 255
183 212 255
183 212 255
183 212 255
183 212 255
183 212 255
183 212 255
183 212 255
183 212 255
183 212 255
183 212 255
183 212 255
183 212 255
183 212 255
183 212 255
183 212 255
183 212 255
183 212 255
183 212 255
183 212 255
183 212 255
183 212 255
183 212 255
183 212 255
183 212 255
182 212 255
182 212 255
182 212 255
182 212 255
182 212 255
182 212 255
182 212 255
182 212 255
182 211 255
182 211 255
182 211 255
182 211 255
182 211 255
182 211 255
182 211 255
182 211 255
182 211 255
182 211 255
182 211 255
182 211 255
182 211 255
182 211 255
182 211 255
182 211 255
181 211 255
181 211 255
181 211 255
181 211 255
181 211 255
181 211 255
181 211 255
181 211 255
181 211 255
181 211 255
181 211 255
181 211 255
181 211 255
181 211 255
181 211 255
181 211 255
181 211 255
181 211 255
181 211 255
181 211 255
181 211 255
181 211 255
180 210 255
180 210 255
180 210 255
180 210 255
180 210 255
180 210 255
180 210 255
180 210 255
180 210 255
180 210 255
180 210 255
180 210 255
180 210 255
180 210 255
180 210 255
180 210 255
180 210 255
180 210 255
180 210 255
180 210 255
179 210 255
179 210 255
179 210 255
179 210 255
179 210 255
179 210 255
179 210 255
179 210 255
179 210 255
179 210 255
179 210 255
179 210 255
179 210 255
179 210 255
179 209 255
179 209 255
179 209 255
179 209 255
179 209 255
179 209 255
179 209 255
178 209 255
178 209 255
178 209 255
178 209 255
178 209 255
178 209 255
178 209 255
178 209 255
178 209 255
178 209 255
178 209 255
168 190 231
105 58 57
102 55 56
103 55 50
108 56 56
104 56 61
111 57 61
111 58 64
101 54 49
108 56 56
100 54 49
106 56 53
103 54 43
105 55 52
103 54 52
107 56 49
101 54 52
106 55 52
104 56 59
104 55 49
105 55 52
106 56 56
108 57 58
103 55 53
105 55 59
106 56 52
107 57 59
102 53 50
109 57 56
100 53 46
104 55 55
105 55 55
104 55 52
104 55 55
109 57 61
106 55 52
103 54 52
106 56 53
104 55 53
108 57 59
107 56 55
105 56 56
108 56 55
102 53 43
107 56 52
102 54 50
107 56 55
105 55 55
101 54 43
101 54 47
107 57 61
105 56 58
98 53 44
102 55 50
104 55 55
100 54 49
107 56 55
108 56 56
106 56 55
98 52 41
103 55 50
108 56 53
107 57 62
105 55 56
104 55 55
108 56 55
103 55 53
104 55 56
106 56 55
104 55 47
106 56 53
108 57 58
111 58 62
106 55 56
105 55 53
106 56 50
104 55 55
110 57 59
110 57 56
106 56 61
103 54 50
109 57 59
106 55 49
103 55 56
108 57 56
105 56 58
107 56 58
103 54 47
98 53 44
102 54 49
103 55 53
107 56 58
101 54 53
103 54 46
109 57 58
108 57 61
104 55 59
110 57 59
103 54 50
103 54 50
108 57 61
106 56 59
101 54 44
107 56 55
107 56 55
108 56 62
102 54 47
104 56 58
109 57 61
101 54 49
103 54 50
103 55 55
102 55 52
105 55 52
100 54 44
106 56 56
106 56 61
103 55 53
170 191 232
178 209 255
178 209 255
178 209 255
178 209 255
178 209 255
178 209 255
178 209 255
178 209 255
178 209 255
178 209 255
178 209 255
179 209 255
179 209 255
179 209 255
179 209 255
179 209 255
179 209 255
179 209 255
179 210 255
179 210 255
179 210 255
179 210 255
179 210 255
179 210 255
179 210 255
179 210 255
179 210 255
179 210 255
179 210 255
179 210 255
179 210 255
179 210 255
180 210 255
180 210 255
180 210 255
180 210 255
180 210 255
180 210 255
180 210 255
180 210 255
180 210 255
180 210 255
180 210 255
180 210 255
180 210 255
180 210 255
180 210 255
180 210 255
180 210 255
180 210 255
180 210 255
180 210 255
181 211 255
181 211 255
181 211 255
181 211 255
181 211 255
181 211 255
181 211 255
181 211 255
181 211 255
181 211 255
181 211 255
181 211 255
181 211 255
181 211 255
181 211 255
181 211 255
181 211 255
181 211 255
181 211 255
181 211 255
181 211 255
181 211 255
182 211 255
182 211 255
182 211 255
182 211 255
182 211 255
182 211 255
182 211 255
182 211 255
182 211 255
182 211 255
182 211 255
182 211 255
182 211 255
182 211 255
182 211 255
182 211 255
182 211 255
182 212 255
182 212 255
182 212 255
182 212 255
182 212 255
182 212 255
182 212 255
182 212 255
183 212 255
183 212 255
183 212 255
183 212 255
183 212 255
183 212 255
183 212 255
183 212 255
183 212 255
183 212 255
183 212 255
183 212 255
183 212 255
183 212 255
183 212 255
183 212 255
183 212 255
183 212 255
183 212 255
183 212 255
183 212 255
183 212 255
183 212 255
183 212 255
183 212 255
183 212 255
183 212 255
183 212 255
183 212 255
184 212 255
184 212 255
184 212 255
184 212 255
184 212 255
184 212 255
184 212 255
184 212 255
184 212 255
184 212 255
184 212 255
184 212 255
184 213 255
184 213 255
184 213 255
184 213 255
184 213 255
184 213 255
184 213 255
184 213 255
184 213 255
184 213 255
184 213 255
184 212 255
184 212 255
184 212 255
184 212 255
184 212 255
184 212 255
184 212 255
184 212 255
184 212 255
184 212 255
184 212 255
184 212 255
183 212 255
183 212 255
183 212 255
183 212 255
183 212 255
183 212 255
183 212 255
183 212 255
183 212 255
183 212 255
183 212 255
183 212 255
183 212 255
183 212 255
183 212 255
183 212 255
183 212 255
183 212 255
183 212 255
183 212 255
183 212 255
183 212 255
183 212 255
183 212 255
183 212 255
183 212 255
183 212 255
183 212 255
182 212 255
182 212 255
182 212 255
182 212 255
182 212 255
182 212 255
182 212 255
182 212 255
182 212 255
182 211 255
182 211 255
182 211 255
182 211 255
182 211 255
182 211 255
182 211 255
182 211 255
182 211 255
182 211 255
182 211 255
182 211 255
182 211 255
182 211 255
182 211 255
182 211 255
181 211 255
181 211 255
181 211 255
181 211 255
181 211 255
181 211 255
181 211 255
181 211 255
181 211 255
181 211 255
181 211 255
181 211 255
181 211 255
181 211 255
181 211 255
181 211 255
181 211 255
181 211 255
181 211 255
181 211 255
181 211 255
181 211 255
180 210 255
180 210 255
180 210 255
180 210 255
180 210 255
180 210 255
180 210 255
180 210 255
180 210 255
180 210 255
180 210 255
180 210 255
180 210 255
180 210 255
180 210 255
180 210 255
180 210 255
180 210 255
180 210 255
180 210 255
179 210 255
179 210 255
179 210 255
179 210 255
179 210 255
179 210 255
179 210 255
179 210 255
179 210 255
179 210 255
179 210 255
179 210 255
179 210 255
179 210 255
179 209 255
179 209 255
179 209 255
179 209 255
179 209 255
179 209 255
179 209 255
178 209 255
178 209 255
129 111 123
107 57 61
102 55 52
108 57 59
108 57 61
106 56 53
107 56 56
101 53 50
101 53 43
102 54 49
111 58 61
107 56 55
101 55 55
102 55 53
104 55 47
103 55 53
109 57 62
108 57 64
105 56 53
98 53 44
111 57 61
107 56 58
110 57 59
103 54 49
107 56 53
107 57 62
99 53 46
111 58 59
103 55 50
104 55 47
106 54 52
100 52 49
104 55 49
111 58 61
100 53 47
99 52 43
102 55 52
106 56 56
104 55 50
106 56 56
107 56 52
105 55 50
106 56 58
105 56 59
106 56 59
108 56 56
107 55 55
105 55 50
102 54 47
107 56 58
105 55 50
105 55 49
101 54 49
104 55 47
108 56 58
97 52 41
108 57 61
105 56 56
110 57 56
111 57 59
107 56 50
109 57 58
107 56 55
104 55 49
106 56 55
106 56 52
104 55 53
106 55 55
106 55 56
106 55 59
100 53 41
103 54 49
101 53 47
103 55 55
104 55 50
102 54 53
105 55 53
106 56 59
106 56 56
101 53 46
108 56 55
104 55 50
107 56 53
100 53 43
99 52 47
107 56 59
107 56 53
106 56 56
107 56 59
101 54 49
103 54 50
102 55 52
106 56 56
105 56 55
100 54 47
109 57 61
102 54 49
107 56 58
101 54 49
108 56 55
102 54 50
113 58 64
105 56 55
110 58 64
102 55 50
99 53 49
108 57 61
106 56 56
107 57 66
108 57 64
101 54 53
106 55 53
101 54 47
106 56 58
104 56 58
105 56 59
102 55 52
105 56 58
137 123 141
178 209 255
178 209 255
178 209 255
179 209 255
179 209 255
179 209 255
179 209 255
179 209 255
179 209 255
179 210 255
179 210 255
179 210 255
179 210 255
179 210 255
179 210 255
179 210 255
179 210 255
179 210 255
179 210 255
179 210 255
179 210 255
179 210 255
179 210 255
180 210 255
180 210 255
180 210 255
180 210 255
180 210 255
180 210 255
180 210 255
180 210 255
180 210 255
180 210 255
180 210 255
180 210 255
180 210 255
180 210 255
180 210 255
180 210 255
180 210 255
180 210 255
180 210 255
180 210 255
180 210 255
181 211 255
181 211 255
181 211 255
181 211 255
181 211 255
181 211 255
181 211 255
181 211 255
181 211 255
181 211 255
181 211 255
181 211 255
181 211 255
181 211 255
181 211 255
181 211 255
181 211 255
181 211 255
181 211 255
181 211 255
181 211 255
181 211 255
182 211 255
182 211 255
182 211 255
182 211 255
182 211 255
182 211 255
182 211 255
182 211 255
182 211 255
182 211 255
182 211 255
182 211 255
182 211 255
182 211 255
182 211 255
182 212 255
182 212 255
182 212 255
182 212 255
182 212 255
182 212 255
182 212 255
182 212 255
182 212 255
183 212 255
183 212 255
183 212 255
183 212 255
183 212 255
183 212 255
183 212 255
183 212 255
183 212 255
183 212 255
183 212 255
183 212 255
183 212 255
183 212 255
183 212 255
183 212 255
183 212 255
183 212 255
183 212 255
183 212 255
183 212 255
183 212 255
183 212 255
183 212 255
183 212 255
183 212 255
183 212 255
183 212 255
183 212 255
184 212 255
184 212 255
184 212 255
184 212 255
184 212 255
184 212 255
184 212 255
184 212 255
184 212 255
184 212 255
184 213 255
184 213 255
184 213 255
184 213 255
184 213 255
184 213 255
184 213 255
184 213 255
184 213 255
184 213 255
184 213 255
184 213 255
184 213 255
184 213 255
184 213 255
184 213 255
184 213 255
184 213 255
184 213 255
184 213 255
184 213 255
184 213 255
184 213 255
184 213 255
184 213 255
184 213 255
184 213 255
184 213 255
184 213 255
184 213 255
184 213 255
184 213 255
184 212 255
184 212 255
184 212 255
184 212 255
184 212 255
184 212 255
184 212 255
184 212 255
184 212 255
184 212 255
183 212 255
183 212 255
183 212 255
183 212 255
183 212 255
183 212 255
183 212 255
183 212 255
183 212 255
183 212 255
183 212 255
183 212 255
183 212 255
183 212 255
183 212 255
183 212 255
183 212 255
183 212 255
183 212 255
183 212 255
183 212 255
183 212 255
183 212 255
183 212 255
183 212 255
183 212 255
183 212 255
183 212 255
183 212 255
182 212 255
182 212 255
182 212 255
182 212 255
182 212 255
182 212 255
182 212 255
182 212 255
182 211 255
182 211 255
182 211 255
182 211 255
182 211 255
182 211 255
182 211 255
182 211 255
182 211 255
182 211 255
182 211 255
182 211 255
182 211 255
182 211 255
182 211 255
182 211 255
181 211 255
181 211 255
181 211 255
181 211 255
181 211 255
181 211 255
181 211 255
181 211 255
181 211 255
181 211 255
181 211 255
181 211 255
181 211 255
181 211 255
181 211 255
181 211 255
181 211 255
181 211 255
181 211 255
181 211 255
181 211 255
181 211 255
180 210 255
180 210 255
180 210 255
180 210 255
180 210 255
180 210 255
180 210 255
180 210 255
180 210 255
180 210 255
180 210 255
180 210 255
180 210 255
180 210 255
180 210 255
180 210 255
180 210 255
180 210 255
180 210 255
180 210 255
180 210 255
179 210 255
179 210 255
179 210 255
179 210 255
179 210 255
179 210 255
179 210 255
179 210 255
179 210 255
179 210 255
179 210 255
179 210 255
179 210 255
174 198 241
105 55 56
99 52 41
108 56 59
106 55 55
102 55 55
103 55 55
104 55 52
104 55 50
103 54 52
107 56 58
103 55 55
104 55 53
108 57 58
105 56 56
103 55 59
108 56 52
107 56 58
104 55 55
101 54 47
107 56 56
105 55 50
100 53 49
108 56 58
103 55 52
102 54 46
103 54 49
107 56 62
105 55 47
104 55 53
108 57 58
108 56 55
102 55 53
108 57 61
101 54 44
104 55 53
101 54 46
100 53 47
105 55 53
108 56 55
110 57 64
103 54 49
109 56 56
105 56 55
102 55 56
98 53 38
105 55 52
105 56 56
104 55 49
101 54 44
107 56 58
100 54 50
109 57 56
105 56 53
105 55 52
108 56 61
107 55 52
104 55 50
104 55 50
100 53 50
107 56 52
103 54 47
106 56 62
102 54 52
100 53 44
106 55 53
110 57 58
105 55 52
103 55 53
103 55 58
105 55 52
107 56 56
105 55 49
106 56 55
106 56 58
102 54 49
105 55 52
101 53 44
108 56 55
112 58 64
102 54 50
106 56 53
103 53 50
106 56 53
110 57 61
103 54 53
105 55 53
106 55 50
105 55 50
107 56 52
99 52 39
107 56 58
105 55 53
104 55 44
102 54 39
102 54 47
99 53 46
104 55 49
103 54 50
106 56 59
108 56 58
103 55 49
107 57 61
108 56 61
107 56 52
109 57 59
103 54 53
108 56 61
102 54 47
104 54 52
102 54 47
101 54 47
104 55 53
106 55 50
105 55 58
106 56 58
98 53 41
103 55 52
101 54 47
105 61 56
176 203 248
179 210 255
179 210 255
179 210 255
179 210 255
179 210 255
179 210 255
179 210 255
179 210 255
179 210 255
179 210 255
179 210 255
179 210 255
180 210 255
180 210 255
180 210 255
180 210 255
180 210 255
180 210 255
180 210 255
180 210 255
180 210 255
180 210 255
180 210 255
180 210 255
180 210 255
180 210 255
180 210 255
180 210 255
180 210 255
180 210 255
180 210 255
180 210 255
180 210 255
180 210 255
181 211 255
181 211 255
181 211 255
181 211 255
181 211 255
181 211 255
181 211 255
181 211 255
181 211 255
181 211 255
181 211 255
181 211 255
181 211 255
181 211 255
181 211 255
181 211 255
181 211 255
181 211 255
181 211 255
181 211 255
181 211 255
181 211 255
182 211 255
182 211 255
182 211 255
182 211 255
182 211 255
182 211 255
182 211 255
182 211 255
182 211 255
182 211 255
182 211 255
182 211 255
182 211 255
182 211 255
182 211 255
182 212 255
182 212 255
182 212 255
182 212 255
182 212 255
182 212 255
182 212 255
182 212 255
182 212 255
183 212 255
183 212 255
183 212 255
183 212 255
183 212 255
183 212 255
183 212 255
183 212 255
183 212 255
183 212 255
183 212 255
183 212 255
183 212 255
183 212 255
183 212 255
183 212 255
183 212 255
183 212 255
183 212 255
183 212 255
183 212 255
183 212 255
183 212 255
183 212 255
183 212 255
183 212 255
183 212 255
183 212 255
184 212 255
184 212 255
184 212 255
184 212 255
184 212 255
184 212 255
184 212 255
184 212 255
184 212 255
184 212 255
184 212 255
184 213 255
184 213 255
184 213 255
184 213 255
184 213 255
184 213 255
184 213 255
184 213 255
184 213 255
184 213 255
184 213 255
184 213 255
184 213 255
184 213 255
184 213 255
184 213 255
184 213 255
184 213 255
184 213 255
184 213 255
184 213 255
185 213 255
185 213 255
185 213 255
185 213 255
185 213 255
185 213 255
184 213 255
184 213 255
184 213 255
184 213 255
184 213 255
184 213 255
184 213 255
184 213 255
184 213 255
184 213 255
184 213 255
184 213 255
184 213 255
184 213 255
184 213 255
184 213 255
184 213 255
184 213 255
184 213 255
184 213 255
184 213 255
184 213 255
184 213 255
184 213 255
184 212 255
184 212 255
184 212 255
184 212 255
184 212 255
184 212 255
184 212 255
184 212 255
184 212 255
184 212 255
183 212 255
183 212 255
183 212 255
183 212 255
183 212 255
183 212 255
183 212 255
183 212 255
183 212 255
183 212 255
183 212 255
183 212 255
183 212 255
183 212 255
183 212 255
183 212 255
183 212 255
183 212 255
183 212 255
183 212 255
183 212 255
183 212 255
183 212 255
183 212 255
183 212 255
183 212 255
183 212 255
183 212 255
183 212 255
182 212 255
182 212 255
182 212 255
182 212 255
182 212 255
182 212 255
182 212 255
182 211 255
182 211 255
182 211 255
182 211 255
182 211 255
182 211 255
182 211 255
182 211 255
182 211 255
182 211 255
182 211 255
182 211 255
182 211 255
182 211 255
182 211 255
182 211 255
181 211 255
181 211 255
181 211 255
181 211 255
181 211 255
181 211 255
181 211 255
181 211 255
181 211 255
181 211 255
181 211 255
181 211 255
181 211 255
181 211 255
181 211 255
181 211 255
181 211 255
181 211 255
181 211 255
181 211 255
181 211 255
181 211 255
181 211 255
180 210 255
180 210 255
180 210 255
180 210 255
180 210 255
180 210 255
180 210 255
180 210 255
180 210 255
180 210 255
180 210 255
180 210 255
180 210 255
180 210 255
180 210 255
180 210 255
180 210 255
180 210 255
180 210 255
180 210 255
180 210 255
180 210 255
179 210 255
179 210 255
145 136 160
107 56 52
105 56 61
108 57 56
101 53 46
104 55 52
104 55 53
105 55 49
106 55 55
109 57 64
104 55 52
104 55 49
106 56 55
105 56 56
106 56 53
105 55 56
108 56 55
105 55 52
104 55 52
104 55 53
102 54 49
106 56 55
99 53 49
103 55 50
105 55 56
104 54 50
103 54 52
99 53 47
113 58 62
103 54 52
103 55 53
102 54 39
106 56 55
103 55 52
103 54 55
100 54 50
105 54 52
101 53 44
105 56 53
108 57 62
109 57 61
100 53 44
107 56 53
108 56 55
103 55 55
104 55 52
104 55 50
103 55 49
109 57 62
102 55 52
105 55 50
100 52 44
103 54 47
104 54 49
107 56 50
103 54 49
103 55 49
100 53 44
102 53 52
100 53 46
103 54 52
107 56 56
106 56 50
104 54 47
103 55 56
103 54 47
101 54 49
107 56 53
105 55 52
109 57 56
101 53 46
106 55 50
107 55 52
106 55 49
103 55 55
107 55 53
103 55 50
108 56 53
103 54 50
103 55 47
105 55 50
104 55 55
104 55 52
107 56 56
99 53 44
107 56 50
105 54 47
99 52 44
100 54 44
107 55 49
107 56 56
105 55 53
101 53 47
103 54 52
104 55 50
102 55 53
107 57 61
104 55 52
106 56 56
106 56 53
103 54 46
106 56 55
105 54 52
107 56 56
104 56 56
105 55 53
105 56 58
108 57 58
101 53 47
107 57 61
100 53 50
102 55 52
107 56 53
103 54 52
103 54 49
103 55 55
101 54 50
106 56 61
111 58 66
106 56 59
146 139 164
179 210 255
179 210 255
179 210 255
180 210 255
180 210 255
180 210 255
180 210 255
180 210 255
180 210 255
180 210 255
180 210 255
180 210 255
180 210 255
180 210 255
180 210 255
180 210 255
180 210 255
180 210 255
180 210 255
180 210 255
180 210 255
180 210 255
180 210 255
180 210 255
181 211 255
181 211 255
181 211 255
181 211 255
181 211 255
181 211 255
181 211 255
181 211 255
181 211 255
181 211 255
181 211 255
181 211 255
181 211 255
181 211 255
181 211 255
181 211 255
181 211 255
181 211 255
181 211 255
181 211 255
181 211 255
181 211 255
181 211 255
182 211 255
182 211 255
182 211 255
182 211 255
182 211 255
182 211 255
182 211 255
182 211 255
182 211 255
182 211 255
182 211 255
182 211 255
182 211 255
182 211 255
182 211 255
182 212 255
182 212 255
182 212 255
182 212 255
182 212 255
182 212 255
182 212 255
182 212 255
182 212 255
183 212 255
183 212 255
183 212 255
183 212 255
183 212 255
183 212 255
183 212 255
183 212 255
183 212 255
183 212 255
183 212 255
183 212 255
183 212 255
183 212 255
183 212 255
183 212 255
183 212 255
183 212 255
183 212 255
183 212 255
183 212 255
183 212 255
183 212 255
183 212 255
183 212 255
183 212 255
183 212 255
184 212 255
184 212 255
184 212 255
184 212 255
184 212 255
184 212 255
184 212 255
184 212 255
184 212 255
184 212 255
184 212 255
184 213 255
184 213 255
184 213 255
184 213 255
184 213 255
184 213 255
184 213 255
184 213 255
184 213 255
184 213 255
184 213 255
184 213 255
184 213 255
184 213 255
184 213 255
184 213 255
184 213 255
184 213 255
184 213 255
184 213 255
184 213 255
184 213 255
184 213 255
185 213 255
185 213 255
185 213 255
185 213 255
185 213 255
185 213 255
185 213 255
185 213 255
185 213 255
185 213 255
185 213 255
185 213 255
185 213 255
185 213 255
185 213 255
185 213 255
185 213 255
185 213 255
185 213 255
185 213 255
185 213 255
185 213 255
185 213 255
185 213 255
185 213 255
184 213 255
184 213 255
184 213 255
184 213 255
184 213 255
184 213 255
184 213 255
184 213 255
184 213 255
184 213 255
184 213 255
184 213 255
184 213 255
184 213 255
184 213 255
184 213 255
184 213 255
184 213 255
184 213 255
184 213 255
184 213 255
184 213 255
184 213 255
184 212 255
184 212 255
184 212 255
184 212 255
184 212 255
184 212 255
184 212 255
184 212 255
184 212 255
184 212 255
183 212 255
183 212 255
183 212 255
183 212 255
183 212 255
183 212 255
183 212 255
183 212 255
183 212 255
183 212 255
183 212 255
183 212 255
183 212 255
183 212 255
183 212 255
183 212 255
183 212 255
183 212 255
183 212 255
183 212 255
183 212 255
183 212 255
183 212 255
183 212 255
183 212 255
183 212 255
183 212 255
183 212 255
182 212 255
182 212 255
182 212 255
182 212 255
182 212 255
182 212 255
182 212 255
182 211 255
182 211 255
182 211 255
182 211 255
182 211 255
182 211 255
182 211 255
182 211 255
182 211 255
182 211 255
182 211 255
182 211 255
182 211 255
182 211 255
182 211 255
182 211 255
182 211 255
181 211 255
181 211 255
181 211 255
181 211 255
181 211 255
181 211 255
181 211 255
181 211 255
181 211 255
181 211 255
181 211 255
181 211 255
181 211 255
181 211 255
181 211 255
181 211 255
181 211 255
181 211 255
181 211 255
181 211 255
181 211 255
181 211 255
181 211 255
180 210 255
180 210 255
180 210 255
180 210 255
180 210 255
180 210 255
180 210 255
180 210 255
180 210 255
180 210 255
180 210 255
180 210 255
180 210 255
180 210 255
119 81 90
101 54 50
105 55 50
105 56 61
107 56 53
104 55 53
105 55 55
106 56 52
108 56 55
104 55 55
104 54 44
108 56 56
103 55 53
104 54 44
105 55 50
106 56 59
106 55 55
103 54 46
103 55 52
107 56 56
102 54 49
103 54 41
104 54 49
102 54 49
100 53 41
105 54 47
105 55 49
100 53 49
103 54 50
103 55 49
104 55 50
107 57 62
104 55 56
105 56 61
105 55 50
102 54 49
102 54 50
107 56 56
109 57 56
105 55 56
111 58 59
99 53 47
101 53 44
105 54 52
104 55 56
105 55 46
105 55 52
101 54 47
107 56 55
107 55 49
102 53 43
107 56 55
98 52 38
100 53 46
105 55 44
106 55 53
97 51 47
108 56 56
102 54 50
102 54 47
101 53 47
105 55 50
105 55 52
107 56 55
101 54 49
103 54 52
105 55 46
105 56 52
104 54 47
106 56 55
106 56 58
102 53 46
104 55 50
105 55 53
104 55 59
110 57 62
105 55 53
106 56 61
102 54 46
96 52 39
107 56 53
103 53 46
104 55 55
111 57 58
106 56 56
107 55 53
108 56 53
103 54 44
108 57 55
107 56 58
107 56 61
104 53 49
104 55 53
105 55 50
106 56 56
108 56 61
103 55 52
106 56 58
109 57 59
104 55 46
108 56 61
106 56 55
104 56 58
103 55 49
108 57 62
100 54 46
109 56 58
99 53 44
105 55 55
107 56 58
103 54 47
107 56 58
101 54 47
104 55 52
107 56 56
106 55 55
104 55 52
102 53 56
105 56 59
106 55 52
125 91 102
180 210 255
180 210 255
180 210 255
180 210 255
180 210 255
180 210 255
180 210 255
180 210 255
180 210 255
180 210 255
180 210 255
180 210 255
180 210 255
180 210 255
180 210 255
181 211 255
181 211 255
181 211 255
181 211 255
181 211 255
181 211 255
181 211 255
181 211 255
181 211 255
181 211 255
181 211 255
181 211 255
181 211 255
181 211 255
181 211 255
181 211 255
181 211 255
181 211 255
181 211 255
181 211 255
181 211 255
181 211 255
181 211 255
182 211 255
182 211 255
182 211 255
182 211 255
182 211 255
182 211 255
182 211 255
182 211 255
182 211 255
182 211 255
182 211 255
182 211 255
182 211 255
182 211 255
182 211 255
182 212 255
182 212 255
182 212 255
182 212 255
182 212 255
182 212 255
182 212 255
182 212 255
182 212 255
183 212 255
183 212 255
183 212 255
183 212 255
183 212 255
183 212 255
183 212 255
183 212 255
183 212 255
183 212 255
183 212 255
183 212 255
183 212 255
183 212 255
183 212 255
183 212 255
183 212 255
183 212 255
183 212 255
183 212 255
183 212 255
183 212 255
183 212 255
183 212 255
183 212 255
183 212 255
183 212 255
184 212 255
184 212 255
184 212 255
184 212 255
184 212 255
184 212 255
184 212 255
184 212 255
184 212 255
184 212 255
184 213 255
184 213 255
184 213 255
184 213 255
184 213 255
184 213 255
184 213 255
184 213 255
184 213 255
184 213 255
184 213 255
184 213 255
184 213 255
184 213 255
184 213 255
184 213 255
184 213 255
184 213 255
184 213 255
184 213 255
184 213 255
184 213 255
184 213 255
185 213 255
185 213 255
185 213 255
185 213 255
185 213 255
185 213 255
185 213 255
185 213 255
185 213 255
185 213 255
185 213 255
185 213 255
185 213 255
185 213 255
185 213 255
185 213 255
185 213 255
185 213 255
185 213 255
185 213 255
185 213 255
185 213 255
185 213 255
185 213 255
185 213 255
185 213 255
185 213 255
185 213 255
185 213 255
185 213 255
185 213 255
185 213 255
185 213 255
185 213 255
185 213 255
185 213 255
185 213 255
185 213 255
185 213 255
185 213 255
185 213 255
185 213 255
185 213 255
185 213 255
185 213 255
185 213 255
185 213 255
184 213 255
184 213 255
184 213 255
184 213 255
184 213 255
184 213 255
184 213 255
184 213 255
184 213 255
184 213 255
184 213 255
184 213 255
184 213 255
184 213 255
184 213 255
184 213 255
184 213 255
184 213 255
184 213 255
184 213 255
184 213 255
184 212 255
184 212 255
184 212 255
184 212 255
184 212 255
184 212 255
184 212 255
184 212 255
184 212 255
184 212 255
183 212 255
183 212 255
183 212 255
183 212 255
183 212 255
183 212 255
183 212 255
183 212 255
183 212 255
183 212 255
183 212 255
183 212 255
183 212 255
183 212 255
183 212 255
183 212 255
183 212 255
183 212 255
183 212 255
183 212 255
183 212 255
183 212 255
183 212 255
183 212 255
183 212 255
183 212 255
183 212 255
183 212 255
182 212 255
182 212 255
182 212 255
182 212 255
182 212 255
182 212 255
182 212 255
182 212 255
182 211 255
182 211 255
182 211 255
182 211 255
182 211 255
182 211 255
182 211 255
182 211 255
182 211 255
182 211 255
182 211 255
182 211 255
182 211 255
182 211 255
182 211 255
181 211 255
181 211 255
181 211 255
181 211 255
181 211 255
181 211 255
181 211 255
181 211 255
181 211 255
181 211 255
181 211 255
181 211 255
181 211 255
181 211 255
181 211 255
181 211 255
181 211 255
181 211 255
181 211 255
181 211 255
181 211 255
181 211 255
181 211 255
181 211 255
181 211 255
180 210 255
180 210 255
160 167 199
105 56 55
100 52 43
104 55 52
108 57 61
104 55 56
104 55 53
100 53 44
101 53 46
101 54 53
105 55 53
107 55 53
101 53 49
105 56 55
106 55 55
107 57 61
104 55 56
104 55 50
109 57 56
107 56 49
107 56 59
106 56 56
107 56 53
107 56 58
103 55 55
106 55 47
105 55 50
102 54 49
106 56 50
103 55 49
101 53 44
105 56 55
110 57 53
103 55 49
105 54 55
100 53 43
107 56 52
102 54 53
101 54 49
102 54 52
104 54 50
106 56 58
101 54 50
107 56 55
105 56 55
108 56 55
102 54 44
108 56 55
105 55 56
109 57 55
107 56 56
104 55 52
106 55 50
104 54 47
110 57 58
102 54 47
104 54 49
108 56 56
103 55 47
102 54 47
102 54 49
102 54 44
108 57 62
103 54 50
103 54 49
99 53 46
102 54 52
103 54 39
103 54 46
105 55 53
103 54 53
105 56 56
103 54 46
106 56 58
106 56 58
101 53 47
107 56 53
108 57 61
103 54 50
105 55 52
106 56 58
99 53 46
105 56 55
105 56 55
109 57 64
111 57 56
101 53 46
103 54 47
103 55 52
106 56 52
102 54 46
103 54 53
104 55 50
101 54 43
102 53 43
101 54 46
103 54 47
104 54 49
106 56 53
103 55 50
109 56 50
102 54 50
105 56 56
109 57 59
104 55 46
104 54 49
102 54 46
104 55 50
101 53 46
103 54 52
103 54 52
109 57 61
105 55 50
106 56 61
102 55 52
102 54 53
103 54 46
106 56 50
106 56 56
103 55 52
104 55 53
105 55 50
158 164 196
180 210 255
180 210 255
180 210 255
181 211 255
181 211 255
181 211 255
181 211 255
181 211 255
181 211 255
181 211 255
181 211 255
181 211 255
181 211 255
181 211 255
181 211 255
181 211 255
181 211 255
181 211 255
181 211 255
181 211 255
181 211 255
181 211 255
181 211 255
181 211 255
181 211 255
181 211 255
181 211 255
182 211 255
182 211 255
182 211 255
182 211 255
182 211 255
182 211 255
182 211 255
182 211 255
182 211 255
182 211 255
182 211 255
182 211 255
182 211 255
182 211 255
182 211 255
182 211 255
182 212 255
182 212 255
182 212 255
182 212 255
182 212 255
182 212 255
182 212 255
183 212 255
183 212 255
183 212 255
183 212 255
183 212 255
183 212 255
183 212 255
183 212 255
183 212 255
183 212 255
183 212 255
183 212 255
183 212 255
183 212 255
183 212 255
183 212 255
183 212 255
183 212 255
183 212 255
183 212 255
183 212 255
183 212 255
183 212 255
183 212 255
183 212 255
183 212 255
183 212 255
184 212 255
184 212 255
184 212 255
184 212 255
184 212 255
184 212 255
184 212 255
184 212 255
184 212 255
184 212 255
184 212 255
184 213 255
184 213 255
184 213 255
184 213 255
184 213 255
184 213 255
184 213 255
184 213 255
184 213 255
184 213 255
184 213 255
184 213 255
184 213 255
184 213 255
184 213 255
184 213 255
184 213 255
184 213 255
184 213 255
184 213 255
184 213 255
185 213 255
185 213 255
185 213 255
185 213 255
185 213 255
185 213 255
185 213 255
185 213 255
185 213 255
185 213 255
185 213 255
185 213 255
185 213 255
185 213 255
185 213 255
185 213 255
185 213 255
185 213 255
185 213 255
185 213 255
185 213 255
185 213 255
185 213 255
185 213 255
185 213 255
185 213 255
185 213 255
185 213 255
185 213 255
185 213 255
185 213 255
185 213 255
185 213 255
185 213 255
185 213 255
185 213 255
185 213 255
185 213 255
185 213 255
185 213 255
185 213 255
185 213 255
185 213 255
185 213 255
185 213 255
185 213 255
185 213 255
185 213 255
185 213 255
185 213 255
185 213 255
185 213 255
185 213 255
185 213 255
185 213 255
185 213 255
185 213 255
185 213 255
185 213 255
185 213 255
185 213 255
185 213 255
185 213 255
185 213 255
185 213 255
185 213 255
185 213 255
185 213 255
185 213 255
184 213 255
184 213 255
184 213 255
184 213 255
184 213 255
184 213 255
184 213 255
184 213 255
184 213 255
184 213 255
184 213 255
184 213 255
184 213 255
184 213 255
184 213 255
184 213 255
184 213 255
184 213 255
184 213 255
184 213 255
184 213 255
184 213 255
184 212 255
184 212 255
184 212 255
184 212 255
184 212 255
184 212 255
184 212 255
184 212 255
184 212 255
183 212 255
183 212 255
183 212 255
183 212 255
183 212 255
183 212 255
183 212 255
183 212 255
183 212 255
183 212 255
183 212 255
183 212 255
183 212 255
183 212 255
183 212 255
183 212 255
183 212 255
183 212 255
183 212 255
183 212 255
183 212 255
183 212 255
183 212 255
183 212 255
183 212 255
183 212 255
183 212 255
183 212 255
182 212 255
182 212 255
182 212 255
182 212 255
182 212 255
182 212 255
182 212 255
182 212 255
182 211 255
182 211 255
182 211 255
182 211 255
182 211 255
182 211 255
182 211 255
182 211 255
182 211 255
182 211 255
182 211 255
182 211 255
182 211 255
182 211 255
182 211 255
182 211 255
181 211 255
181 211 255
181 211 255
181 211 255
181 211 255
181 211 255
181 211 255
181 211 255
181 211 255
181 211 255
181 211 255
181 211 255
181 211 255
181 211 255
181 211 255
181 211 255
139 124 146
114 58 61
103 53 52
107 56 56
112 58 61
102 53 53
100 53 52
102 54 52
106 56 55
100 53 44
104 55 53
103 54 47
101 54 52
101 54 53
105 55 56
112 58 62
102 54 49
107 57 64
103 55 49
101 53 49
104 55 56
108 56 55
105 56 56
108 56 55
103 55 49
106 55 47
105 55 52
106 56 55
109 57 61
103 54 46
102 54 39
102 54 46
99 53 44
105 55 49
108 56 58
105 55 52
100 54 50
104 55 52
106 55 49
98 52 49
103 54 49
107 56 58
102 54 49
105 54 53
104 55 52
100 53 46
108 57 58
106 55 55
100 54 46
101 53 46
103 54 47
105 55 55
104 55 56
103 54 44
110 57 58
110 57 58
102 54 49
107 55 50
104 55 52
102 53 44
106 54 49
101 53 46
104 55 52
99 53 43
108 56 55
99 53 43
104 54 50
101 52 47
101 53 47
104 55 49
105 55 52
102 54 53
105 55 49
107 56 56
105 55 56
106 55 56
104 55 50
106 56 55
104 53 47
99 52 36
103 54 53
107 56 55
102 54 53
97 51 38
100 52 50
103 55 52
101 54 49
98 52 36
100 53 41
108 57 58
98 53 46
103 54 50
104 55 52
102 55 52
109 56 56
105 55 52
103 55 53
100 53 47
108 57 55
104 55 53
103 54 47
100 54 47
106 56 53
104 54 50
107 56 52
105 56 56
104 55 50
105 55 46
103 55 50
104 55 52
106 55 53
101 54 49
110 57 58
106 56 53
105 54 47
108 56 55
108 56 55
102 54 47
102 53 49
110 57 59
105 54 39
99 53 39
145 137 162
181 211 255
181 211 255
181 211 255
181 211 255
181 211 255
181 211 255
181 211 255
181 211 255
181 211 255
181 211 255
181 211 255
181 211 255
181 211 255
181 211 255
181 211 255
181 211 255
182 211 255
182 211 255
182 211 255
182 211 255
182 211 255
182 211 255
182 211 255
182 211 255
182 211 255
182 211 255
182 211 255
182 211 255
182 211 255
182 211 255
182 211 255
182 211 255
182 211 255
182 212 255
182 212 255
182 212 255
182 212 255
182 212 255
182 212 255
182 212 255
183 212 255
183 212 255
183 212 255
183 212 255
183 212 255
183 212 255
183 212 255
183 212 255
183 212 255
183 212 255
183 212 255
183 212 255
183 212 255
183 212 255
183 212 255
183 212 255
183 212 255
183 212 255
183 212 255
183 212 255
183 212 255
183 212 255
183 212 255
183 212 255
183 212 255
183 212 255
183 212 255
183 212 255
184 212 255
184 212 255
184 212 255
184 212 255
184 212 255
184 212 255
184 212 255
184 212 255
184 212 255
184 212 255
184 213 255
184 213 255
184 213 255
184 213 255
184 213 255
184 213 255
184 213 255
184 213 255
184 213 255
184 213 255
184 213 255
184 213 255
184 213 255
184 213 255
184 213 255
184 213 255
184 213 255
184 213 255
184 213 255
184 213 255
184 213 255
185 213 255
185 213 255
185 213 255
185 213 255
185 213 255
185 213 255
185 213 255
185 213 255
185 213 255
185 213 255
185 213 255
185 213 255
185 213 255
185 213 255
185 213 255
185 213 255
185 213 255
185 213 255
185 213 255
185 213 255
185 213 255
185 213 255
185 213 255
185 213 255
185 213 255
185 213 255
185 213 255
185 213 255
185 213 255
185 213 255
185 213 255
185 213 255
185 213 255
185 213 255
185 213 255
185 213 255
185 213 255
185 213 255
185 213 255
186 214 255
186 214 255
186 214 255
186 214 255
186 214 255
186 214 255
186 214 255
186 214 255
186 214 255
186 214 255
186 214 255
186 214 255
186 214 255
186 214 255
185 213 255
185 213 255
185 213 255
185 213 255
185 213 255
185 213 255
185 213 255
185 213 255
185 213 255
185 213 255
185 213 255
185 213 255
185 213 255
185 213 255
185 213 255
185 213 255
185 213 255
185 213 255
185 213 255
185 213 255
185 213 255
185 213 255
185 213 255
185 213 255
185 213 255
185 213 255
185 213 255
185 213 255
185 213 255
185 213 255
185 213 255
185 213 255
185 213 255
185 213 255
185 213 255
185 213 255
185 213 255
184 213 255
184 213 255
184 213 255
184 213 255
184 213 255
184 213 255
184 213 255
184 213 255
184 213 255
184 213 255
184 213 255
184 213 255
184 213 255
184 213 255
184 213 255
184 213 255
184 213 255
184 213 255
184 213 255
184 213 255
184 213 255
184 212 255
184 212 255
184 212 255
184 212 255
184 212 255
184 212 255
184 212 255
184 212 255
184 212 255
184 212 255
183 212 255
183 212 255
183 212 255
183 212 255
183 212 255
183 212 255
183 212 255
183 212 255
183 212 255
183 212 255
183 212 255
183 212 255
183 212 255
183 212 255
183 212 255
183 212 255
183 212 255
183 212 255
183 212 255
183 212 255
183 212 255
183 212 255
183 212 255
183 212 255
183 212 255
183 212 255
183 212 255
182 212 255
182 212 255
182 212 255
182 212 255
182 212 255
182 212 255
182 212 255
182 212 255
182 211 255
182 211 255
182 211 255
182 211 255
182 211 255
182 211 255
182 211 255
182 211 255
182 211 255
182 211 255
182 211 255
182 211 255
182 211 255
182 211 255
182 211 255
182 211 255
182 211 255
182 211 255
181 211 255
181 211 255
181 211 255
179 205 248
111 67 65
107 56 55
104 55 52
105 56 55
102 54 49
101 53 46
107 56 56
105 55 50
105 55 52
110 57 56
104 55 47
109 56 59
101 53 36
101 54 49
103 54 46
109 57 66
103 55 49
108 56 55
108 56 56
107 56 53
101 54 50
103 55 50
108 57 58
105 55 53
103 55 52
100 53 41
104 55 46
103 55 53
101 54 53
103 55 50
104 55 52
104 54 44
105 55 52
112 58 58
110 57 52
106 56 58
104 54 47
103 55 50
105 55 53
104 55 47
108 56 62
108 56 55
105 55 53
101 54 46
103 55 55
106 56 56
105 55 53
98 52 43
101 53 39
105 54 44
103 55 50
102 54 47
99 53 46
109 57 56
106 56 52
103 55 47
105 55 53
104 55 44
106 55 50
104 55 49
102 54 49
100 53 39
102 54 41
105 56 53
106 56 58
101 53 46
100 54 46
99 53 43
102 54 44
106 55 50
102 54 50
106 55 53
109 57 58
108 57 59
102 54 53
106 56 52
105 55 50
106 55 53
108 57 58
107 57 59
103 54 47
102 55 52
101 53 52
102 54 46
109 55 56
103 55 53
100 53 44
107 55 58
105 55 49
101 54 52
101 54 49
102 54 46
104 54 49
106 55 55
103 54 46
106 56 52
106 56 56
103 55 47
108 56 59
103 54 44
103 55 52
106 56 56
108 56 55
102 54 47
104 55 55
107 57 61
106 56 56
105 56 56
99 52 46
103 55 52
103 55 50
103 55 50
107 56 53
106 55 53
102 54 43
106 55 56
105 55 50
106 56 53
102 54 53
97 52 44
107 57 59
105 55 53
119 78 86
181 211 255
181 211 255
181 211 255
181 211 255
182 211 255
182 211 255
182 211 255
182 211 255
182 211 255
182 211 255
182 211 255
182 211 255
182 211 255
182 211 255
182 211 255
182 211 255
182 211 255
182 211 255
182 211 255
182 211 255
182 211 255
182 212 255
182 212 255
182 212 255
182 212 255
182 212 255
182 212 255
182 212 255
182 212 255
183 212 255
183 212 255
183 212 255
183 212 255
183 212 255
183 212 255
183 212 255
183 212 255
183 212 255
183 212 255
183 212 255
183 212 255
183 212 255
183 212 255
183 212 255
183 212 255
183 212 255
183 212 255
183 212 255
183 212 255
183 212 255
183 212 255
183 212 255
183 212 255
183 212 255
183 212 255
183 212 255
183 212 255
184 212 255
184 212 255
184 212 255
184 212 255
184 212 255
184 212 255
184 212 255
184 212 255
184 212 255
184 213 255
184 213 255
184 213 255
184 213 255
184 213 255
184 213 255
184 213 255
184 213 255
184 213 255
184 213 255
184 213 255
184 213 255
184 213 255
184 213 255
184 213 255
184 213 255
184 213 255
184 213 255
184 213 255
184 213 255
184 213 255
184 213 255
185 213 255
185 213 255
185 213 255
185 213 255
185 213 255
185 213 255
185 213 255
185 213 255
185 213 255
185 213 255
185 213 255
185 213 255
185 213 255
185 213 255
185 213 255
185 213 255
185 213 255
185 213 255
185 213 255
185 213 255
185 213 255
185 213 255
185 213 255
185 213 255
185 213 255
185 213 255
185 213 255
185 213 255
185 213 255
185 213 255
185 213 255
185 213 255
185 213 255
185 213 255
185 213 255
185 213 255
185 213 255
186 214 255
186 214 255
186 214 255
186 214 255
186 214 255
186 214 255
186 214 255
186 214 255
186 214 255
186 214 255
186 214 255
186 214 255
186 214 255
186 214 255
186 214 255
186 214 255
186 214 255
186 214 255
186 214 255
186 214 255
186 214 255
186 214 255
186 214 255
186 214 255
186 214 255
186 214 255
186 214 255
186 214 255
186 214 255
186 214 255
186 214 255
186 214 255
186 214 255
186 214 255
186 214 255
186 214 255
186 214 255
186 214 255
186 214 255
185 213 255
185 213 255
185 213 255
185 213 255
185 213 255
185 213 255
185 213 255
185 213 255
185 213 255
185 213 255
185 213 255
185 213 255
185 213 255
185 213 255
185 213 255
185 213 255
185 213 255
185 213 255
185 213 255
185 213 255
185 213 255
185 213 255
185 213 255
185 213 255
185 213 255
185 213 255
185 213 255
185 213 255
185 213 255
185 213 255
185 213 255
185 213 255
185 213 255
185 213 255
185 213 255
185 213 255
185 213 255
184 213 255
184 213 255
184 213 255
184 213 255
184 213 255
184 213 255
184 213 255
184 213 255
184 213 255
184 213 255
184 213 255
184 213 255
184 213 255
184 213 255
184 213 255
184 213 255
184 213 255
184 213 255
184 213 255
184 213 255
184 212 255
184 212 255
184 212 255
184 212 255
184 212 255
184 212 255
184 212 255
184 212 255
184 212 255
183 212 255
184 212 255
183 212 255
183 212 255
183 212 255
183 212 255
183 212 255
183 212 255
183 212 255
183 212 255
183 212 255
183 212 255
183 212 255
183 212 255
183 212 255
183 212 255
183 212 255
183 212 255
183 212 255
183 212 255
183 212 255
183 212 255
183 212 255
183 212 255
183 212 255
183 212 255
183 212 255
183 212 255
183 212 255
183 212 255
182 212 255
182 212 255
182 212 255
182 212 255
182 212 255
182 212 255
182 212 255
182 212 255
182 212 255
182 211 255
182 211 255
182 211 255
182 211 255
182 211 255
182 211 255
182 211 255
167 180 215
104 55 50
106 55 55
104 55 50
107 56 58
104 55 47
106 56 53
103 54 44
104 56 56
105 55 52
104 54 43
108 57 61
106 56 56
103 55 53
107 55 52
103 55 53
108 56 59
105 56 53
104 55 52
105 55 49
103 54 49
109 57 58
105 55 50
102 54 53
101 54 52
106 55 50
102 53 46
107 56 58
101 54 49
100 53 47
108 56 53
103 55 49
102 53 49
103 54 47
107 56 55
108 57 56
104 55 53
109 57 59
102 54 49
100 53 47
102 54 52
101 54 50
101 53 46
104 53 50
103 55 50
101 53 44
106 55 50
100 54 47
105 55 52
101 54 50
107 57 59
101 54 44
105 55 52
105 54 52
107 56 52
102 54 47
102 54 41
102 54 49
104 55 50
101 54 50
100 52 44
100 52 47
108 56 53
102 54 47
100 53 50
100 54 50
103 55 47
99 53 41
94 51 30
103 54 47
105 54 55
108 57 59
106 55 50
101 53 44
110 57 59
105 55 50
105 55 53
105 55 47
107 56 56
107 55 59
107 56 47
101 54 41
99 53 44
99 54 49
108 56 53
105 55 46
104 54 50
102 53 46
105 55 49
101 53 38
103 54 50
104 54 52
112 58 58
101 53 47
103 54 53
107 56 50
102 53 46
104 55 50
114 58 62
101 54 46
107 56 52
102 55 53
100 52 41
106 56 55
109 56 58
101 54 50
106 56 55
103 53 49
104 55 59
103 55 47
108 57 59
99 53 47
105 54 43
105 55 49
106 56 58
103 55 49
104 55 49
98 52 43
99 53 46
110 57 59
103 55 50
104 55 50
105 55 59
110 57 61
163 171 206
182 211 255
182 211 255
182 211 255
182 211 255
182 211 255
182 211 255
182 211 255
182 211 255
182 211 255
182 212 255
182 212 255
182 212 255
182 212 255
182 212 255
182 212 255
182 212 255
182 212 255
182 212 255
183 212 255
183 212 255
183 212 255
183 212 255
183 212 255
183 212 255
183 212 255
183 212 255
183 212 255
183 212 255
183 212 255
183 212 255
183 212 255
183 212 255
183 212 255
183 212 255
183 212 255
183 212 255
183 212 255
183 212 255
183 212 255
183 212 255
183 212 255
183 212 255
183 212 255
183 212 255
184 212 255
184 212 255
184 212 255
184 212 255
184 212 255
184 212 255
184 212 255
184 212 255
184 212 255
184 212 255
184 213 255
184 213 255
184 213 255
184 213 255
184 213 255
184 213 255
184 213 255
184 213 255
184 213 255
184 213 255
184 213 255
184 213 255
184 213 255
184 213 255
184 213 255
184 213 255
184 213 255
184 213 255
184 213 255
184 213 255
184 213 255
185 213 255
185 213 255
185 213 255
185 213 255
185 213 255
185 213 255
185 213 255
185 213 255
185 213 255
185 213 255
185 213 255
185 213 255
185 213 255
185 213 255
185 213 255
185 213 255
185 213 255
185 213 255
185 213 255
185 213 255
185 213 255
185 213 255
185 213 255
185 213 255
185 213 255
185 213 255
185 213 255
185 213 255
185 213 255
185 213 255
185 213 255
185 213 255
185 213 255
185 213 255
185 213 255
185 213 255
185 213 255
186 214 255
186 214 255
186 214 255
186 214 255
186 214 255
186 214 255
186 214 255
186 214 255
186 214 255
186 214 255
186 214 255
186 214 255
186 214 255
186 214 255
186 214 255
186 214 255
186 214 255
186 214 255
186 214 255
186 214 255
186 214 255
186 214 255
186 214 255
186 214 255
186 214 255
186 214 255
186 214 255
186 214 255
186 214 255
186 214 255
186 214 255
186 214 255
186 214 255
186 214 255
186 214 255
186 214 255
186 214 255
186 214 255
186 214 255
186 214 255
186 214 255
186 214 255
186 214 255
186 214 255
186 214 255
186 214 255
186 214 255
186 214 255
186 214 255
186 214 255
186 214 255
186 214 255
186 214 255
186 214 255
186 214 255
186 214 255
186 214 255
186 214 255
186 214 255
186 214 255
186 214 255
186 214 255
186 214 255
186 214 255
185 213 255
185 213 255
185 213 255
185 213 255
185 213 255
185 213 255
185 213 255
185 213 255
185 213 255
185 213 255
185 213 255
185 213 255
185 213 255
185 213 255
185 213 255
185 213 255
185 213 255
185 213 255
185 213 255
185 213 255
185 213 255
185 213 255
185 213 255
185 213 255
185 213 255
185 213 255
185 213 255
185 213 255
185 213 255
185 213 255
185 213 255
185 213 255
185 213 255
185 213 255
185 213 255
185 213 255
184 213 255
184 213 255
184 213 255
184 213 255
184 213 255
184 213 255
184 213 255
184 213 255
184 213 255
184 213 255
184 213 255
184 213 255
184 213 255
184 213 255
184 213 255
184 213 255
184 213 255
184 213 255
184 213 255
184 213 255
184 212 255
184 213 255
184 212 255
184 212 255
184 212 255
184 212 255
184 212 255
184 212 255
184 212 255
184 212 255
183 212 255
183 212 255
183 212 255
183 212 255
183 212 255
183 212 255
183 212 255
183 212 255
183 212 255
183 212 255
183 212 255
183 212 255
183 212 255
183 212 255
183 212 255
183 212 255
183 212 255
183 212 255
183 212 255
183 212 255
183 212 255
183 212 255
183 212 255
183 212 255
183 212 255
183 212 255
183 212 255
183 212 255
182 212 255
182 212 255
182 212 255
182 212 255
182 212 255
129 115 125
106 56 50
102 55 52
106 56 53
104 55 52
105 55 59
101 54 52
102 54 53
104 55 50
103 55 50
98 52 39
103 54 47
101 54 50
106 56 56
107 56 59
105 55 52
108 57 56
106 54 52
106 55 49
108 57 58
105 55 50
107 56 56
102 53 47
102 54 47
104 55 50
107 56 55
105 54 53
99 52 41
105 55 55
103 54 49
105 55 52
99 53 43
101 54 46
109 57 58
100 53 39
106 56 53
112 57 58
105 55 46
102 53 50
105 55 52
106 55 50
103 55 49
107 56 59
103 54 46
106 56 56
106 55 47
110 57 53
107 56 56
107 56 59
105 56 56
100 53 39
99 53 43
106 56 56
106 55 58
107 56 55
104 55 50
103 54 47
103 55 50
100 54 49
100 52 49
100 52 38
109 57 64
100 52 44
103 54 49
107 55 50
104 55 55
105 55 50
103 54 47
101 54 47
104 55 56
99 52 43
104 54 50
103 54 49
108 56 53
102 54 50
106 56 58
98 53 47
109 57 55
107 57 59
98 53 41
105 56 56
103 54 53
105 55 50
103 55 49
101 54 47
103 54 44
104 55 49
107 56 50
103 54 47
105 55 44
98 52 49
105 55 49
107 55 59
99 53 44
99 52 44
99 54 50
97 53 46
104 55 53
107 56 50
104 53 47
104 55 53
105 56 56
103 54 50
102 54 47
104 55 52
99 53 41
106 55 56
101 54 49
108 57 58
104 55 52
103 54 47
106 56 58
104 55 52
105 55 52
108 57 58
106 55 52
101 53 43
107 56 50
104 55 47
104 55 58
106 55 49
106 55 50
104 54 49
100 53 47
132 108 123
182 212 255
182 212 255
182 212 255
182 212 255
183 212 255
183 212 255
183 212 255
183 212 255
183 212 255
183 212 255
183 212 255
183 212 255
183 212 255
183 212 255
183 212 255
183 212 255
183 212 255
183 212 255
183 212 255
183 212 255
183 212 255
183 212 255
183 212 255
183 212 255
183 212 255
183 212 255
183 212 255
183 212 255
183 212 255
183 212 255
183 212 255
183 212 255
183 212 255
184 212 255
184 212 255
184 212 255
184 212 255
184 212 255
184 212 255
184 212 255
184 212 255
184 212 255
184 212 255
184 213 255
184 213 255
184 213 255
184 213 255
184 213 255
184 213 255
184 213 255
184 213 255
184 213 255
184 213 255
184 213 255
184 213 255
184 213 255
184 213 255
184 213 255
184 213 255
184 213 255
184 213 255
184 213 255
184 213 255
185 213 255
185 213 255
185 213 255
185 213 255
185 213 255
185 213 255
185 213 255
185 213 255
185 213 255
185 213 255
185 213 255
185 213 255
185 213 255
185 213 255
185 213 255
185 213 255
185 213 255
185 213 255
185 213 255
185 213 255
185 213 255
185 213 255
185 213 255
185 213 255
185 213 255
185 213 255
185 213 255
185 213 255
185 213 255
185 213 255
185 213 255
185 213 255
185 213 255
185 213 255
185 213 255
185 213 255
186 214 255
186 214 255
186 214 255
186 214 255
186 214 255
186 214 255
186 214 255
186 214 255
186 214 255
186 214 255
186 214 255
186 214 255
186 214 255
186 214 255
186 214 255
186 214 255
186 214 255
186 214 255
186 214 255
186 214 255
186 214 255
186 214 255
186 214 255
186 214 255
186 214 255
186 214 255
186 214 255
186 214 255
186 214 255
186 214 255
186 214 255
186 214 255
186 214 255
186 214 255
186 214 255
186 214 255
186 214 255
186 214 255
186 214 255
187 214 255
187 214 255
187 214 255
187 214 255
187 214 255
187 214 255
186 214 255
186 214 255
186 214 255
186 214 255
186 214 255
186 214 255
186 214 255
186 214 255
186 214 255
186 214 255
186 214 255
186 214 255
186 214 255
186 214 255
186 214 255
186 214 255
186 214 255
186 214 255
186 214 255
186 214 255
186 214 255
186 214 255
186 214 255
186 214 255
186 214 255
186 214 255
186 214 255
186 214 255
186 214 255
186 214 255
186 214 255
186 214 255
186 214 255
186 214 255
186 214 255
186 214 255
186 214 255
186 214 255
186 214 255
186 214 255
186 214 255
186 214 255
186 214 255
186 214 255
186 214 255
185 213 255
185 213 255
185 213 255
185 213 255
185 213 255
185 213 255
185 213 255
185 213 255
185 213 255
185 213 255
185 213 255
185 213 255
185 213 255
185 213 255
185 213 255
185 213 255
185 213 255
185 213 255
185 213 255
185 213 255
185 213 255
185 213 255
185 213 255
185 213 255
185 213 255
185 213 255
185 213 255
185 213 255
185 213 255
185 213 255
185 213 255
185 213 255
185 213 255
185 213 255
185 213 255
185 213 255
184 213 255
184 213 255
184 213 255
184 213 255
184 213 255
184 213 255
184 213 255
184 213 255
184 213 255
184 213 255
184 213 255
184 213 255
184 213 255
184 213 255
184 213 255
184 213 255
184 213 255
184 213 255
184 213 255
184 213 255
184 213 255
184 212 255
184 212 255
184 212 255
184 212 255
184 212 255
184 212 255
184 212 255
184 212 255
184 212 255
183 212 255
183 212 255
183 212 255
183 212 255
183 212 255
183 212 255
183 212 255
183 212 255
183 212 255
183 212 255
183 212 255
183 212 255
183 212 255
183 212 255
183 212 255
183 212 255
183 212 255
183 212 255
183 212 255
183 212 255
115 79 82
106 55 49
105 56 53
102 54 44
101 53 46
103 54 55
103 55 49
105 55 52
103 54 47
103 54 44
105 55 52
106 56 53
101 53 41
103 54 47
103 55 49
100 53 39
107 56 55
101 53 47
108 57 55
106 54 44
106 56 52
100 53 46
101 54 47
109 57 55
107 56 56
101 53 39
106 56 58
103 54 49
105 54 52
107 55 52
107 57 58
106 56 55
105 55 50
105 54 47
101 54 47
100 53 46
106 55 55
107 56 55
102 54 46
105 55 47
103 55 52
105 55 50
99 53 43
103 54 43
104 55 50
105 55 47
106 56 52
104 54 41
103 54 53
105 55 50
105 54 52
103 55 49
105 55 49
101 54 50
103 55 52
100 54 49
104 53 50
109 57 56
106 55 49
104 55 52
107 56 52
103 54 39
106 56 53
106 56 53
103 55 55
106 55 55
106 56 52
104 54 53
104 55 53
103 55 50
106 56 55
102 54 41
105 55 50
106 55 55
103 55 49
104 54 52
100 53 47
105 55 50
104 54 50
102 54 47
102 54 44
107 56 55
103 52 49
102 54 47
106 55 55
104 54 43
106 56 53
109 56 55
105 55 47
104 55 52
103 54 46
104 55 50
104 55 55
104 55 49
106 56 58
99 53 43
106 56 53
106 55 55
108 56 58
111 57 58
107 57 61
104 55 52
102 53 50
103 55 53
104 55 55
103 55 53
105 55 52
103 54 44
108 57 59
101 53 44
106 55 49
104 54 50
101 53 41
108 56 56
110 58 64
109 57 61
103 55 52
103 55 52
108 57 56
105 56 58
103 54 52
105 56 55
102 54 47
110 57 62
125 86 93
183 212 255
183 212 255
183 212 255
183 212 255
183 212 255
183 212 255
183 212 255
183 212 255
183 212 255
183 212 255
183 212 255
183 212 255
183 212 255
183 212 255
183 212 255
183 212 255
183 212 255
183 212 255
183 212 255
183 212 255
184 212 255
184 212 255
184 212 255
184 212 255
184 212 255
184 212 255
184 212 255
184 212 255
184 212 255
184 212 255
184 213 255
184 213 255
184 213 255
184 213 255
184 213 255
184 213 255
184 213 255
184 213 255
184 213 255
184 213 255
184 213 255
184 213 255
184 213 255
184 213 255
184 213 255
184 213 255
184 213 255
184 213 255
184 213 255
184 213 255
184 213 255
185 213 255
185 213 255
185 213 255
185 213 255
185 213 255
185 213 255
185 213 255
185 213 255
185 213 255
185 213 255
185 213 255
185 213 255
185 213 255
185 213 255
185 213 255
185 213 255
185 213 255
185 213 255
185 213 255
185 213 255
185 213 255
185 213 255
185 213 255
185 213 255
185 213 255
185 213 255
185 213 255
185 213 255
185 213 255
185 213 255
185 213 255
185 213 255
185 213 255
185 213 255
185 213 255
185 213 255
186 214 255
186 214 255
186 214 255
186 214 255
186 214 255
186 214 255
186 214 255
186 214 255
186 214 255
186 214 255
186 214 255
186 214 255
186 214 255
186 214 255
186 214 255
186 214 255
186 214 255
186 214 255
186 214 255
186 214 255
186 214 255
186 214 255
186 214 255
186 214 255
186 214 255
186 214 255
186 214 255
186 214 255
186 214 255
186 214 255
186 214 255
186 214 255
186 214 255
186 214 255
186 214 255
186 214 255
186 214 255
186 214 255
186 214 255
186 214 255
186 214 255
186 214 255
186 214 255
186 214 255
187 214 255
186 214 255
187 214 255
187 214 255
187 214 255
187 214 255
187 214 255
187 214 255
187 214 255
187 214 255
187 214 255
187 214 255
187 214 255
187 214 255
187 214 255
187 214 255
187 214 255
187 214 255
187 214 255
187 214 255
187 214 255
187 214 255
187 214 255
187 214 255
187 214 255
187 214 255
187 214 255
187 214 255
186 214 255
186 214 255
186 214 255
186 214 255
186 214 255
186 214 255
186 214 255
186 214 255
186 214 255
186 214 255
186 214 255
186 214 255
186 214 255
186 214 255
186 214 255
186 214 255
186 214 255
186 214 255
186 214 255
186 214 255
186 214 255
186 214 255
186 214 255
186 214 255
186 214 255
186 214 255
186 214 255
186 214 255
186 214 255
186 214 255
186 214 255
186 214 255
186 214 255
186 214 255
186 214 255
186 214 255
186 214 255
186 214 255
186 214 255
186 214 255
186 214 255
186 214 255
186 214 255
186 214 255
185 213 255
185 213 255
185 213 255
185 213 255
185 213 255
185 213 255
185 213 255
185 213 255
185 213 255
185 213 255
185 213 255
185 213 255
185 213 255
185 213 255
185 213 255
185 213 255
185 213 255
185 213 255
185 213 255
185 213 255
185 213 255
185 213 255
185 213 255
185 213 255
185 213 255
185 213 255
185 213 255
185 213 255
185 213 255
185 213 255
185 213 255
185 213 255
185 213 255
185 213 255
184 213 255
185 213 255
184 213 255
184 213 255
184 213 255
184 213 255
184 213 255
184 213 255
184 213 255
184 213 255
184 213 255
184 213 255
184 213 255
184 213 255
184 213 255
184 213 255
184 213 255
184 213 255
184 213 255
184 213 255
184 213 255
184 213 255
184 212 255
184 212 255
184 212 255
184 212 255
184 212 255
184 212 255
184 212 255
184 212 255
184 212 255
183 212 255
184 212 255
183 212 255
183 212 255
183 212 255
183 212 255
169 184 220
102 54 49
102 54 49
96 51 44
105 56 59
97 52 36
106 56 50
107 56 53
103 55 52
101 52 41
103 54 44
102 54 49
103 55 52
105 55 56
98 52 44
104 54 50
104 54 43
105 55 47
109 57 56
107 57 59
103 54 43
112 58 59
106 56 56
106 56 52
101 54 47
103 55 49
101 53 36
101 53 46
102 54 49
104 54 49
107 56 50
106 55 52
107 56 56
101 53 46
105 55 49
101 54 46
103 55 49
97 52 41
102 54 43
105 55 53
106 55 53
105 55 49
102 53 46
106 56 52
104 54 47
102 54 47
104 55 50
106 56 53
103 54 44
103 54 55
104 55 58
106 55 50
102 54 46
106 56 52
104 55 50
104 54 52
103 54 43
100 53 49
106 55 55
104 54 46
98 52 41
105 54 53
107 56 50
109 57 56
107 56 53
105 55 50
111 57 59
105 55 50
100 52 43
104 56 56
102 54 44
106 55 49
108 56 55
104 54 49
104 55 47
109 57 55
101 54 41
107 56 49
104 54 46
104 55 49
102 54 47
101 53 44
102 53 47
103 54 49
101 53 44
101 54 49
106 56 52
105 55 50
106 55 55
106 55 49
103 54 55
106 55 50
105 54 49
104 54 44
104 54 47
97 51 46
109 57 55
102 53 41
108 57 56
105 55 52
104 55 50
109 56 56
101 52 41
105 55 52
100 53 53
99 53 44
103 55 56
103 55 46
103 54 43
102 53 47
108 56 53
98 51 38
105 55 56
99 52 43
106 55 53
108 56 55
104 55 47
102 54 52
106 55 53
102 54 55
100 54 47
107 56 55
108 56 56
101 52 46
106 55 58
100 53 43
181 206 248
183 212 255
183 212 255
183 212 255
183 212 255
183 212 255
184 212 255
184 212 255
184 212 255
184 212 255
184 212 255
184 212 255
184 212 255
184 212 255
184 212 255
184 212 255
184 212 255
184 213 255
184 213 255
184 213 255
184 213 255
184 213 255
184 213 255
184 213 255
184 213 255
184 213 255
184 213 255
184 213 255
184 213 255
184 213 255
184 213 255
184 213 255
184 213 255
184 213 255
184 213 255
184 213 255
184 213 255
185 213 255
185 213 255
185 213 255
185 213 255
185 213 255
185 213 255
185 213 255
185 213 255
185 213 255
185 213 255
185 213 255
185 213 255
185 213 255
185 213 255
185 213 255
185 213 255
185 213 255
185 213 255
185 213 255
185 213 255
185 213 255
185 213 255
185 213 255
185 213 255
185 213 255
185 213 255
185 213 255
185 213 255
185 213 255
185 213 255
185 213 255
185 213 255
185 213 255
185 213 255
185 213 255
185 213 255
186 214 255
186 214 255
186 214 255
186 214 255
186 214 255
186 214 255
186 214 255
186 214 255
186 214 255
186 214 255
186 214 255
186 214 255
186 214 255
186 214 255
186 214 255
186 214 255
186 214 255
186 214 255
186 214 255
186 214 255
186 214 255
186 214 255
186 214 255
186 214 255
186 214 255
186 214 255
186 214 255
186 214 255
186 214 255
186 214 255
186 214 255
186 214 255
186 214 255
186 214 255
186 214 255
186 214 255
186 214 255
186 214 255
186 214 255
186 214 255
186 214 255
186 214 255
186 214 255
186 214 255
187 214 255
187 214 255
187 214 255
187 214 255
187 214 255
187 214 255
187 214 255
187 214 255
187 214 255
187 214 255
187 214 255
187 214 255
187 214 255
187 214 255
187 214 255
187 214 255
187 214 255
187 214 255
187 214 255
187 214 255
187 214 255
187 214 255
187 214 255
187 214 255
187 214 255
187 214 255
187 214 255
187 214 255
187 214 255
187 214 255
187 214 255
187 214 255
187 214 255
187 214 255
187 214 255
187 214 255
187 214 255
187 214 255
187 214 255
187 214 255
187 214 255
187 214 255
187 214 255
187 214 255
187 214 255
187 214 255
187 214 255
187 214 255
187 214 255
187 214 255
187 214 255
187 214 255
187 214 255
187 214 255
187 214 255
187 214 255
186 214 255
186 214 255
186 214 255
186 214 255
186 214 255
186 214 255
186 214 255
186 214 255
186 214 255
186 214 255
186 214 255
186 214 255
186 214 255
186 214 255
186 214 255
186 214 255
186 214 255
186 214 255
186 214 255
186 214 255
186 214 255
186 214 255
186 214 255
186 214 255
186 214 255
186 214 255
186 214 255
186 214 255
186 214 255
186 214 255
186 214 255
186 214 255
186 214 255
186 214 255
186 214 255
186 214 255
186 214 255
186 214 255
186 214 255
186 214 255
186 214 255
186 214 255
186 214 255
186 214 255
185 213 255
185 213 255
185 213 255
185 213 255
185 213 255
185 213 255
185 213 255
185 213 255
185 213 255
185 213 255
185 213 255
185 213 255
185 213 255
185 213 255
185 213 255
185 213 255
185 213 255
185 213 255
185 213 255
185 213 255
185 213 255
185 213 255
185 213 255
185 213 255
185 213 255
185 213 255
185 213 255
185 213 255
185 213 255
185 213 255
185 213 255
185 213 255
185 213 255
185 213 255
185 213 255
185 213 255
184 213 255
184 213 255
184 213 255
184 213 255
184 213 255
184 213 255
184 213 255
184 213 255
184 213 255
184 213 255
184 213 255
184 213 255
184 213 255
184 213 255
184 213 255
184 213 255
184 213 255
184 213 255
184 213 255
184 213 255
184 213 255
148 145 165
109 57 55
105 55 52
104 54 52
103 54 47
104 55 49
102 54 49
101 53 50
101 53 46
104 54 49
105 55 49
103 54 44
98 52 44
101 54 47
106 55 50
110 58 61
106 56 55
102 54 49
100 53 46
101 54 52
103 54 47
103 54 44
103 54 47
104 54 47
105 55 46
102 54 50
103 54 44
107 56 59
107 56 58
104 55 53
107 56 55
104 55 49
109 57 56
105 55 55
107 55 50
101 53 44
103 54 50
102 54 50
103 55 50
102 54 47
106 55 52
108 57 58
104 54 43
106 56 58
103 54 43
102 53 50
103 55 55
104 55 55
102 55 50
102 54 47
100 53 43
107 56 55
102 54 49
103 55 52
107 56 49
105 55 49
101 53 46
102 54 52
102 54 47
102 55 52
108 57 56
100 53 43
102 54 46
103 54 44
104 55 52
107 56 53
101 53 49
106 55 47
105 55 50
104 56 61
105 55 46
104 54 47
104 54 49
102 55 53
99 53 47
100 53 47
102 54 50
101 53 50
105 54 50
102 53 44
98 53 41
105 54 50
102 54 47
102 54 47
106 55 49
101 54 41
109 57 59
101 54 47
106 56 56
107 56 55
108 56 56
101 53 44
106 54 52
106 55 53
108 56 53
104 54 46
106 55 46
103 54 46
99 52 43
108 56 56
101 52 44
99 52 44
106 56 52
102 54 46
101 54 47
100 53 46
107 56 50
100 53 41
103 55 50
107 55 50
107 55 52
106 56 50
107 56 56
108 56 56
101 53 49
109 57 53
102 54 47
106 55 49
98 52 35
99 52 41
103 55 55
108 56 53
99 52 39
105 55 55
106 56 50
108 57 56
154 155 182
184 212 255
184 213 255
184 213 255
184 213 255
184 213 255
184 213 255
184 213 255
184 213 255
184 213 255
184 213 255
184 213 255
184 213 255
184 213 255
184 213 255
184 213 255
184 213 255
184 213 255
184 213 255
184 213 255
184 213 255
184 213 255
184 213 255
185 213 255
185 213 255
185 213 255
185 213 255
185 213 255
185 213 255
185 213 255
185 213 255
185 213 255
185 213 255
185 213 255
185 213 255
185 213 255
185 213 255
185 213 255
185 213 255
185 213 255
185 213 255
185 213 255
185 213 255
185 213 255
185 213 255
185 213 255
185 213 255
185 213 255
185 213 255
185 213 255
185 213 255
185 213 255
185 213 255
185 213 255
185 213 255
185 213 255
185 213 255
185 213 255
185 213 255
186 214 255
186 214 255
186 214 255
186 214 255
186 214 255
186 214 255
186 214 255
186 214 255
186 214 255
186 214 255
186 214 255
186 214 255
186 214 255
186 214 255
186 214 255
186 214 255
186 214 255
186 214 255
186 214 255
186 214 255
186 214 255
186 214 255
186 214 255
186 214 255
186 214 255
186 214 255
186 214 255
186 214 255
186 214 255
186 214 255
186 214 255
186 214 255
186 214 255
186 214 255
186 214 255
186 214 255
186 214 255
186 214 255
186 214 255
186 214 255
186 214 255
186 214 255
187 214 255
187 214 255
187 214 255
187 214 255
187 214 255
187 214 255
187 214 255
187 214 255
187 214 255
187 214 255
187 214 255
187 214 255
187 214 255
187 214 255
187 214 255
187 214 255
187 214 255
187 214 255
187 214 255
187 214 255
187 214 255
187 214 255
187 214 255
187 214 255
187 214 255
187 214 255
187 214 255
187 214 255
187 214 255
187 214 255
187 214 255
187 214 255
187 214 255
187 214 255
187 214 255
187 215 255
187 215 255
187 215 255
187 215 255
187 215 255
187 215 255
187 215 255
187 215 255
187 215 255
187 215 255
187 215 255
187 215 255
187 215 255
187 215 255
187 215 255
187 215 255
187 215 255
187 215 255
187 215 255
187 214 255
187 214 255
187 214 255
187 214 255
187 214 255
187 214 255
187 214 255
187 214 255
187 214 255
187 214 255
187 214 255
187 214 255
187 214 255
187 214 255
187 214 255
187 214 255
187 214 255
187 214 255
187 214 255
187 214 255
187 214 255
187 214 255
187 214 255
187 214 255
187 214 255
187 214 255
187 214 255
187 214 255
187 214 255
187 214 255
187 214 255
187 214 255
187 214 255
187 214 255
187 214 255
186 214 255
186 214 255
186 214 255
186 214 255
186 214 255
186 214 255
186 214 255
186 214 255
186 214 255
186 214 255
186 214 255
186 214 255
186 214 255
186 214 255
186 214 255
186 214 255
186 214 255
186 214 255
186 214 255
186 214 255
186 214 255
186 214 255
186 214 255
186 214 255
186 214 255
186 214 255
186 214 255
186 214 255
186 214 255
186 214 255
186 214 255
186 214 255
186 214 255
186 214 255
186 214 255
186 214 255
186 214 255
186 214 255
186 214 255
186 214 255
186 214 255
185 213 255
185 213 255
185 213 255
185 213 255
185 213 255
185 213 255
185 213 255
185 213 255
185 213 255
185 213 255
185 213 255
185 213 255
185 213 255
185 213 255
185 213 255
185 213 255
185 213 255
185 213 255
185 213 255
185 213 255
185 213 255
185 213 255
185 213 255
185 213 255
185 213 255
185 213 255
185 213 255
185 213 255
185 213 255
185 213 255
185 213 255
185 213 255
185 213 255
185 213 255
185 213 255
185 213 255
185 213 255
185 213 255
184 213 255
184 213 255
184 213 255
184 213 255
184 213 255
137 118 133
101 53 46
101 53 46
105 55 50
103 55 50
105 55 50
103 54 44
105 55 47
104 54 49
106 56 58
104 55 59
101 53 49
105 55 50
103 54 47
105 56 53
108 57 58
103 54 47
103 54 53
103 55 49
109 56 52
106 55 50
104 55 53
103 54 44
107 55 46
102 55 50
102 54 53
101 54 49
106 56 52
103 54 44
106 56 50
104 55 49
109 56 55
108 56 53
106 56 53
102 53 47
102 54 53
102 53 47
105 54 47
101 53 39
105 54 46
103 55 49
107 56 56
105 54 50
107 55 52
107 56 58
106 55 47
107 56 53
102 55 53
108 56 52
106 56 56
103 54 47
105 56 53
103 54 47
98 52 44
96 51 32
107 56 58
105 55 49
104 55 47
101 54 44
103 54 49
105 54 58
101 54 47
108 55 46
110 57 58
102 53 47
102 54 50
101 54 49
101 54 44
107 56 52
97 50 41
102 54 49
105 55 50
102 55 50
105 55 50
101 54 43
100 52 36
114 58 59
105 55 56
102 54 41
99 52 33
105 55 52
104 55 53
99 52 39
100 53 43
101 53 47
103 54 41
103 54 44
102 54 49
107 56 49
104 53 47
101 53 44
102 54 50
110 57 56
101 53 41
102 54 44
102 54 46
103 54 49
98 52 39
98 51 43
100 53 43
103 54 46
108 57 59
105 55 52
109 57 59
103 53 50
103 55 49
97 53 41
105 55 53
97 51 38
102 55 50
100 52 44
100 53 43
98 52 41
103 55 53
104 55 50
99 52 41
104 55 52
106 56 58
108 57 58
107 56 55
106 56 50
106 55 53
100 53 46
110 56 55
101 54 47
103 54 44
130 106 117
184 213 255
184 213 255
184 213 255
184 213 255
184 213 255
184 213 255
185 213 255
185 213 255
185 213 255
185 213 255
185 213 255
185 213 255
185 213 255
185 213 255
185 213 255
185 213 255
185 213 255
185 213 255
185 213 255
185 213 255
185 213 255
185 213 255
185 213 255
185 213 255
185 213 255
185 213 255
185 213 255
185 213 255
185 213 255
185 213 255
185 213 255
185 213 255
185 213 255
185 213 255
185 213 255
185 213 255
185 213 255
185 213 255
185 213 255
185 213 255
185 213 255
185 213 255
186 214 255
186 214 255
186 214 255
186 214 255
186 214 255
186 214 255
186 214 255
186 214 255
186 214 255
186 214 255
186 214 255
186 214 255
186 214 255
186 214 255
186 214 255
186 214 255
186 214 255
186 214 255
186 214 255
186 214 255
186 214 255
186 214 255
186 214 255
186 214 255
186 214 255
186 214 255
186 214 255
186 214 255
186 214 255
186 214 255
186 214 255
186 214 255
186 214 255
186 214 255
186 214 255
186 214 255
186 214 255
186 214 255
186 214 255
186 214 255
186 214 255
186 214 255
187 214 255
187 214 255
187 214 255
187 214 255
187 214 255
187 214 255
187 214 255
187 214 255
187 214 255
187 214 255
187 214 255
187 214 255
187 214 255
187 214 255
187 214 255
187 214 255
187 214 255
187 214 255
187 214 255
187 214 255
187 214 255
187 214 255
187 214 255
187 214 255
187 214 255
187 214 255
187 214 255
187 214 255
187 214 255
187 214 255
187 214 255
187 214 255
187 214 255
187 214 255
187 214 255
187 215 255
187 215 255
187 215 255
187 215 255
187 215 255
187 215 255
187 215 255
187 215 255
187 215 255
187 215 255
187 215 255
187 215 255
187 215 255
187 215 255
187 215 255
187 215 255
187 215 255
187 215 255
188 215 255
188 215 255
188 215 255
188 215 255
188 215 255
188 215 255
188 215 255
188 215 255
188 215 255
188 215 255
188 215 255
188 215 255
188 215 255
188 215 255
188 215 255
187 215 255
187 215 255
187 215 255
187 215 255
187 215 255
187 215 255
187 215 255
187 215 255
187 215 255
187 215 255
187 215 255
187 215 255
187 215 255
187 215 255
187 215 255
187 215 255
187 215 255
187 215 255
187 215 255
187 215 255
187 214 255
187 214 255
187 214 255
187 214 255
187 214 255
187 214 255
187 214 255
187 214 255
187 214 255
187 214 255
187 214 255
187 214 255
187 214 255
187 214 255
187 214 255
187 214 255
187 214 255
187 214 255
187 214 255
187 214 255
187 214 255
187 214 255
187 214 255
187 214 255
187 214 255
187 214 255
187 214 255
187 214 255
187 214 255
187 214 255
187 214 255
187 214 255
187 214 255
186 214 255
186 214 255
186 214 255
186 214 255
186 214 255
186 214 255
186 214 255
186 214 255
186 214 255
186 214 255
186 214 255
186 214 255
186 214 255
186 214 255
186 214 255
186 214 255
186 214 255
186 214 255
186 214 255
186 214 255
186 214 255
186 214 255
186 214 255
186 214 255
186 214 255
186 214 255
186 214 255
186 214 255
186 214 255
186 214 255
186 214 255
186 214 255
186 214 255
186 214 255
186 214 255
186 214 255
186 214 255
186 214 255
186 214 255
186 214 255
186 214 255
186 214 255
185 213 255
185 213 255
185 213 255
185 213 255
185 213 255
185 213 255
185 213 255
185 213 255
185 213 255
185 213 255
185 213 255
185 213 255
185 213 255
185 213 255
185 213 255
185 213 255
185 213 255
185 213 255
185 213 255
185 213 255
185 213 255
185 213 255
185 213 255
185 213 255
185 213 255
185 213 255
110 72 73
103 54 43
101 53 38
108 56 56
104 55 50
100 53 43
99 53 46
104 55 46
103 54 47
103 54 46
108 57 59
102 53 39
100 54 46
106 55 46
102 54 46
103 55 50
104 55 49
101 54 47
103 54 46
105 55 50
100 53 49
104 55 50
104 55 49
102 53 46
103 54 46
104 55 52
105 55 50
100 53 44
99 52 44
102 53 49
110 56 50
102 55 52
108 56 52
106 55 47
100 52 38
102 54 47
100 52 43
103 54 47
103 54 47
99 52 41
106 56 52
105 54 50
103 54 49
103 54 43
105 55 49
105 55 47
105 55 47
102 54 49
104 55 47
99 52 39
101 52 43
108 57 61
103 54 46
104 55 53
103 55 50
105 55 52
107 55 55
105 55 49
106 56 53
106 55 53
106 55 49
107 56 56
100 53 46
105 55 47
107 56 56
98 52 38
106 55 44
111 58 62
102 53 44
101 53 47
106 56 53
108 57 58
99 53 39
105 55 52
105 55 52
97 52 38
101 54 41
109 56 50
105 55 52
104 55 47
99 52 39
99 52 41
107 56 56
105 56 53
103 54 49
105 55 50
103 55 49
102 54 44
101 53 41
101 53 47
102 53 46
101 53 44
102 54 49
104 56 59
100 52 38
107 56 55
100 53 43
104 55 50
103 55 50
100 53 52
101 54 47
105 54 49
107 56 52
99 52 44
103 54 46
105 54 46
103 54 52
105 55 50
109 57 58
102 53 47
104 55 50
102 53 49
107 56 50
104 54 56
100 53 39
107 55 55
105 55 52
103 55 53
97 52 38
101 54 49
107 56 49
103 54 50
108 56 52
104 55 49
104 54 43
97 51 41
117 80 80
185 213 255
185 213 255
185 213 255
185 213 255
185 213 255
185 213 255
185 213 255
185 213 255
185 213 255
185 213 255
185 213 255
185 213 255
185 213 255
185 213 255
185 213 255
185 213 255
185 213 255
185 213 255
185 213 255
185 213 255
185 213 255
185 213 255
185 213 255
185 213 255
185 213 255
185 213 255
185 213 255
186 214 255
186 214 255
186 214 255
186 214 255
186 214 255
186 214 255
186 214 255
186 214 255
186 214 255
186 214 255
186 214 255
186 214 255
186 214 255
186 214 255
186 214 255
186 214 255
186 214 255
186 214 255
186 214 255
186 214 255
186 214 255
186 214 255
186 214 255
186 214 255
186 214 255
186 214 255
186 214 255
186 214 255
186 214 255
186 214 255
186 214 255
186 214 255
186 214 255
186 214 255
186 214 255
186 214 255
186 214 255
186 214 255
186 214 255
186 214 255
186 214 255
187 214 255
187 214 255
187 214 255
187 214 255
187 214 255
187 214 255
187 214 255
187 214 255
187 214 255
187 214 255
187 214 255
187 214 255
187 214 255
187 214 255
187 214 255
187 214 255
187 214 255
187 214 255
187 214 255
187 214 255
187 214 255
187 214 255
187 214 255
187 214 255
187 214 255
187 214 255
187 214 255
187 214 255
187 214 255
187 214 255
187 214 255
187 214 255
187 215 255
187 215 255
187 215 255
187 215 255
187 215 255
187 215 255
187 215 255
187 215 255
187 215 255
187 215 255
187 215 255
187 215 255
187 215 255
187 215 255
187 215 255
187 215 255
187 215 255
187 215 255
187 215 255
187 215 255
187 215 255
188 215 255
188 215 255
188 215 255
188 215 255
188 215 255
188 215 255
188 215 255
188 215 255
188 215 255
188 215 255
188 215 255
188 215 255
188 215 255
188 215 255
188 215 255
188 215 255
188 215 255
188 215 255
188 215 255
188 215 255
188 215 255
188 215 255
188 215 255
188 215 255
188 215 255
188 215 255
188 215 255
188 215 255
188 215 255
188 215 255
188 215 255
188 215 255
188 215 255
188 215 255
188 215 255
188 215 255
188 215 255
188 215 255
188 215 255
188 215 255
188 215 255
188 215 255
188 215 255
188 215 255
188 215 255
188 215 255
188 215 255
188 215 255
188 215 255
187 215 255
187 215 255
187 215 255
187 215 255
187 215 255
187 215 255
187 215 255
187 215 255
187 215 255
187 215 255
187 215 255
187 215 255
187 215 255
187 215 255
187 215 255
187 215 255
187 215 255
187 215 255
187 215 255
187 215 255
187 214 255
187 214 255
187 214 255
187 214 255
187 214 255
187 214 255
187 214 255
187 214 255
187 214 255
187 214 255
187 214 255
187 214 255
187 214 255
187 214 255
187 214 255
187 214 255
187 214 255
187 214 255
187 214 255
187 214 255
187 214 255
187 214 255
187 214 255
187 214 255
187 214 255
187 214 255
187 214 255
187 214 255
187 214 255
187 214 255
187 214 255
187 214 255
187 214 255
186 214 255
186 214 255
186 214 255
186 214 255
186 214 255
186 214 255
186 214 255
186 214 255
186 214 255
186 214 255
186 214 255
186 214 255
186 214 255
186 214 255
186 214 255
186 214 255
186 214 255
186 214 255
186 214 255
186 214 255
186 214 255
186 214 255
186 214 255
186 214 255
186 214 255
186 214 255
186 214 255
186 214 255
186 214 255
186 214 255
186 214 255
186 214 255
186 214 255
186 214 255
186 214 255
186 214 255
186 214 255
186 214 255
186 214 255
186 214 255
186 214 255
186 214 255
185 213 255
185 213 255
185 213 255
185 213 255
185 213 255
185 213 255
185 213 255
179 201 240
104 55 52
102 53 43
101 53 49
106 56 55
106 55 50
101 53 43
109 56 52
99 53 39
104 54 50
95 51 35
104 54 47
103 54 49
105 55 49
103 55 50
99 51 41
106 54 47
101 54 52
104 55 53
103 55 49
103 54 46
108 56 56
98 51 39
106 55 49
104 55 53
103 54 50
104 54 50
98 51 44
103 54 52
107 56 56
101 53 44
102 54 46
106 56 50
106 56 53
105 55 50
101 53 41
105 56 53
99 52 39
104 54 49
98 51 33
106 55 49
101 54 47
105 55 47
112 57 59
107 56 50
104 54 49
101 52 46
103 54 49
107 56 55
99 51 43
100 52 39
101 52 43
106 56 53
104 55 53
103 55 50
103 54 46
104 55 46
97 51 41
102 54 49
102 54 46
104 54 49
107 56 52
99 52 50
104 55 53
103 55 47
104 54 49
101 53 41
102 54 47
108 56 53
105 56 55
102 54 44
99 53 41
104 55 47
100 53 43
106 56 53
101 53 36
102 54 47
103 55 47
102 53 46
102 54 46
103 54 39
103 54 44
104 55 46
102 55 52
102 54 41
101 53 44
110 56 53
105 55 58
102 54 46
104 55 50
100 53 43
97 53 43
102 54 47
103 53 43
107 56 49
106 56 55
109 56 52
106 55 49
103 54 47
102 54 47
105 56 56
101 54 44
103 55 47
109 56 56
113 59 66
100 53 41
100 53 49
103 53 46
103 54 50
101 53 41
102 53 47
110 57 59
109 57 59
104 55 50
98 53 41
105 54 46
102 54 41
103 54 52
105 54 49
103 55 52
102 54 44
103 53 47
100 54 50
101 53 50
104 55 46
98 52 47
102 54 43
105 55 47
179 201 238
185 213 255
185 213 255
185 213 255
185 213 255
185 213 255
185 213 255
185 213 255
186 214 255
186 214 255
186 214 255
186 214 255
186 214 255
186 214 255
186 214 255
186 214 255
186 214 255
186 214 255
186 214 255
186 214 255
186 214 255
186 214 255
186 214 255
186 214 255
186 214 255
186 214 255
186 214 255
186 214 255
186 214 255
186 214 255
186 214 255
186 214 255
186 214 255
186 214 255
186 214 255
186 214 255
186 214 255
186 214 255
186 214 255
186 214 255
186 214 255
186 214 255
186 214 255
186 214 255
186 214 255
186 214 255
186 214 255
186 214 255
186 214 255
186 214 255
187 214 255
187 214 255
187 214 255
187 214 255
187 214 255
187 214 255
187 214 255
187 214 255
187 214 255
187 214 255
187 214 255
187 214 255
187 214 255
187 214 255
187 214 255
187 214 255
187 214 255
187 214 255
187 214 255
187 214 255
187 214 255
187 214 255
187 214 255
187 214 255
187 214 255
187 214 255
187 214 255
187 214 255
187 214 255
187 214 255
187 214 255
187 214 255
187 214 255
187 214 255
187 215 255
187 215 255
187 215 255
187 215 255
187 215 255
187 215 255
187 215 255
187 215 255
187 215 255
187 215 255
187 215 255
187 215 255
187 215 255
187 215 255
187 215 255
187 215 255
187 215 255
187 215 255
188 215 255
188 215 255
188 215 255
188 215 255
188 215 255
188 215 255
188 215 255
188 215 255
188 215 255
188 215 255
188 215 255
188 215 255
188 215 255
188 215 255
188 215 255
188 215 255
188 215 255
188 215 255
188 215 255
188 215 255
188 215 255
188 215 255
188 215 255
188 215 255
188 215 255
188 215 255
188 215 255
188 215 255
188 215 255
188 215 255
188 215 255
188 215 255
188 215 255
188 215 255
188 215 255
188 215 255
188 215 255
188 215 255
188 215 255
188 215 255
188 215 255
188 215 255
188 215 255
188 215 255
188 215 255
188 215 255
188 215 255
188 215 255
188 215 255
188 215 255
188 215 255
188 215 255
188 215 255
188 215 255
188 215 255
188 215 255
188 215 255
188 215 255
188 215 255
188 215 255
188 215 255
188 215 255
188 215 255
188 215 255
188 215 255
188 215 255
188 215 255
188 215 255
188 215 255
188 215 255
188 215 255
188 215 255
188 215 255
188 215 255
188 215 255
188 215 255
188 215 255
188 215 255
188 215 255
188 215 255
188 215 255
188 215 255
188 215 255
188 215 255
188 215 255
188 215 255
188 215 255
188 215 255
188 215 255
187 215 255
187 215 255
187 215 255
187 215 255
187 215 255
187 215 255
187 215 255
187 215 255
187 215 255
187 215 255
187 215 255
187 215 255
187 215 255
187 215 255
187 215 255
187 215 255
187 215 255
187 215 255
187 214 255
187 214 255
187 214 255
187 214 255
187 214 255
187 214 255
187 214 255
187 214 255
187 214 255
187 214 255
187 214 255
187 214 255
187 214 255
187 214 255
187 214 255
187 214 255
187 214 255
187 214 255
187 214 255
187 214 255
187 214 255
187 214 255
187 214 255
187 214 255
187 214 255
187 214 255
187 214 255
187 214 255
187 214 255
187 214 255
187 214 255
187 214 255
187 214 255
186 214 255
186 214 255
186 214 255
186 214 255
186 214 255
186 214 255
186 214 255
186 214 255
186 214 255
186 214 255
186 214 255
186 214 255
186 214 255
186 214 255
186 214 255
186 214 255
186 214 255
186 214 255
186 214 255
186 214 255
186 214 255
186 214 255
186 214 255
186 214 255
186 214 255
186 214 255
186 214 255
186 214 255
186 214 255
186 214 255
168 179 208
103 53 47
99 52 44
109 57 58
106 56 50
101 54 47
104 55 44
104 55 44
104 55 47
107 55 56
101 54 41
106 56 55
104 54 47
99 53 43
103 55 53
105 54 44
106 55 50
103 54 46
104 55 49
103 54 43
107 56 49
103 54 46
105 55 52
108 57 58
105 55 44
107 56 58
105 55 52
103 54 49
105 55 46
102 53 47
101 54 49
107 56 53
104 54 47
100 52 35
102 54 47
105 55 49
110 57 61
105 55 52
106 56 52
108 56 53
97 51 35
102 54 43
100 53 49
112 58 58
107 56 52
103 55 47
102 54 44
108 56 50
98 52 39
100 54 49
100 52 38
104 55 50
109 57 56
99 51 38
97 52 36
104 54 47
101 53 41
107 56 55
104 55 49
99 52 39
100 53 44
104 55 50
100 53 43
103 53 44
103 54 53
100 53 47
107 56 53
108 56 50
98 52 38
105 55 50
102 53 43
101 53 46
102 54 41
101 54 49
103 54 46
104 55 53
107 55 52
98 51 38
110 57 59
99 53 41
100 54 44
105 55 49
105 54 49
104 55 46
100 54 47
103 54 44
105 55 49
109 56 58
103 55 52
107 55 56
107 56 50
100 53 38
107 55 53
104 54 47
107 56 50
103 54 43
98 52 41
99 52 41
103 54 43
101 53 47
105 55 55
104 55 53
107 55 50
103 55 53
104 55 53
104 53 46
103 54 49
102 53 44
109 57 59
106 55 50
106 56 53
103 54 46
104 53 50
103 54 49
108 56 49
102 54 52
99 52 46
100 53 44
103 54 44
104 54 49
104 54 50
106 55 53
97 52 44
102 54 52
104 54 50
103 54 49
104 54 38
107 56 53
167 179 208
186 214 255
186 214 255
186 214 255
186 214 255
186 214 255
186 214 255
186 214 255
186 214 255
186 214 255
186 214 255
186 214 255
186 214 255
186 214 255
186 214 255
186 214 255
186 214 255
186 214 255
186 214 255
186 214 255
186 214 255
186 214 255
186 214 255
186 214 255
186 214 255
186 214 255
186 214 255
186 214 255
186 214 255
186 214 255
186 214 255
186 214 255
187 214 255
187 214 255
187 214 255
187 214 255
187 214 255
187 214 255
187 214 255
187 214 255
187 214 255
187 214 255
187 214 255
187 214 255
187 214 255
187 214 255
187 214 255
187 214 255
187 214 255
187 214 255
187 214 255
187 214 255
187 214 255
187 214 255
187 214 255
187 214 255
187 214 255
187 214 255
187 214 255
187 214 255
187 214 255
187 214 255
187 214 255
187 214 255
187 215 255
187 215 255
187 215 255
187 215 255
187 215 255
187 215 255
187 215 255
187 215 255
187 215 255
187 215 255
187 215 255
187 215 255
187 215 255
187 215 255
187 215 255
187 215 255
187 215 255
187 215 255
188 215 255
188 215 255
188 215 255
188 215 255
188 215 255
188 215 255
188 215 255
188 215 255
188 215 255
188 215 255
188 215 255
188 215 255
188 215 255
188 215 255
188 215 255
188 215 255
188 215 255
188 215 255
188 215 255
188 215 255
188 215 255
188 215 255
188 215 255
188 215 255
188 215 255
188 215 255
188 215 255
188 215 255
188 215 255
188 215 255
188 215 255
188 215 255
188 215 255
188 215 255
188 215 255
188 215 255
188 215 255
188 215 255
188 215 255
188 215 255
188 215 255
188 215 255
188 215 255
188 215 255
188 215 255
188 215 255
188 215 255
188 215 255
188 215 255
188 215 255
188 215 255
188 215 255
188 215 255
188 215 255
188 215 255
189 215 255
189 215 255
189 215 255
189 215 255
188 215 255
189 215 255
188 215 255
188 215 255
188 215 255
188 215 255
188 215 255
188 215 255
188 215 255
188 215 255
188 215 255
188 215 255
188 215 255
188 215 255
188 215 255
188 215 255
188 215 255
188 215 255
188 215 255
188 215 255
188 215 255
188 215 255
188 215 255
188 215 255
188 215 255
188 215 255
188 215 255
188 215 255
188 215 255
188 215 255
188 215 255
188 215 255
188 215 255
188 215 255
188 215 255
188 215 255
188 215 255
188 215 255
188 215 255
188 215 255
188 215 255
188 215 255
188 215 255
188 215 255
188 215 255
188 215 255
188 215 255
188 215 255
188 215 255
188 215 255
188 215 255
188 215 255
188 215 255
188 215 255
188 215 255
188 215 255
188 215 255
188 215 255
188 215 255
188 215 255
188 215 255
188 215 255
188 215 255
188 215 255
188 215 255
188 215 255
188 215 255
188 215 255
188 215 255
188 215 255
188 215 255
187 215 255
187 215 255
187 215 255
187 215 255
187 215 255
187 215 255
187 215 255
187 215 255
187 215 255
187 215 255
187 215 255
187 215 255
187 215 255
187 215 255
187 215 255
187 215 255
187 214 255
187 214 255
187 214 255
187 214 255
187 214 255
187 214 255
187 214 255
187 214 255
187 214 255
187 214 255
187 214 255
187 214 255
187 214 255
187 214 255
187 214 255
187 214 255
187 214 255
187 214 255
187 214 255
187 214 255
187 214 255
187 214 255
187 214 255
187 214 255
187 214 255
187 214 255
187 214 255
187 214 255
187 214 255
187 214 255
187 214 255
187 214 255
187 214 255
187 214 255
187 214 255
186 214 255
186 214 255
186 214 255
186 214 255
186 214 255
186 214 255
186 214 255
186 214 255
186 214 255
147 135 157
97 51 43
106 56 53
104 55 52
105 55 52
110 57 58
101 54 47
105 55 49
103 54 47
103 55 47
94 50 33
106 55 49
102 53 36
100 52 43
103 55 52
101 54 43
105 54 52
101 54 49
101 53 44
103 54 47
99 53 38
106 55 56
105 55 52
94 51 32
103 54 53
101 54 46
107 56 50
108 56 49
106 55 56
104 54 43
104 55 55
101 53 41
105 55 49
99 53 43
109 56 58
106 55 47
107 55 47
110 57 56
98 52 38
102 53 46
101 52 39
100 53 41
99 52 41
109 57 58
105 54 46
102 53 44
107 56 56
104 54 49
104 55 55
100 53 44
106 56 56
104 54 47
98 52 41
104 55 47
109 57 56
106 56 56
97 52 41
101 53 46
107 56 50
104 54 49
104 55 46
101 53 38
96 51 38
100 52 47
100 54 46
104 55 47
106 55 49
102 55 52
101 53 47
106 56 52
100 53 50
104 54 47
97 52 38
100 52 39
102 53 43
98 51 43
101 54 43
103 54 44
98 52 39
109 57 59
108 56 52
99 52 44
102 53 44
102 53 50
99 53 43
99 53 44
105 55 47
103 53 39
105 55 52
99 53 43
99 52 41
102 53 41
108 54 50
101 53 52
108 56 52
102 54 46
105 55 50
105 55 47
104 54 43
107 56 53
106 54 44
101 52 46
106 55 50
102 54 47
103 55 52
103 54 44
96 50 38
105 55 50
101 54 46
104 54 47
109 56 52
108 55 50
101 54 43
95 50 32
105 55 47
104 54 43
106 55 53
104 54 44
105 55 49
103 55 47
107 56 56
101 54 43
105 56 53
104 55 53
103 54 46
106 55 55
104 55 46
109 57 61
148 138 157
186 214 255
186 214 255
186 214 255
186 214 255
186 214 255
186 214 255
186 214 255
186 214 255
186 214 255
187 214 255
187 214 255
187 214 255
187 214 255
187 214 255
187 214 255
187 214 255
187 214 255
187 214 255
187 214 255
187 214 255
187 214 255
187 214 255
187 214 255
187 214 255
187 214 255
187 214 255
187 214 255
187 214 255
187 214 255
187 214 255
187 214 255
187 214 255
187 214 255
187 214 255
187 214 255
187 214 255
187 214 255
187 214 255
187 214 255
187 214 255
187 214 255
187 214 255
187 214 255
187 215 255
187 215 255
187 215 255
187 215 255
187 215 255
187 215 255
187 215 255
187 215 255
187 215 255
187 215 255
187 215 255
187 215 255
187 215 255
187 215 255
187 215 255
187 215 255
187 215 255
188 215 255
188 215 255
188 215 255
188 215 255
188 215 255
188 215 255
188 215 255
188 215 255
188 215 255
188 215 255
188 215 255
188 215 255
188 215 255
188 215 255
188 215 255
188 215 255
188 215 255
188 215 255
188 215 255
188 215 255
188 215 255
188 215 255
188 215 255
188 215 255
188 215 255
188 215 255
188 215 255
188 215 255
188 215 255
188 215 255
188 215 255
188 215 255
188 215 255
188 215 255
188 215 255
188 215 255
188 215 255
188 215 255
188 215 255
188 215 255
188 215 255
188 215 255
188 215 255
188 215 255
188 215 255
188 215 255
188 215 255
188 215 255
188 215 255
188 215 255
188 215 255
188 215 255
188 215 255
188 215 255
188 215 255
188 215 255
188 215 255
188 215 255
188 215 255
188 215 255
188 215 255
188 215 255
188 215 255
188 215 255
188 215 255
188 215 255
188 215 255
188 215 255
188 215 255
189 215 255
188 215 255
189 215 255
189 215 255
189 215 255
189 215 255
189 215 255
189 215 255
189 215 255
189 215 255
189 215 255
189 215 255
189 215 255
189 215 255
189 215 255
189 215 255
189 215 255
189 215 255
189 215 255
189 215 255
189 215 255
189 215 255
189 215 255
189 215 255
189 215 255
189 215 255
189 215 255
189 215 255
189 215 255
189 215 255
189 215 255
189 215 255
189 215 255
189 215 255
189 215 255
189 215 255
189 215 255
188 215 255
188 215 255
189 215 255
188 215 255
188 215 255
188 215 255
188 215 255
188 215 255
188 215 255
188 215 255
188 215 255
188 215 255
188 215 255
188 215 255
188 215 255
188 215 255
188 215 255
188 215 255
188 215 255
188 215 255
188 215 255
188 215 255
188 215 255
188 215 255
188 215 255
188 215 255
188 215 255
188 215 255
188 215 255
188 215 255
188 215 255
188 215 255
188 215 255
188 215 255
188 215 255
188 215 255
188 215 255
188 215 255
188 215 255
188 215 255
188 215 255
188 215 255
188 215 255
188 215 255
188 215 255
188 215 255
188 215 255
188 215 255
188 215 255
188 215 255
188 215 255
188 215 255
188 215 255
188 215 255
188 215 255
188 215 255
188 215 255
188 215 255
188 215 255
188 215 255
188 215 255
188 215 255
188 215 255
188 215 255
188 215 255
188 215 255
188 215 255
187 215 255
187 215 255
187 215 255
187 215 255
187 215 255
187 215 255
187 215 255
187 215 255
187 215 255
187 215 255
187 215 255
187 215 255
187 215 255
187 215 255
187 215 255
187 215 255
187 215 255
187 214 255
187 214 255
187 214 255
187 214 255
187 214 255
187 214 255
187 214 255
187 214 255
187 214 255
187 214 255
187 214 255
187 214 255
187 214 255
187 214 255
187 214 255
187 214 255
187 214 255
187 214 255
187 214 255
187 214 255
187 214 255
129 107 114
101 52 50
102 53 44
99 52 43
103 54 47
108 56 55
107 56 55
102 53 43
100 52 43
106 55 50
101 52 46
105 54 52
109 57 61
103 54 47
104 55 50
104 54 44
104 54 52
108 56 59
99 52 46
104 54 50
99 53 38
102 53 44
109 56 56
107 56 50
106 56 49
100 53 43
105 55 49
98 51 35
107 56 52
104 55 47
101 53 41
102 54 49
105 55 50
104 55 47
100 53 44
100 53 36
105 54 47
99 53 41
106 55 53
101 53 44
105 55 44
98 52 43
105 55 49
104 54 44
97 50 38
105 55 53
99 53 44
106 56 55
105 55 46
104 55 47
106 55 50
96 51 38
102 55 50
101 53 43
109 56 52
100 53 43
103 54 44
102 53 43
98 53 46
102 54 47
104 54 49
98 53 41
108 55 47
105 54 49
105 55 50
106 56 50
105 55 44
102 54 41
104 54 47
102 54 50
99 51 39
104 55 47
102 54 46
102 54 47
101 53 43
98 52 47
102 53 47
105 55 50
108 56 52
104 54 53
105 55 46
96 51 38
105 54 47
103 54 46
103 54 43
99 52 39
105 55 49
101 53 39
102 54 49
105 55 58
104 54 44
102 53 44
100 52 39
100 53 43
106 55 55
102 54 49
101 53 36
102 53 44
99 53 39
106 55 49
108 56 55
103 54 47
105 55 50
105 55 52
102 54 41
106 54 52
102 53 43
105 56 53
105 56 53
102 54 47
106 55 47
105 55 46
104 55 47
105 54 50
102 54 49
105 56 58
101 54 44
102 54 46
104 54 49
108 56 53
108 56 55
103 55 53
109 57 55
105 55 50
100 54 47
105 54 46
106 56 55
104 55 52
137 113 127
187 214 255
187 214 255
187 214 255
187 214 255
187 214 255
187 214 255
187 214 255
187 214 255
187 214 255
187 214 255
187 214 255
187 214 255
187 214 255
187 214 255
187 214 255
187 214 255
187 214 255
187 214 255
187 214 255
187 214 255
187 215 255
187 215 255
187 215 255
187 215 255
187 215 255
187 215 255
187 215 255
187 215 255
187 215 255
187 215 255
187 215 255
187 215 255
187 215 255
187 215 255
187 215 255
187 215 255
187 215 255
188 215 255
187 215 255
188 215 255
188 215 255
188 215 255
188 215 255
188 215 255
188 215 255
188 215 255
188 215 255
188 215 255
188 215 255
188 215 255
188 215 255
188 215 255
188 215 255
188 215 255
188 215 255
188 215 255
188 215 255
188 215 255
188 215 255
188 215 255
188 215 255
188 215 255
188 215 255
188 215 255
188 215 255
188 215 255
188 215 255
188 215 255
188 215 255
188 215 255
188 215 255
188 215 255
188 215 255
188 215 255
188 215 255
188 215 255
188 215 255
188 215 255
188 215 255
188 215 255
188 215 255
188 215 255
188 215 255
188 215 255
188 215 255
188 215 255
188 215 255
188 215 255
188 215 255
188 215 255
188 215 255
188 215 255
188 215 255
188 215 255
188 215 255
188 215 255
188 215 255
188 215 255
188 215 255
188 215 255
188 215 255
188 215 255
188 215 255
188 215 255
188 215 255
188 215 255
189 215 255
189 215 255
189 215 255
189 215 255
189 215 255
189 215 255
189 215 255
189 215 255
189 215 255
189 215 255
189 215 255
189 215 255
189 215 255
189 215 255
189 215 255
189 215 255
189 215 255
189 215 255
189 215 255
189 215 255
189 215 255
189 215 255
189 215 255
189 215 255
189 215 255
189 215 255
189 215 255
189 215 255
189 215 255
189 216 255
189 216 255
189 216 255
189 216 255
189 216 255
189 216 255
189 216 255
189 216 255
189 216 255
189 216 255
189 216 255
189 216 255
189 216 255
189 216 255
189 216 255
189 216 255
189 216 255
189 216 255
189 216 255
189 216 255
189 216 255
189 216 255
189 216 255
189 216 255
189 216 255
189 216 255
189 216 255
189 216 255
189 215 255
189 215 255
189 215 255
189 215 255
189 215 255
189 215 255
189 215 255
189 215 255
189 215 255
189 215 255
189 215 255
189 215 255
189 215 255
189 215 255
189 215 255
189 215 255
189 215 255
189 215 255
189 215 255
189 215 255
189 215 255
189 215 255
189 215 255
189 215 255
189 215 255
189 215 255
189 215 255
189 215 255
189 215 255
189 215 255
188 215 255
188 215 255
188 215 255
188 215 255
188 215 255
188 215 255
188 215 255
188 215 255
188 215 255
188 215 255
188 215 255
188 215 255
188 215 255
188 215 255
188 215 255
188 215 255
188 215 255
188 215 255
188 215 255
188 215 255
188 215 255
188 215 255
188 215 255
188 215 255
188 215 255
188 215 255
188 215 255
188 215 255
188 215 255
188 215 255
188 215 255
188 215 255
188 215 255
188 215 255
188 215 255
188 215 255
188 215 255
188 215 255
188 215 255
188 215 255
188 215 255
188 215 255
188 215 255
188 215 255
188 215 255
188 215 255
188 215 255
188 215 255
188 215 255
188 215 255
188 215 255
188 215 255
188 215 255
188 215 255
188 215 255
188 215 255
188 215 255
188 215 255
188 215 255
188 215 255
188 215 255
188 215 255
188 215 255
188 215 255
187 215 255
188 215 255
188 215 255
187 215 255
188 215 255
187 215 255
187 215 255
187 215 255
187 215 255
187 215 255
187 215 255
187 215 255
187 215 255
187 215 255
128 102 105
104 55 53
107 54 53
103 53 46
103 53 41
104 55 50
100 53 41
99 52 41
102 53 43
107 56 52
102 53 36
102 54 44
102 55 50
103 55 47
103 55 49
109 56 56
106 55 52
101 54 44
102 53 47
106 55 50
103 53 43
105 55 52
105 55 53
103 55 50
103 54 44
98 51 36
103 54 44
105 55 52
108 56 50
105 55 50
105 55 50
100 53 36
105 55 49
101 54 43
100 53 39
106 56 56
95 51 32
104 54 43
102 54 44
99 53 39
105 55 46
103 54 46
103 54 44
109 57 52
98 52 35
102 54 44
98 52 43
105 55 52
101 53 44
100 53 47
104 54 55
100 53 39
101 54 49
103 53 41
104 55 50
102 54 49
107 55 50
100 53 39
104 55 44
102 54 46
102 54 39
100 53 43
104 54 46
101 53 43
106 55 53
108 55 53
100 53 43
102 54 47
107 56 52
104 54 47
109 57 55
103 54 41
106 55 55
112 58 58
103 54 46
102 53 41
99 52 36
103 54 44
103 54 49
99 52 41
106 55 47
107 56 58
104 55 49
100 53 41
110 56 56
102 54 47
101 53 43
103 54 50
104 55 46
105 55 50
99 52 43
101 53 43
102 54 47
101 53 43
100 53 41
101 53 44
98 52 35
105 55 50
102 54 46
103 53 47
108 55 50
107 56 49
98 52 39
99 52 43
96 48 39
104 55 53
102 55 52
100 54 50
101 53 46
106 56 49
104 54 44
105 55 47
105 55 52
105 54 49
108 56 47
102 54 47
102 53 39
103 55 49
106 55 41
103 55 53
105 55 49
100 53 46
107 56 53
105 56 55
106 55 49
103 55 50
96 50 33
108 56 52
130 110 119
187 215 255
187 215 255
187 215 255
187 215 255
187 215 255
187 215 255
187 215 255
187 215 255
187 215 255
187 215 255
187 215 255
187 215 255
188 215 255
188 215 255
188 215 255
188 215 255
188 215 255
188 215 255
188 215 255
188 215 255
188 215 255
188 215 255
188 215 255
188 215 255
188 215 255
188 215 255
188 215 255
188 215 255
188 215 255
188 215 255
188 215 255
188 215 255
188 215 255
188 215 255
188 215 255
188 215 255
188 215 255
188 215 255
188 215 255
188 215 255
188 215 255
188 215 255
188 215 255
188 215 255
188 215 255
188 215 255
188 215 255
188 215 255
188 215 255
188 215 255
188 215 255
188 215 255
188 215 255
188 215 255
188 215 255
188 215 255
188 215 255
188 215 255
188 215 255
188 215 255
188 215 255
188 215 255
188 215 255
188 215 255
188 215 255
188 215 255
188 215 255
188 215 255
188 215 255
188 215 255
188 215 255
188 215 255
188 215 255
188 215 255
188 215 255
188 215 255
188 215 255
188 215 255
189 215 255
189 215 255
189 215 255
189 215 255
189 215 255
189 215 255
189 215 255
189 215 255
189 215 255
189 215 255
189 215 255
189 215 255
189 215 255
189 215 255
189 215 255
189 215 255
189 215 255
189 215 255
189 215 255
189 215 255
189 215 255
189 215 255
189 215 255
189 215 255
189 215 255
189 215 255
189 215 255
189 216 255
189 216 255
189 216 255
189 216 255
189 216 255
189 216 255
189 216 255
189 216 255
189 216 255
189 216 255
189 216 255
189 216 255
189 216 255
189 216 255
189 216 255
189 216 255
189 216 255
189 216 255
189 216 255
189 216 255
189 216 255
189 216 255
189 216 255
189 216 255
189 216 255
189 216 255
189 216 255
189 216 255
189 216 255
189 216 255
189 216 255
189 216 255
189 216 255
189 216 255
189 216 255
189 216 255
189 216 255
189 216 255
189 216 255
189 216 255
189 216 255
189 216 255
189 216 255
189 216 255
189 216 255
189 216 255
189 216 255
189 216 255
189 216 255
189 216 255
189 216 255
189 216 255
189 216 255
189 216 255
189 216 255
189 216 255
189 216 255
189 216 255
189 216 255
189 216 255
189 216 255
189 216 255
189 216 255
189 216 255
189 216 255
189 216 255
189 216 255
189 216 255
189 216 255
189 216 255
189 216 255
189 216 255
189 216 255
189 216 255
189 216 255
189 216 255
189 216 255
189 216 255
189 216 255
189 216 255
189 216 255
189 216 255
189 216 255
189 216 255
189 216 255
189 216 255
189 216 255
189 216 255
189 216 255
189 216 255
189 215 255
189 215 255
189 215 255
189 215 255
189 215 255
189 215 255
189 215 255
189 215 255
189 215 255
189 215 255
189 215 255
189 215 255
189 215 255
189 215 255
189 215 255
189 215 255
189 215 255
189 215 255
189 215 255
189 215 255
189 215 255
189 215 255
189 215 255
189 215 255
189 215 255
188 215 255
189 215 255
188 215 255
188 215 255
188 215 255
188 215 255
188 215 255
188 215 255
188 215 255
188 215 255
188 215 255
188 215 255
188 215 255
188 215 255
188 215 255
188 215 255
188 215 255
188 215 255
188 215 255
188 215 255
188 215 255
188 215 255
188 215 255
188 215 255
188 215 255
188 215 255
188 215 255
188 215 255
188 215 255
188 215 255
188 215 255
188 215 255
188 215 255
188 215 255
188 215 255
188 215 255
188 215 255
188 215 255
188 215 255
188 215 255
188 215 255
188 215 255
188 215 255
188 215 255
188 215 255
188 215 255
188 215 255
188 215 255
188 215 255
188 215 255
188 215 255
115 76 75
104 55 46
106 55 52
104 55 49
104 55 47
106 56 50
103 55 49
104 54 49
100 53 39
102 53 46
100 52 41
100 53 41
104 55 50
101 53 43
111 57 58
98 52 38
103 54 39
103 54 43
103 53 46
102 54 46
104 54 49
107 55 55
100 53 46
103 54 52
103 53 41
100 53 41
101 53 41
101 53 41
98 52 41
99 51 41
102 53 49
99 52 38
100 52 44
106 55 50
104 54 47
103 53 47
101 53 43
105 55 49
107 55 53
107 56 50
100 53 46
105 54 52
98 51 36
102 53 49
101 54 49
98 52 38
103 53 46
102 54 41
106 55 53
102 53 43
99 52 46
100 52 39
99 52 41
101 53 41
106 55 58
106 56 49
105 55 49
102 53 46
106 56 50
100 52 50
99 53 41
104 55 50
106 54 46
101 53 44
104 55 52
105 54 47
101 53 41
100 53 46
102 53 49
105 54 49
102 54 46
111 57 55
108 56 56
101 53 41
102 54 46
105 55 50
103 55 50
107 56 55
103 54 44
105 55 53
100 53 39
102 53 44
103 54 43
100 53 39
101 53 43
102 53 43
105 55 46
104 55 47
102 53 41
106 56 50
107 56 52
102 54 46
103 54 46
104 54 49
101 53 44
98 51 41
101 53 43
107 55 53
98 52 32
101 53 39
103 55 49
99 52 44
105 55 53
105 55 44
106 55 46
107 55 50
106 55 53
102 53 46
103 54 46
100 53 44
100 53 44
102 54 46
100 51 44
104 55 49
104 55 55
97 51 41
107 56 52
98 53 38
105 55 47
99 52 43
101 53 49
104 54 43
102 53 44
100 54 44
100 54 46
104 54 47
105 55 46
106 56 50
124 93 96
188 215 255
188 215 255
188 215 255
188 215 255
188 215 255
188 215 255
188 215 255
188 215 255
188 215 255
188 215 255
188 215 255
188 215 255
188 215 255
188 215 255
188 215 255
188 215 255
188 215 255
188 215 255
188 215 255
188 215 255
188 215 255
188 215 255
188 215 255
188 215 255
188 215 255
188 215 255
188 215 255
188 215 255
188 215 255
188 215 255
188 215 255
188 215 255
188 215 255
188 215 255
188 215 255
188 215 255
188 215 255
188 215 255
188 215 255
188 215 255
188 215 255
188 215 255
188 215 255
188 215 255
188 215 255
188 215 255
188 215 255
188 215 255
188 215 255
188 215 255
189 215 255
189 215 255
189 215 255
189 215 255
189 215 255
189 215 255
189 215 255
189 215 255
189 215 255
189 215 255
189 215 255
189 215 255
189 215 255
189 215 255
189 215 255
189 215 255
189 215 255
189 215 255
189 215 255
189 215 255
189 215 255
189 215 255
189 215 255
189 215 255
189 215 255
189 215 255
189 215 255
189 216 255
189 216 255
189 216 255
189 216 255
189 216 255
189 216 255
189 216 255
189 216 255
189 216 255
189 216 255
189 216 255
189 216 255
189 216 255
189 216 255
189 216 255
189 216 255
189 216 255
189 216 255
189 216 255
189 216 255
189 216 255
189 216 255
189 216 255
189 216 255
189 216 255
189 216 255
189 216 255
189 216 255
189 216 255
189 216 255
189 216 255
189 216 255
189 216 255
189 216 255
189 216 255
189 216 255
189 216 255
189 216 255
189 216 255
189 216 255
189 216 255
189 216 255
189 216 255
189 216 255
189 216 255
189 216 255
189 216 255
189 216 255
189 216 255
189 216 255
189 216 255
189 216 255
189 216 255
189 216 255
189 216 255
189 216 255
189 216 255
189 216 255
189 216 255
190 216 255
190 216 255
190 216 255
190 216 255
190 216 255
190 216 255
190 216 255
190 216 255
190 216 255
190 216 255
190 216 255
190 216 255
190 216 255
190 216 255
190 216 255
190 216 255
190 216 255
190 216 255
190 216 255
190 216 255
190 216 255
190 216 255
189 216 255
190 216 255
189 216 255
190 216 255
189 216 255
189 216 255
189 216 255
189 216 255
189 216 255
189 216 255
189 216 255
189 216 255
189 216 255
189 216 255
189 216 255
189 216 255
189 216 255
189 216 255
189 216 255
189 216 255
189 216 255
189 216 255
189 216 255
189 216 255
189 216 255
189 216 255
189 216 255
189 216 255
189 216 255
189 216 255
189 216 255
189 216 255
189 216 255
189 216 255
189 216 255
189 216 255
189 216 255
189 216 255
189 216 255
189 216 255
189 216 255
189 216 255
189 216 255
189 216 255
189 216 255
189 216 255
189 216 255
189 216 255
189 216 255
189 216 255
189 216 255
189 216 255
189 216 255
189 216 255
189 216 255
189 216 255
189 216 255
189 216 255
189 216 255
189 216 255
189 216 255
189 216 255
189 216 255
189 216 255
189 216 255
189 216 255
189 216 255
189 216 255
189 215 255
189 215 255
189 215 255
189 215 255
189 215 255
189 215 255
189 215 255
189 215 255
189 215 255
189 215 255
189 215 255
189 215 255
189 215 255
189 215 255
189 215 255
189 215 255
189 215 255
189 215 255
189 215 255
189 215 255
189 215 255
189 215 255
189 215 255
189 215 255
189 215 255
189 215 255
189 215 255
189 215 255
188 215 255
188 215 255
188 215 255
188 215 255
188 215 255
188 215 255
188 215 255
188 215 255
188 215 255
188 215 255
188 215 255
188 215 255
188 215 255
188 215 255
188 215 255
188 215 255
188 215 255
106 55 55
102 54 46
105 55 44
105 54 49
105 55 50
105 55 56
101 54 50
107 55 52
105 54 50
104 54 52
101 54 49
98 52 39
106 55 52
99 53 39
106 55 47
103 54 47
105 55 52
103 55 49
99 52 41
104 54 44
103 54 43
102 53 44
103 54 41
104 54 46
107 56 53
102 54 44
96 51 35
106 55 50
101 53 41
106 55 47
106 55 47
100 52 39
102 54 47
105 55 49
102 53 43
103 54 49
106 55 44
105 54 46
106 54 49
102 54 43
108 56 52
99 52 43
107 56 52
104 54 50
100 53 41
100 51 43
104 54 44
100 52 44
103 54 46
100 53 43
105 54 44
104 54 49
101 53 46
107 55 52
102 54 43
105 55 44
105 55 56
103 54 44
98 52 38
106 55 53
103 54 52
101 53 41
99 52 36
102 54 49
104 54 50
104 55 46
102 53 41
100 52 41
106 55 55
100 53 39
107 55 50
104 54 47
98 53 41
100 53 41
103 54 47
102 54 44
105 55 49
102 54 46
102 53 43
100 52 38
104 55 49
100 53 46
101 53 47
95 50 36
107 55 53
96 52 39
100 51 46
104 55 53
99 51 41
105 55 49
102 54 46
100 53 38
103 54 49
106 55 50
101 53 44
96 51 35
101 54 44
101 53 47
106 56 55
101 54 43
106 56 56
102 54 39
97 50 38
108 56 59
103 55 47
101 53 47
101 54 41
99 52 44
103 54 44
103 54 47
103 54 50
104 55 44
103 54 46
102 54 46
100 52 41
104 55 47
97 52 38
106 54 49
106 54 49
106 55 52
103 54 46
99 53 44
104 55 53
108 56 55
99 53 46
102 54 46
102 54 47
102 54 47
111 65 59
188 215 255
188 215 255
188 215 255
188 215 255
188 215 255
188 215 255
188 215 255
188 215 255
188 215 255
188 215 255
188 215 255
188 215 255
188 215 255
188 215 255
188 215 255
189 215 255
188 215 255
188 215 255
189 215 255
189 215 255
189 215 255
189 215 255
189 215 255
189 215 255
189 215 255
189 215 255
189 215 255
189 215 255
189 215 255
189 215 255
189 215 255
189 215 255
189 215 255
189 215 255
189 215 255
189 215 255
189 215 255
189 215 255
189 215 255
189 215 255
189 215 255
189 215 255
189 215 255
189 215 255
189 215 255
189 216 255
189 216 255
189 216 255
189 216 255
189 216 255
189 216 255
189 216 255
189 216 255
189 216 255
189 216 255
189 216 255
189 216 255
189 216 255
189 216 255
189 216 255
189 216 255
189 216 255
189 216 255
189 216 255
189 216 255
189 216 255
189 216 255
189 216 255
189 216 255
189 216 255
189 216 255
189 216 255
189 216 255
189 216 255
189 216 255
189 216 255
189 216 255
189 216 255
189 216 255
189 216 255
189 216 255
189 216 255
189 216 255
189 216 255
189 216 255
189 216 255
189 216 255
189 216 255
189 216 255
189 216 255
189 216 255
189 216 255
189 216 255
189 216 255
189 216 255
189 216 255
189 216 255
189 216 255
189 216 255
189 216 255
189 216 255
189 216 255
189 216 255
189 216 255
189 216 255
189 216 255
189 216 255
189 216 255
189 216 255
189 216 255
190 216 255
189 216 255
190 216 255
190 216 255
190 216 255
190 216 255
190 216 255
190 216 255
190 216 255
190 216 255
190 216 255
190 216 255
190 216 255
190 216 255
190 216 255
190 216 255
190 216 255
190 216 255
190 216 255
190 216 255
190 216 255
190 216 255
190 216 255
190 216 255
190 216 255
190 216 255
190 216 255
190 216 255
190 216 255
190 216 255
190 216 255
190 216 255
190 216 255
190 216 255
190 216 255
190 216 255
190 216 255
190 216 255
190 216 255
190 216 255
190 216 255
190 216 255
190 216 255
190 216 255
190 216 255
190 216 255
190 216 255
190 216 255
190 216 255
190 216 255
190 216 255
190 216 255
190 216 255
190 216 255
190 216 255
190 216 255
190 216 255
190 216 255
190 216 255
190 216 255
190 216 255
190 216 255
190 216 255
190 216 255
190 216 255
190 216 255
190 216 255
190 216 255
190 216 255
190 216 255
190 216 255
190 216 255
190 216 255
190 216 255
190 216 255
190 216 255
190 216 255
190 216 255
190 216 255
190 216 255
190 216 255
190 216 255
190 216 255
190 216 255
190 216 255
190 216 255
190 216 255
189 216 255
190 216 255
189 216 255
189 216 255
189 216 255
189 216 255
189 216 255
189 216 255
189 216 255
189 216 255
189 216 255
189 216 255
189 216 255
189 216 255
189 216 255
189 216 255
189 216 255
189 216 255
189 216 255
189 216 255
189 216 255
189 216 255
189 216 255
189 216 255
189 216 255
189 216 255
189 216 255
189 216 255
189 216 255
189 216 255
189 216 255
189 216 255
189 216 255
189 216 255
189 216 255
189 216 255
189 216 255
189 216 255
189 216 255
189 216 255
189 216 255
189 216 255
189 216 255
189 216 255
189 216 255
189 216 255
189 216 255
189 216 255
189 216 255
189 216 255
189 216 255
189 216 255
189 216 255
189 216 255
189 216 255
189 216 255
189 216 255
189 216 255
189 216 255
189 216 255
189 216 255
189 216 255
189 216 255
189 216 255
189 216 255
189 216 255
189 215 255
189 216 255
189 216 255
189 216 255
189 215 255
189 215 255
189 215 255
186 209 248
109 57 53
102 53 41
101 53 36
105 55 50
106 56 50
103 54 47
104 54 47
103 54 52
103 54 49
106 55 50
107 55 50
95 51 36
97 51 39
102 54 46
100 53 39
103 54 46
100 53 38
101 53 47
100 52 44
101 53 46
100 53 47
104 53 44
105 54 43
106 55 53
105 54 50
103 54 44
102 53 43
97 52 38
104 54 44
97 51 33
104 54 47
105 54 50
103 54 47
103 54 43
105 55 52
105 55 49
104 55 47
106 55 46
102 52 46
101 53 36
104 55 49
103 54 47
99 52 44
105 55 49
104 54 47
103 54 49
96 50 38
99 52 44
106 55 46
107 56 53
104 55 52
104 54 47
102 53 49
107 55 53
102 54 41
103 54 46
99 53 43
111 57 53
102 53 41
106 55 46
104 55 47
101 54 49
102 53 43
101 53 39
105 55 52
95 51 38
101 52 47
104 54 46
103 54 43
98 52 36
106 56 58
106 55 47
103 53 47
102 53 47
107 56 47
103 54 44
101 54 43
101 53 44
108 55 49
107 56 55
106 56 53
101 54 43
98 51 41
99 53 38
103 54 46
103 54 43
99 51 38
104 55 49
101 53 44
105 53 44
97 51 33
103 53 46
100 53 41
100 53 43
100 53 43
100 53 43
100 53 46
102 54 39
109 57 52
100 53 41
106 55 50
104 55 52
106 55 52
103 54 44
99 51 36
102 54 43
105 55 47
98 52 38
102 54 46
100 53 43
100 54 44
103 54 44
102 53 47
109 56 53
102 54 47
104 55 52
102 54 44
96 52 41
103 54 46
102 53 36
112 57 59
100 53 41
101 53 47
101 53 43
104 54 47
96 51 35
101 53 46
103 54 46
103 54 47
173 191 223
189 215 255
189 215 255
189 215 255
189 216 255
189 216 255
189 216 255
189 215 255
189 216 255
189 216 255
189 216 255
189 216 255
189 216 255
189 216 255
189 216 255
189 216 255
189 216 255
189 216 255
189 216 255
189 216 255
189 216 255
189 216 255
189 216 255
189 216 255
189 216 255
189 216 255
189 216 255
189 216 255
189 216 255
189 216 255
189 216 255
189 216 255
189 216 255
189 216 255
189 216 255
189 216 255
189 216 255
189 216 255
189 216 255
189 216 255
189 216 255
189 216 255
189 216 255
189 216 255
189 216 255
189 216 255
189 216 255
189 216 255
189 216 255
189 216 255
189 216 255
189 216 255
189 216 255
189 216 255
189 216 255
189 216 255
189 216 255
189 216 255
189 216 255
189 216 255
189 216 255
189 216 255
189 216 255
189 216 255
189 216 255
189 216 255
189 216 255
189 216 255
189 216 255
189 216 255
189 216 255
190 216 255
190 216 255
189 216 255
190 216 255
190 216 255
190 216 255
190 216 255
190 216 255
190 216 255
190 216 255
190 216 255
190 216 255
190 216 255
190 216 255
190 216 255
190 216 255
190 216 255
190 216 255
190 216 255
190 216 255
190 216 255
190 216 255
190 216 255
190 216 255
190 216 255
190 216 255
190 216 255
190 216 255
190 216 255
190 216 255
190 216 255
190 216 255
190 216 255
190 216 255
190 216 255
190 216 255
190 216 255
190 216 255
190 216 255
190 216 255
190 216 255
190 216 255
190 216 255
190 216 255
190 216 255
190 216 255
190 216 255
190 216 255
190 216 255
190 216 255
190 216 255
190 216 255
190 216 255
190 216 255
190 216 255
190 216 255
190 216 255
190 216 255
190 216 255
190 216 255
190 216 255
190 216 255
190 216 255
190 216 255
190 216 255
190 216 255
190 216 255
190 216 255
190 216 255
190 216 255
190 216 255
190 216 255
190 216 255
190 216 255
190 216 255
190 216 255
190 216 255
190 216 255
190 216 255
190 216 255
190 216 255
190 216 255
190 216 255
190 216 255
190 216 255
190 216 255
190 216 255
190 216 255
190 216 255
190 216 255
190 216 255
190 216 255
190 216 255
190 216 255
190 216 255
190 216 255
190 216 255
190 216 255
190 216 255
190 216 255
190 216 255
190 216 255
190 216 255
190 216 255
190 216 255
190 216 255
190 216 255
190 216 255
190 216 255
190 216 255
190 216 255
190 216 255
190 216 255
190 216 255
190 216 255
190 216 255
190 216 255
190 216 255
190 216 255
190 216 255
190 216 255
190 216 255
190 216 255
190 216 255
190 216 255
190 216 255
190 216 255
190 216 255
190 216 255
190 216 255
190 216 255
190 216 255
190 216 255
190 216 255
190 216 255
190 216 255
190 216 255
190 216 255
190 216 255
190 216 255
190 216 255
190 216 255
190 216 255
190 216 255
190 216 255
190 216 255
190 216 255
190 216 255
190 216 255
190 216 255
190 216 255
190 216 255
190 216 255
190 216 255
190 216 255
190 216 255
190 216 255
190 216 255
190 216 255
190 216 255
190 216 255
190 216 255
190 216 255
190 216 255
190 216 255
190 216 255
190 216 255
190 216 255
190 216 255
190 216 255
190 216 255
190 216 255
190 216 255
190 216 255
190 216 255
189 216 255
189 216 255
189 216 255
189 216 255
189 216 255
189 216 255
189 216 255
189 216 255
189 216 255
189 216 255
189 216 255
189 216 255
189 216 255
189 216 255
189 216 255
189 216 255
189 216 255
189 216 255
189 216 255
189 216 255
189 216 255
189 216 255
189 216 255
189 216 255
178 196 228
106 56 56
103 54 44
100 53 39
101 53 46
101 53 36
100 53 39
102 52 43
100 52 36
103 54 49
101 53 44
103 54 46
104 54 44
101 54 44
102 54 47
105 55 47
103 54 46
95 50 38
99 51 38
110 56 55
103 53 47
96 50 33
102 53 36
100 52 38
104 53 43
110 56 49
100 53 41
102 54 44
101 53 44
102 53 47
104 54 47
98 52 41
107 55 53
101 54 41
105 54 44
105 55 50
98 52 29
101 54 47
100 53 39
95 50 33
98 51 35
102 54 47
101 53 44
105 54 49
101 53 39
108 56 53
102 54 43
100 53 43
101 53 44
104 54 41
108 56 53
104 55 46
103 54 46
101 53 39
101 53 41
95 50 33
103 55 47
103 54 46
106 55 49
107 55 50
100 53 43
99 52 39
102 53 44
101 54 47
103 53 43
102 53 47
102 53 44
96 50 33
100 52 43
101 53 41
101 53 44
104 54 49
103 54 44
102 53 41
97 52 39
98 52 33
103 54 38
105 55 49
100 53 44
103 54 39
110 56 55
107 56 50
97 50 33
102 53 50
101 53 41
103 53 49
102 54 41
100 53 33
103 54 44
106 55 52
106 55 50
107 55 56
102 54 46
100 53 46
103 54 47
104 55 46
104 54 49
102 52 44
98 52 39
104 55 47
102 54 44
104 54 47
100 52 39
103 53 43
105 55 52
102 53 44
99 52 44
102 54 41
101 52 46
100 53 41
99 52 44
106 55 49
102 53 41
98 50 41
109 57 56
102 53 41
109 57 55
99 53 43
104 54 47
102 53 36
104 54 46
98 52 41
100 53 41
108 55 55
106 55 50
97 51 35
103 55 50
100 53 41
106 55 52
103 55 50
182 203 240
189 216 255
189 216 255
189 216 255
189 216 255
189 216 255
189 216 255
189 216 255
189 216 255
189 216 255
189 216 255
189 216 255
189 216 255
189 216 255
189 216 255
189 216 255
189 216 255
189 216 255
189 216 255
189 216 255
189 216 255
189 216 255
189 216 255
189 216 255
189 216 255
190 216 255
189 216 255
189 216 255
190 216 255
190 216 255
190 216 255
190 216 255
190 216 255
190 216 255
190 216 255
190 216 255
190 216 255
190 216 255
190 216 255
190 216 255
190 216 255
190 216 255
190 216 255
190 216 255
190 216 255
190 216 255
190 216 255
190 216 255
190 216 255
190 216 255
190 216 255
190 216 255
190 216 255
190 216 255
190 216 255
190 216 255
190 216 255
190 216 255
190 216 255
190 216 255
190 216 255
190 216 255
190 216 255
190 216 255
190 216 255
190 216 255
190 216 255
190 216 255
190 216 255
190 216 255
190 216 255
190 216 255
190 216 255
190 216 255
190 216 255
190 216 255
190 216 255
190 216 255
190 216 255
190 216 255
190 216 255
190 216 255
190 216 255
190 216 255
190 216 255
190 216 255
190 216 255
190 216 255
190 216 255
190 216 255
190 216 255
190 216 255
190 216 255
190 216 255
190 216 255
190 216 255
190 216 255
190 216 255
190 216 255
190 216 255
190 216 255
190 216 255
190 216 255
190 216 255
190 216 255
190 216 255
190 216 255
190 216 255
190 216 255
190 216 255
190 216 255
190 216 255
190 216 255
190 216 255
190 216 255
190 216 255
190 216 255
190 216 255
190 216 255
190 216 255
190 216 255
190 216 255
190 216 255
190 216 255
190 216 255
190 216 255
190 216 255
190 216 255
190 216 255
190 216 255
190 216 255
190 216 255
190 216 255
190 216 255
190 216 255
190 216 255
191 217 255
190 216 255
191 217 255
191 217 255
191 217 255
190 216 255
190 216 255
190 216 255
190 216 255
190 216 255
190 216 255
190 216 255
190 216 255
190 216 255
190 216 255
190 216 255
190 216 255
190 216 255
190 216 255
190 216 255
190 216 255
190 216 255
190 216 255
190 216 255
190 216 255
190 216 255
190 216 255
190 216 255
190 216 255
190 216 255
190 216 255
190 216 255
190 216 255
190 216 255
190 216 255
190 216 255
190 216 255
190 216 255
190 216 255
190 216 255
190 216 255
190 216 255
190 216 255
190 216 255
190 216 255
190 216 255
190 216 255
190 216 255
190 216 255
190 216 255
190 216 255
190 216 255
190 216 255
190 216 255
190 216 255
190 216 255
190 216 255
190 216 255
190 216 255
190 216 255
190 216 255
190 216 255
190 216 255
190 216 255
190 216 255
190 216 255
190 216 255
190 216 255
190 216 255
190 216 255
190 216 255
190 216 255
190 216 255
190 216 255
190 216 255
190 216 255
190 216 255
190 216 255
190 216 255
190 216 255
190 216 255
190 216 255
190 216 255
190 216 255
190 216 255
190 216 255
190 216 255
190 216 255
190 216 255
190 216 255
190 216 255
190 216 255
190 216 255
190 216 255
190 216 255
190 216 255
190 216 255
190 216 255
190 216 255
190 216 255
190 216 255
190 216 255
190 216 255
190 216 255
190 216 255
190 216 255
190 216 255
190 216 255
190 216 255
190 216 255
190 216 255
190 216 255
190 216 255
190 216 255
190 216 255
190 216 255
190 216 255
190 216 255
190 216 255
190 216 255
190 216 255
190 216 255
190 216 255
190 216 255
190 216 255
190 216 255
190 216 255
190 216 255
190 216 255
190 216 255
190 216 255
190 216 255
190 216 255
190 216 255
173 187 217
102 54 46
108 56 55
99 52 44
105 55 50
103 54 50
106 55 50
103 54 43
101 53 47
101 53 47
98 52 35
105 54 46
105 55 43
101 53 41
104 54 47
104 54 41
101 54 41
103 55 47
103 54 49
106 55 52
104 53 46
108 56 49
103 54 41
99 52 41
102 54 47
96 52 33
105 55 43
100 53 41
107 55 44
101 53 38
103 54 44
104 55 52
104 54 49
103 53 39
99 53 44
104 55 49
103 54 46
99 53 39
100 52 38
107 56 58
107 55 46
103 54 44
100 52 38
105 55 50
104 55 47
107 55 52
105 55 52
99 52 41
108 56 52
105 55 49
102 53 49
104 54 49
101 53 43
102 54 39
107 55 46
105 55 46
100 53 41
108 56 55
106 55 47
107 55 46
101 53 49
98 52 41
100 54 44
97 51 32
100 53 41
105 55 49
103 54 49
102 54 43
97 51 36
105 55 50
106 54 47
101 53 39
103 53 47
97 52 38
102 54 47
105 55 49
102 53 47
98 51 35
99 52 36
98 52 35
103 54 43
101 54 47
100 53 41
106 55 47
106 56 50
97 52 38
101 53 41
104 54 38
101 54 43
102 54 44
103 54 46
101 52 41
101 53 43
96 50 30
101 53 44
99 52 41
101 52 52
105 55 49
103 53 44
103 54 47
102 54 46
103 54 43
101 53 41
101 53 35
99 52 41
100 53 43
104 53 47
102 53 49
109 57 53
95 52 36
103 54 41
100 52 38
95 51 30
98 53 43
102 54 47
102 53 38
101 53 39
101 53 41
104 55 47
103 54 44
106 55 50
105 55 50
99 51 39
104 54 44
97 51 38
106 56 55
97 52 41
98 51 41
106 55 52
106 56 58
165 170 198
190 216 255
190 216 255
190 216 255
190 216 255
190 216 255
190 216 255
190 216 255
190 216 255
190 216 255
190 216 255
190 216 255
190 216 255
190 216 255
190 216 255
190 216 255
190 216 255
190 216 255
190 216 255
190 216 255
190 216 255
190 216 255
190 216 255
190 216 255
190 216 255
190 216 255
190 216 255
190 216 255
190 216 255
190 216 255
190 216 255
190 216 255
190 216 255
190 216 255
190 216 255
190 216 255
190 216 255
190 216 255
190 216 255
190 216 255
190 216 255
190 216 255
190 216 255
190 216 255
190 216 255
190 216 255
190 216 255
190 216 255
190 216 255
190 216 255
190 216 255
190 216 255
190 216 255
190 216 255
190 216 255
190 216 255
190 216 255
190 216 255
190 216 255
190 216 255
190 216 255
190 216 255
190 216 255
190 216 255
190 216 255
190 216 255
190 216 255
190 216 255
190 216 255
190 216 255
190 216 255
190 216 255
190 216 255
190 216 255
190 216 255
190 216 255
190 216 255
190 216 255
190 216 255
190 216 255
190 216 255
190 216 255
190 216 255
190 216 255
190 216 255
190 216 255
190 216 255
190 216 255
190 216 255
190 216 255
190 216 255
190 216 255
190 216 255
190 216 255
190 216 255
190 216 255
190 216 255
190 216 255
190 216 255
190 216 255
190 216 255
190 216 255
190 216 255
190 216 255
190 216 255
190 216 255
190 216 255
190 216 255
190 216 255
190 216 255
190 216 255
190 216 255
190 216 255
190 216 255
190 216 255
190 216 255
190 216 255
190 216 255
190 216 255
190 216 255
190 216 255
190 216 255
190 216 255
190 216 255
190 216 255
190 216 255
190 216 255
190 216 255
191 217 255
190 216 255
190 216 255
191 217 255
191 217 255
191 217 255
190 216 255
191 217 255
191 217 255
191 217 255
191 217 255
191 217 255
191 217 255
191 217 255
191 217 255
191 217 255
191 217 255
191 217 255
191 217 255
191 217 255
191 217 255
191 217 255
191 217 255
191 217 255
191 217 255
191 217 255
191 217 255
191 217 255
191 217 255
191 217 255
191 217 255
191 217 255
191 217 255
191 217 255
191 217 255
191 217 255
191 217 255
191 217 255
191 217 255
191 217 255
191 217 255
191 217 255
191 217 255
191 217 255
191 217 255
191 217 255
191 217 255
191 217 255
191 217 255
191 217 255
191 217 255
191 217 255
191 217 255
191 217 255
191 217 255
191 217 255
191 217 255
191 217 255
191 217 255
191 217 255
191 217 255
191 217 255
191 217 255
191 217 255
191 217 255
191 217 255
191 217 255
191 217 255
191 217 255
191 217 255
191 217 255
191 217 255
191 217 255
191 217 255
191 217 255
191 217 255
191 217 255
191 217 255
191 217 255
191 217 255
191 217 255
191 217 255
191 217 255
191 217 255
190 216 255
191 217 255
191 217 255
190 216 255
191 217 255
191 217 255
191 217 255
191 217 255
190 216 255
190 216 255
191 217 255
190 216 255
190 216 255
190 216 255
190 216 255
190 216 255
190 216 255
190 216 255
190 216 255
190 216 255
190 216 255
190 216 255
190 216 255
190 216 255
190 216 255
190 216 255
190 216 255
190 216 255
190 216 255
190 216 255
190 216 255
190 216 255
190 216 255
190 216 255
190 216 255
190 216 255
190 216 255
190 216 255
190 216 255
190 216 255
190 216 255
190 216 255
190 216 255
190 216 255
190 216 255
190 216 255
190 216 255
190 216 255
190 216 255
190 216 255
190 216 255
190 216 255
190 216 255
190 216 255
190 216 255
190 216 255
190 216 255
190 216 255
169 175 204
101 53 44
100 52 47
106 55 50
101 52 38
100 53 41
100 53 43
103 54 53
103 55 49
104 55 47
100 52 36
99 52 38
103 53 43
104 55 47
103 53 41
96 52 39
96 51 41
104 54 47
98 51 38
100 52 38
101 54 43
105 53 43
101 54 41
101 53 44
101 53 46
97 52 36
104 55 46
99 52 38
106 55 46
98 53 39
103 53 41
97 52 39
98 52 36
98 51 35
102 53 46
98 51 39
107 56 50
99 53 41
106 55 46
100 53 41
101 54 43
102 54 44
103 54 44
106 55 52
105 55 44
101 53 38
98 52 38
101 53 46
105 55 44
102 53 44
98 51 36
103 53 39
99 51 33
101 52 41
105 55 44
98 52 39
106 55 49
97 51 36
101 54 46
105 55 50
98 51 36
105 54 47
106 56 52
101 53 41
100 53 46
104 55 44
101 52 38
96 51 32
99 53 38
102 53 49
102 54 44
100 51 43
101 54 46
103 55 50
98 52 43
100 53 39
98 52 33
105 55 49
102 52 43
106 55 53
103 55 50
109 56 50
108 56 50
99 51 39
101 53 44
100 53 39
103 53 46
99 52 35
102 53 43
103 54 49
99 52 39
100 52 39
107 56 56
96 52 38
105 55 49
102 53 46
105 54 47
107 55 50
102 54 47
99 52 46
104 54 47
101 53 39
104 55 44
102 53 43
99 52 39
100 52 39
104 54 49
101 52 47
105 55 50
101 53 44
97 50 35
104 54 49
104 54 43
103 54 46
104 55 46
107 55 50
97 52 41
93 49 27
100 51 36
103 54 47
98 51 38
103 54 43
102 54 46
99 52 43
101 51 41
101 53 41
100 53 39
103 54 43
97 51 39
97 51 36
164 167 193
190 216 255
190 216 255
190 216 255
190 216 255
190 216 255
190 216 255
190 216 255
190 216 255
190 216 255
190 216 255
190 216 255
190 216 255
190 216 255
190 216 255
190 216 255
190 216 255
190 216 255
190 216 255
190 216 255
190 216 255
190 216 255
190 216 255
190 216 255
190 216 255
190 216 255
190 216 255
190 216 255
190 216 255
190 216 255
190 216 255
190 216 255
190 216 255
190 216 255
190 216 255
190 216 255
190 216 255
190 216 255
190 216 255
190 216 255
190 216 255
190 216 255
190 216 255
190 216 255
190 216 255
190 216 255
190 216 255
190 216 255
191 217 255
191 217 255
191 217 255
190 216 255
191 217 255
191 217 255
191 217 255
191 217 255
191 217 255
191 217 255
191 217 255
191 217 255
191 217 255
191 217 255
191 217 255
191 217 255
191 217 255
191 217 255
191 217 255
191 217 255
191 217 255
191 217 255
191 217 255
191 217 255
191 217 255
191 217 255
191 217 255
191 217 255
191 217 255
191 217 255
191 217 255
191 217 255
191 217 255
191 217 255
191 217 255
191 217 255
191 217 255
191 217 255
191 217 255
191 217 255
191 217 255
191 217 255
191 217 255
191 217 255
191 217 255
191 217 255
191 217 255
191 217 255
191 217 255
191 217 255
191 217 255
191 217 255
191 217 255
191 217 255
191 217 255
191 217 255
191 217 255
191 217 255
191 217 255
191 217 255
191 217 255
191 217 255
191 217 255
191 217 255
191 217 255
191 217 255
191 217 255
191 217 255
191 217 255
191 217 255
191 217 255
191 217 255
191 217 255
191 217 255
191 217 255
191 217 255
191 217 255
191 217 255
191 217 255
191 217 255
191 217 255
191 217 255
191 217 255
191 217 255
191 217 255
191 217 255
191 217 255
191 217 255
191 217 255
191 217 255
191 217 255
191 217 255
191 217 255
191 217 255
191 217 255
191 217 255
191 217 255
191 217 255
191 217 255
191 217 255
191 217 255
191 217 255
191 217 255
191 217 255
191 217 255
191 217 255
191 217 255
191 217 255
191 217 255
191 217 255
191 217 255
191 217 255
191 217 255
191 217 255
191 217 255
191 217 255
191 217 255
191 217 255
191 217 255
191 217 255
191 217 255
191 217 255
191 217 255
191 217 255
191 217 255
191 217 255
191 217 255
191 217 255
191 217 255
191 217 255
191 217 255
191 217 255
191 217 255
191 217 255
191 217 255
191 217 255
191 217 255
191 217 255
191 217 255
191 217 255
191 217 255
191 217 255
191 217 255
191 217 255
191 217 255
191 217 255
191 217 255
191 217 255
191 217 255
191 217 255
191 217 255
191 217 255
191 217 255
191 217 255
191 217 255
191 217 255
191 217 255
191 217 255
191 217 255
191 217 255
191 217 255
191 217 255
191 217 255
191 217 255
191 217 255
191 217 255
191 217 255
191 217 255
191 217 255
191 217 255
191 217 255
191 217 255
191 217 255
191 217 255
191 217 255
191 217 255
191 217 255
191 217 255
191 217 255
191 217 255
191 217 255
191 217 255
191 217 255
191 217 255
191 217 255
191 217 255
191 217 255
191 217 255
191 217 255
191 217 255
191 217 255
191 217 255
191 217 255
191 217 255
191 217 255
191 217 255
191 217 255
191 217 255
191 217 255
191 217 255
191 217 255
191 217 255
191 217 255
191 217 255
191 217 255
191 217 255
191 217 255
191 217 255
191 217 255
191 217 255
191 217 255
191 217 255
191 217 255
191 217 255
191 217 255
191 217 255
191 217 255
191 217 255
191 217 255
191 217 255
191 217 255
191 217 255
162 166 188
102 54 47
105 55 50
94 48 30
107 55 47
101 53 38
103 54 46
101 53 43
102 54 46
102 53 41
99 52 41
104 54 47
102 53 44
99 52 38
104 54 44
99 51 36
103 54 47
99 52 39
103 55 49
98 52 38
98 52 41
96 52 38
98 52 41
103 53 39
100 53 43
99 52 38
100 53 43
100 52 44
104 54 47
100 50 41
98 52 36
101 53 46
104 55 52
104 54 47
104 53 44
100 52 36
101 53 38
107 55 50
104 54 43
106 55 55
100 52 46
108 55 55
95 51 33
96 52 32
101 53 41
103 54 46
101 53 49
99 52 43
98 51 43
103 54 41
101 53 41
103 54 43
102 54 49
103 54 50
99 53 43
101 53 38
103 54 44
101 53 49
98 53 41
103 54 41
104 55 44
101 52 44
102 53 41
104 54 49
99 52 38
97 50 41
100 52 41
101 54 43
94 50 23
102 54 43
95 51 38
101 53 39
100 52 36
101 53 46
98 51 35
100 53 46
103 54 44
107 56 53
104 54 49
106 54 53
103 53 41
104 54 46
95 50 36
105 55 49
106 54 47
98 52 43
104 54 46
106 56 50
99 53 39
100 52 43
95 50 39
103 54 50
98 52 41
95 51 30
100 51 39
107 56 56
102 53 46
98 52 36
103 53 50
99 52 36
96 50 27
97 53 41
102 53 47
106 54 52
103 54 44
106 56 52
101 52 39
102 53 46
106 55 49
107 55 50
100 53 41
98 52 39
100 53 43
100 53 39
103 54 46
96 51 38
101 53 43
99 52 35
100 53 43
107 55 50
100 51 36
98 52 35
103 53 43
105 55 52
105 54 52
103 55 49
104 55 46
101 52 41
105 53 47
101 53 39
166 171 195
191 217 255
191 217 255
191 217 255
191 217 255
191 217 255
191 217 255
191 217 255
191 217 255
191 217 255
191 217 255
191 217 255
191 217 255
191 217 255
191 217 255
191 217 255
191 217 255
191 217 255
191 217 255
191 217 255
191 217 255
191 217 255
191 217 255
191 217 255
191 217 255
191 217 255
191 217 255
191 217 255
191 217 255
191 217 255
191 217 255
191 217 255
191 217 255
191 217 255
191 217 255
191 217 255
191 217 255
191 217 255
191 217 255
191 217 255
191 217 255
191 217 255
191 217 255
191 217 255
191 217 255
191 217 255
191 217 255
191 217 255
191 217 255
191 217 255
191 217 255
191 217 255
191 217 255
191 217 255
191 217 255
191 217 255
191 217 255
191 217 255
191 217 255
191 217 255
191 217 255
191 217 255
191 217 255
191 217 255
191 217 255
191 217 255
191 217 255
191 217 255
191 217 255
191 217 255
191 217 255
191 217 255
191 217 255
191 217 255
191 217 255
191 217 255
191 217 255
191 217 255
191 217 255
191 217 255
191 217 255
191 217 255
191 217 255
191 217 255
191 217 255
191 217 255
191 217 255
191 217 255
191 217 255
191 217 255
191 217 255
191 217 255
191 217 255
191 217 255
191 217 255
191 217 255
191 217 255
191 217 255
191 217 255
191 217 255
191 217 255
191 217 255
191 217 255
191 217 255
191 217 255
191 217 255
191 217 255
191 217 255
191 217 255
191 217 255
191 217 255
191 217 255
191 217 255
191 217 255
191 217 255
191 217 255
191 217 255
191 217 255
191 217 255
191 217 255
191 217 255
191 217 255
191 217 255
191 217 255
191 217 255
191 217 255
191 217 255
191 217 255
191 217 255
191 217 255
191 217 255
191 217 255
191 217 255
191 217 255
191 217 255
191 217 255
191 217 255
191 217 255
191 217 255
191 217 255
191 217 255
191 217 255
191 217 255
191 217 255
191 217 255
191 217 255
191 217 255
191 217 255
191 217 255
191 217 255
191 217 255
191 217 255
191 217 255
191 217 255
191 217 255
191 217 255
191 217 255
191 217 255
191 217 255
191 217 255
191 217 255
191 217 255
191 217 255
191 217 255
191 217 255
191 217 255
191 217 255
191 217 255
191 217 255
191 217 255
191 217 255
191 217 255
191 217 255
191 217 255
191 217 255
191 217 255
191 217 255
191 217 255
191 217 255
191 217 255
191 217 255
191 217 255
191 217 255
191 217 255
191 217 255
191 217 255
191 217 255
191 217 255
191 217 255
191 217 255
191 217 255
191 217 255
191 217 255
191 217 255
191 217 255
191 217 255
191 217 255
191 217 255
191 217 255
191 217 255
191 217 255
191 217 255
191 217 255
191 217 255
191 217 255
191 217 255
191 217 255
191 217 255
191 217 255
191 217 255
191 217 255
191 217 255
191 217 255
191 217 255
191 217 255
191 217 255
191 217 255
191 217 255
191 217 255
191 217 255
191 217 255
191 217 255
191 217 255
191 217 255
191 217 255
191 217 255
191 217 255
191 217 255
191 217 255
191 217 255
191 217 255
191 217 255
191 217 255
191 217 255
191 217 255
191 217 255
191 217 255
191 217 255
191 217 255
191 217 255
191 217 255
191 217 255
191 217 255
191 217 255
191 217 255
191 217 255
191 217 255
191 217 255
191 217 255
191 217 255
191 217 255
191 217 255
191 217 255
191 217 255
191 217 255
191 217 255
191 217 255
191 217 255
191 217 255
191 217 255
191 217 255
191 217 255
191 217 255
191 217 255
191 217 255
191 217 255
191 217 255
191 217 255
191 217 255
191 217 255
158 159 179
99 52 36
102 54 41
97 50 38
100 53 44
91 49 33
103 54 47
101 53 41
101 52 39
99 53 36
99 51 38
99 52 44
101 53 39
102 52 38
105 55 49
97 52 29
99 51 39
106 54 49
100 52 39
104 55 46
104 54 49
104 54 50
108 56 56
107 56 52
105 55 49
98 51 39
101 53 44
109 57 55
96 51 36
100 52 41
101 54 44
103 54 43
100 52 35
104 54 47
97 52 43
99 51 43
100 53 39
98 51 32
105 55 46
100 54 44
101 54 44
105 53 46
109 57 55
102 54 46
103 54 43
100 52 39
104 55 47
103 54 43
100 54 46
99 53 36
104 54 49
99 52 41
102 54 44
104 54 50
103 54 49
115 58 61
101 54 41
102 53 41
98 51 29
102 54 47
105 54 44
102 53 44
106 55 55
105 55 44
105 55 55
102 53 43
103 53 39
101 53 38
103 54 46
100 52 46
105 55 44
102 53 41
102 53 44
98 53 44
100 53 41
99 53 38
104 55 52
105 55 43
104 55 52
98 52 39
97 51 46
100 53 43
105 54 47
100 53 41
104 54 50
103 54 44
107 56 47
100 52 35
100 52 46
100 53 44
102 53 38
96 50 35
102 52 44
103 54 46
101 53 39
103 54 43
105 54 49
99 53 39
102 54 43
106 55 52
100 52 44
103 53 47
100 53 41
101 53 41
99 52 38
100 52 35
100 51 38
102 54 43
101 53 36
104 54 49
105 55 43
102 53 47
99 53 39
102 53 44
102 54 49
101 53 41
99 52 36
98 51 41
100 53 36
106 54 50
98 52 35
102 53 43
100 52 41
100 52 43
102 53 39
100 53 44
96 50 35
104 55 52
92 49 29
104 55 52
167 171 196
191 217 255
191 217 255
191 217 255
191 217 255
191 217 255
191 217 255
191 217 255
191 217 255
191 217 255
191 217 255
191 217 255
191 217 255
191 217 255
191 217 255
191 217 255
191 217 255
191 217 255
191 217 255
191 217 255
191 217 255
191 217 255
191 217 255
191 217 255
191 217 255
191 217 255
191 217 255
191 217 255
191 217 255
191 217 255
191 217 255
191 217 255
191 217 255
191 217 255
191 217 255
191 217 255
191 217 255
191 217 255
191 217 255
191 217 255
191 217 255
191 217 255
191 217 255
191 217 255
191 217 255
191 217 255
191 217 255
191 217 255
191 217 255
191 217 255
191 217 255
191 217 255
191 217 255
191 217 255
191 217 255
191 217 255
191 217 255
191 217 255
191 217 255
191 217 255
191 217 255
191 217 255
191 217 255
191 217 255
191 217 255
191 217 255
191 217 255
191 217 255
191 217 255
191 217 255
191 217 255
191 217 255
191 217 255
191 217 255
191 217 255
191 217 255
191 217 255
191 217 255
191 217 255
191 217 255
191 217 255
191 217 255
191 217 255
191 217 255
191 217 255
191 217 255
191 217 255
191 217 255
191 217 255
191 217 255
191 217 255
191 217 255
191 217 255
191 217 255
191 217 255
191 217 255
191 217 255
191 217 255
191 217 255
191 217 255
191 217 255
191 217 255
191 217 255
191 217 255
191 217 255
191 217 255
191 217 255
191 217 255
191 217 255
191 217 255
191 217 255
191 217 255
191 217 255
191 217 255
191 217 255
191 217 255
191 217 255
191 217 255
191 217 255
191 217 255
191 217 255
191 217 255
191 217 255
191 217 255
191 217 255
191 217 255
191 217 255
191 217 255
191 217 255
191 217 255
191 217 255
191 217 255
191 217 255
191 217 255
191 217 255
191 217 255
192 217 255
192 217 255
192 217 255
192 217 255
192 217 255
192 217 255
192 217 255
192 217 255
192 217 255
192 217 255
192 217 255
192 217 255
192 217 255
192 217 255
192 217 255
192 217 255
192 217 255
192 217 255
192 217 255
192 217 255
192 217 255
192 217 255
192 217 255
192 217 255
192 217 255
192 217 255
192 217 255
192 217 255
192 217 255
192 217 255
192 217 255
192 217 255
192 217 255
192 217 255
192 217 255
192 217 255
192 217 255
192 217 255
192 217 255
192 217 255
192 217 255
192 217 255
192 217 255
192 217 255
192 217 255
192 217 255
192 217 255
192 217 255
192 217 255
192 217 255
192 217 255
192 217 255
192 217 255
192 217 255
192 217 255
192 217 255
192 217 255
192 217 255
192 217 255
192 217 255
192 217 255
192 217 255
192 217 255
192 217 255
192 217 255
192 217 255
192 217 255
192 217 255
192 217 255
192 217 255
192 217 255
192 217 255
192 217 255
192 217 255
192 217 255
192 217 255
192 217 255
192 217 255
192 217 255
192 217 255
192 217 255
192 217 255
192 217 255
192 217 255
192 217 255
192 217 255
192 217 255
192 217 255
192 217 255
192 217 255
192 217 255
192 217 255
192 217 255
192 217 255
192 217 255
192 217 255
192 217 255
192 217 255
192 217 255
192 217 255
192 217 255
192 217 255
192 217 255
192 217 255
192 217 255
192 217 255
192 217 255
192 217 255
192 217 255
192 217 255
192 217 255
192 217 255
192 217 255
192 217 255
192 217 255
192 217 255
192 217 255
192 217 255
192 217 255
192 217 255
192 217 255
192 217 255
192 217 255
192 217 255
192 217 255
192 217 255
192 217 255
192 217 255
192 217 255
192 217 255
192 217 255
192 217 255
192 217 255
192 217 255
158 158 177
108 56 52
105 55 52
100 53 35
97 50 43
100 52 36
105 55 47
101 53 50
101 52 43
100 53 39
103 54 43
101 53 43
107 56 56
101 53 39
101 53 43
101 53 41
104 53 41
98 52 39
106 54 46
108 56 47
93 49 35
97 50 35
101 52 43
105 55 47
103 54 43
99 51 41
97 51 38
96 50 30
106 55 50
97 51 39
100 52 38
106 55 49
101 54 43
99 52 36
100 53 36
95 50 35
92 49 30
95 50 32
102 54 39
105 55 47
106 55 52
106 55 47
105 54 50
98 52 35
104 54 46
104 54 47
103 53 39
99 52 38
102 53 41
107 56 55
103 53 46
101 54 41
105 54 47
98 51 38
101 53 39
105 54 49
107 55 46
99 52 39
101 53 46
102 54 39
96 50 33
100 53 33
98 52 39
100 53 49
102 54 39
101 53 41
105 55 55
105 54 50
101 52 41
98 51 35
101 53 41
98 52 43
103 54 43
100 53 43
104 53 50
105 54 50
110 57 55
104 54 44
104 54 49
103 54 43
105 55 47
98 52 39
98 51 35
101 53 41
101 52 44
99 53 38
97 51 39
98 52 39
103 54 47
100 52 43
102 53 39
100 53 43
103 54 49
106 55 49
98 52 36
103 54 44
95 50 35
96 51 33
101 53 39
104 55 46
104 53 46
103 54 44
99 51 38
105 55 49
99 53 36
105 55 47
96 49 33
103 53 44
103 55 50
99 52 38
98 51 36
104 54 47
98 52 36
100 52 43
103 54 50
101 53 36
103 53 44
103 54 44
108 55 52
101 52 41
96 49 39
98 51 36
102 53 41
105 54 49
102 54 43
103 54 50
102 53 46
101 52 41
101 53 47
108 56 47
173 184 212
192 217 255
192 217 255
192 217 255
192 217 255
192 217 255
192 217 255
192 217 255
192 217 255
192 217 255
192 217 255
192 217 255
192 217 255
192 217 255
192 217 255
192 217 255
192 217 255
192 217 255
192 217 255
192 217 255
192 217 255
192 217 255
192 217 255
192 217 255
192 217 255
192 217 255
192 217 255
192 217 255
192 217 255
192 217 255
192 217 255
192 217 255
192 217 255
192 217 255
192 217 255
192 217 255
192 217 255
192 217 255
192 217 255
192 217 255
192 217 255
192 217 255
192 217 255
192 217 255
192 217 255
192 217 255
192 217 255
192 217 255
192 217 255
192 217 255
192 217 255
192 217 255
192 217 255
192 217 255
192 217 255
192 217 255
192 217 255
192 217 255
192 217 255
192 217 255
192 217 255
192 217 255
192 217 255
192 217 255
192 217 255
192 217 255
192 217 255
192 217 255
192 217 255
192 217 255
192 217 255
192 217 255
192 217 255
192 217 255
192 217 255
192 217 255
192 217 255
192 217 255
192 217 255
192 217 255
192 217 255
192 217 255
192 217 255
192 217 255
192 217 255
192 217 255
192 217 255
192 217 255
192 217 255
192 217 255
192 217 255
192 217 255
192 217 255
192 217 255
192 217 255
192 217 255
192 217 255
192 217 255
192 217 255
192 217 255
192 217 255
192 217 255
192 217 255
192 217 255
192 217 255
192 217 255
192 217 255
192 217 255
192 217 255
192 217 255
192 217 255
192 217 255
192 217 255
192 217 255
192 217 255
192 217 255
192 217 255
192 217 255
192 217 255
192 217 255
192 217 255
192 217 255
192 217 255
192 217 255
192 217 255
192 217 255
192 217 255
192 217 255
192 217 255
192 217 255
192 217 255
192 217 255
192 217 255
192 217 255
192 217 255
192 217 255
192 217 255
192 217 255
192 217 255
192 217 255
192 217 255
192 217 255
192 217 255
192 217 255
192 217 255
192 217 255
192 217 255
192 217 255
192 217 255
192 217 255
192 217 255
192 217 255
192 217 255
192 217 255
192 217 255
192 217 255
192 217 255
192 217 255
192 217 255
192 217 255
192 217 255
192 217 255
192 217 255
192 217 255
192 217 255
192 217 255
192 217 255
192 217 255
192 217 255
192 217 255
192 217 255
192 217 255
192 217 255
192 217 255
192 217 255
192 217 255
192 217 255
192 217 255
192 217 255
192 217 255
192 217 255
192 217 255
192 217 255
192 217 255
192 217 255
192 217 255
192 217 255
192 217 255
192 217 255
192 217 255
192 217 255
192 217 255
192 217 255
192 217 255
192 217 255
192 217 255
192 217 255
192 217 255
192 217 255
192 217 255
192 217 255
192 217 255
192 217 255
192 217 255
192 217 255
192 217 255
192 217 255
192 217 255
192 217 255
192 217 255
192 217 255
192 217 255
192 217 255
192 217 255
192 217 255
192 217 255
192 217 255
192 217 255
192 217 255
192 217 255
192 217 255
192 217 255
192 217 255
192 217 255
192 217 255
192 217 255
192 217 255
192 217 255
192 217 255
192 217 255
192 217 255
192 217 255
192 217 255
192 217 255
192 217 255
192 218 255
192 218 255
192 217 255
192 217 255
192 217 255
192 218 255
192 218 255
192 217 255
192 218 255
192 218 255
192 218 255
192 217 255
192 217 255
192 218 255
192 218 255
192 217 255
192 218 255
192 218 255
192 218 255
192 218 255
192 218 255
192 218 255
192 218 255
192 218 255
192 218 255
192 218 255
192 218 255
192 218 255
192 218 255
192 218 255
192 218 255
192 218 255
192 218 255
192 218 255
192 218 255
172 176 201
100 52 36
99 52 38
104 54 50
103 54 43
96 51 38
100 53 43
105 54 46
102 53 44
105 55 49
109 57 56
99 53 43
101 53 43
104 55 47
97 52 36
98 51 36
99 52 38
98 51 39
98 51 33
100 52 41
101 53 39
101 52 39
104 54 43
96 49 33
97 52 43
107 55 58
96 50 35
104 54 47
102 53 38
101 53 44
105 54 46
102 53 46
102 53 46
102 53 44
98 51 39
101 51 44
104 54 43
97 50 38
97 52 36
96 51 33
102 53 47
98 52 35
98 52 43
103 53 47
102 53 43
105 55 47
100 53 39
104 53 43
93 49 27
95 49 26
105 55 49
97 51 39
105 55 44
98 51 36
97 48 35
102 54 39
102 54 44
102 53 44
104 55 44
106 55 52
105 54 49
99 52 41
103 53 41
105 55 49
99 51 38
101 53 38
98 51 35
101 54 49
103 54 46
105 54 44
97 51 33
99 51 36
100 52 35
101 53 41
106 56 55
111 57 55
98 52 39
104 54 43
100 52 41
102 54 46
105 54 52
99 52 43
106 55 47
98 52 35
102 53 43
100 52 33
103 54 50
106 55 47
103 54 46
104 53 52
100 52 36
104 55 47
106 55 49
101 53 43
103 53 43
105 54 46
106 55 53
97 52 36
104 54 47
107 56 49
102 54 44
105 55 49
98 52 33
100 52 41
103 54 46
98 51 36
103 54 44
100 53 38
105 54 53
102 52 38
98 52 36
97 50 30
104 54 46
104 54 47
100 52 47
102 54 52
99 52 41
100 52 32
107 56 50
100 53 39
103 54 44
102 53 43
98 52 36
102 53 39
100 52 39
100 53 44
102 54 41
102 53 43
104 55 47
103 52 47
156 151 172
192 218 255
192 218 255
192 218 255
192 218 255
192 218 255
192 218 255
192 218 255
192 218 255
192 218 255
192 218 255
192 218 255
192 218 255
192 218 255
192 218 255
192 218 255
192 218 255
192 217 255
192 218 255
192 218 255
192 218 255
192 218 255
192 218 255
192 217 255
192 218 255
192 218 255
192 217 255
192 217 255
192 217 255
192 218 255
192 217 255
192 218 255
192 217 255
192 217 255
192 217 255
192 217 255
192 217 255
192 217 255
192 217 255
192 217 255
192 217 255
192 217 255
192 217 255
192 217 255
192 217 255
192 217 255
192 217 255
192 217 255
192 217 255
192 217 255
192 217 255
192 217 255
192 217 255
192 217 255
192 217 255
192 217 255
192 217 255
192 217 255
192 217 255
192 217 255
192 217 255
192 217 255
192 217 255
192 217 255
192 217 255
192 217 255
192 217 255
192 217 255
192 217 255
192 217 255
192 217 255
192 217 255
192 217 255
192 217 255
192 217 255
192 217 255
192 217 255
192 217 255
192 217 255
192 217 255
192 217 255
192 217 255
192 217 255
192 217 255
192 217 255
192 217 255
192 217 255
192 217 255
192 217 255
192 217 255
192 217 255
192 217 255
192 217 255
192 217 255
192 217 255
192 217 255
192 217 255
192 217 255
192 217 255
192 217 255
192 217 255
192 217 255
192 217 255
192 217 255
192 217 255
192 217 255
192 217 255
192 217 255
192 217 255
192 217 255
192 217 255
192 217 255
192 217 255
192 217 255
192 217 255
192 217 255
192 217 255
192 217 255
192 217 255
192 217 255
192 217 255
192 217 255
192 217 255
192 217 255
192 217 255
192 217 255
192 217 255
192 217 255
192 217 255
192 217 255
192 217 255
192 217 255
192 217 255
192 217 255
192 217 255
192 217 255
192 218 255
192 218 255
192 218 255
192 218 255
192 218 255
192 218 255
192 218 255
192 218 255
192 218 255
192 218 255
192 218 255
192 218 255
192 218 255
192 218 255
192 218 255
192 218 255
192 218 255
192 218 255
192 218 255
192 218 255
192 218 255
192 218 255
192 218 255
192 218 255
192 218 255
192 218 255
192 218 255
192 218 255
192 218 255
192 218 255
192 218 255
192 218 255
192 218 255
192 218 255
192 218 255
192 218 255
192 218 255
192 218 255
192 218 255
192 218 255
192 218 255
192 218 255
192 218 255
192 218 255
192 218 255
192 218 255
192 218 255
192 218 255
192 218 255
192 218 255
192 218 255
192 218 255
192 218 255
192 218 255
192 218 255
192 218 255
192 218 255
192 218 255
192 218 255
192 218 255
192 218 255
192 218 255
192 218 255
192 218 255
192 218 255
192 218 255
192 218 255
192 218 255
192 218 255
192 218 255
192 218 255
192 218 255
192 218 255
192 218 255
192 218 255
192 218 255
192 218 255
192 218 255
192 218 255
192 218 255
192 218 255
193 218 255
192 218 255
193 218 255
193 218 255
192 218 255
192 218 255
192 218 255
193 218 255
193 218 255
193 218 255
193 218 255
193 218 255
193 218 255
193 218 255
193 218 255
193 218 255
193 218 255
193 218 255
193 218 255
193 218 255
193 218 255
193 218 255
193 218 255
193 218 255
193 218 255
193 218 255
193 218 255
193 218 255
193 218 255
193 218 255
193 218 255
193 218 255
193 218 255
193 218 255
193 218 255
193 218 255
193 218 255
193 218 255
193 218 255
193 218 255
193 218 255
193 218 255
193 218 255
193 218 255
193 218 255
193 218 255
193 218 255
193 218 255
193 218 255
193 218 255
193 218 255
193 218 255
193 218 255
174 182 211
106 55 52
100 52 41
101 53 36
103 54 46
97 50 35
102 53 49
97 51 32
101 54 44
99 52 41
103 54 44
104 55 49
102 54 43
100 51 44
107 55 49
96 51 33
106 56 50
104 54 49
99 53 39
106 55 49
104 54 39
101 53 36
101 53 41
98 52 35
102 54 43
103 53 46
101 53 43
102 53 43
102 54 46
100 51 32
106 56 55
103 53 49
104 55 44
95 49 33
106 55 47
103 53 43
103 54 44
108 56 50
104 54 49
98 51 35
102 53 39
102 53 38
105 55 47
104 55 44
100 52 38
107 54 52
105 55 52
99 52 38
104 54 50
101 53 46
104 54 47
105 55 53
106 54 44
105 54 53
99 51 33
97 50 33
106 55 50
99 52 39
102 54 41
100 53 46
106 55 44
98 52 39
106 55 46
96 51 36
101 53 43
103 54 49
100 52 41
98 52 39
99 52 38
98 52 39
104 54 49
99 52 44
102 54 44
106 56 53
105 55 50
103 52 49
98 51 33
102 53 41
96 51 35
94 49 35
102 53 39
107 55 46
99 52 38
97 51 32
98 51 32
104 54 41
101 53 44
100 52 43
96 51 41
95 50 39
105 54 47
100 52 41
104 54 50
107 55 50
104 55 46
103 52 47
98 53 38
100 52 39
103 54 41
101 53 41
101 53 44
99 51 36
100 52 41
104 53 46
98 51 38
103 54 43
106 55 44
106 54 52
101 53 41
102 53 39
101 53 39
98 52 35
102 52 44
96 50 36
108 56 49
99 52 35
103 54 44
104 54 46
95 50 27
102 54 46
97 51 35
103 53 47
99 53 43
100 51 38
102 53 47
101 53 41
107 55 50
99 52 39
101 52 41
102 53 47
175 185 214
193 218 255
193 218 255
193 218 255
193 218 255
193 218 255
193 218 255
193 218 255
193 218 255
193 218 255
193 218 255
193 218 255
193 218 255
193 218 255
193 218 255
193 218 255
193 218 255
193 218 255
193 218 255
193 218 255
193 218 255
193 218 255
193 218 255
193 218 255
193 218 255
193 218 255
193 218 255
193 218 255
193 218 255
193 218 255
193 218 255
193 218 255
193 218 255
193 218 255
193 218 255
193 218 255
193 218 255
193 218 255
193 218 255
193 218 255
193 218 255
193 218 255
193 218 255
193 218 255
193 218 255
193 218 255
193 218 255
193 218 255
192 218 255
192 218 255
192 218 255
193 218 255
193 218 255
192 218 255
192 218 255
192 218 255
192 218 255
192 218 255
192 218 255
192 218 255
192 218 255
192 218 255
192 218 255
192 218 255
192 218 255
192 218 255
192 218 255
192 218 255
192 218 255
192 218 255
192 218 255
192 218 255
192 218 255
192 218 255
192 218 255
192 218 255
192 218 255
192 218 255
192 218 255
192 218 255
192 218 255
192 218 255
192 218 255
192 218 255
192 218 255
192 218 255
192 218 255
192 218 255
192 218 255
192 218 255
192 218 255
192 218 255
192 218 255
192 218 255
192 218 255
192 218 255
192 218 255
192 218 255
192 218 255
192 218 255
192 218 255
192 218 255
192 218 255
192 218 255
192 218 255
192 218 255
192 218 255
192 218 255
192 218 255
192 218 255
192 218 255
192 218 255
192 218 255
192 218 255
192 218 255
192 218 255
192 218 255
192 218 255
192 218 255
192 218 255
192 218 255
192 218 255
192 218 255
192 218 255
192 218 255
192 218 255
192 218 255
192 218 255
192 218 255
192 218 255
192 218 255
192 218 255
192 218 255
192 218 255
192 218 255
192 218 255
192 218 255
192 218 255
192 218 255
193 218 255
192 218 255
192 218 255
193 218 255
193 218 255
193 218 255
193 218 255
193 218 255
193 218 255
193 218 255
193 218 255
193 218 255
193 218 255
193 218 255
193 218 255
193 218 255
193 218 255
193 218 255
193 218 255
193 218 255
193 218 255
193 218 255
193 218 255
193 218 255
193 218 255
193 218 255
193 218 255
193 218 255
193 218 255
193 218 255
193 218 255
193 218 255
193 218 255
193 218 255
193 218 255
193 218 255
193 218 255
193 218 255
193 218 255
193 218 255
193 218 255
193 218 255
193 218 255
193 218 255
193 218 255
193 218 255
193 218 255
193 218 255
193 218 255
193 218 255
193 218 255
193 218 255
193 218 255
193 218 255
193 218 255
193 218 255
193 218 255
193 218 255
193 218 255
193 218 255
193 218 255
193 218 255
193 218 255
193 218 255
193 218 255
193 218 255
193 218 255
193 218 255
193 218 255
193 218 255
193 218 255
193 218 255
193 218 255
193 218 255
193 218 255
193 218 255
193 218 255
193 218 255
193 218 255
193 218 255
193 218 255
193 218 255
193 218 255
193 218 255
193 218 255
193 218 255
193 218 255
193 218 255
193 218 255
193 218 255
193 218 255
193 218 255
193 218 255
193 218 255
193 218 255
193 218 255
193 218 255
193 218 255
193 218 255
193 218 255
193 218 255
193 218 255
193 218 255
193 218 255
193 218 255
193 218 255
193 218 255
193 218 255
193 218 255
193 218 255
193 218 255
193 218 255
193 218 255
193 218 255
193 218 255
193 218 255
193 218 255
193 218 255
193 218 255
193 218 255
193 218 255
193 218 255
193 218 255
193 218 255
193 218 255
193 218 255
193 218 255
193 218 255
193 218 255
193 218 255
193 218 255
165 169 189
102 53 43
101 54 41
105 55 49
97 51 38
101 52 41
103 53 38
97 51 38
105 54 52
98 52 33
103 54 41
103 54 44
103 53 44
101 53 41
96 50 41
99 51 41
106 55 49
105 55 50
101 53 41
105 54 46
101 53 43
99 53 41
104 54 50
99 52 43
103 54 41
100 53 39
98 52 36
104 54 44
99 51 35
102 53 43
100 52 41
100 52 46
103 53 47
103 54 46
101 53 39
99 52 33
93 50 30
100 52 41
108 55 47
97 50 29
99 52 41
100 53 39
105 55 50
96 51 26
102 53 43
101 53 44
99 52 43
99 50 39
98 51 39
103 54 41
94 50 32
103 54 52
103 54 41
98 52 30
98 52 36
108 56 56
101 53 44
97 51 35
103 55 49
105 56 53
104 54 47
99 51 35
99 52 39
99 52 43
97 50 36
106 55 44
98 51 38
98 52 39
107 56 47
103 53 39
96 51 39
97 51 35
106 55 46
103 53 41
98 50 38
96 49 33
102 54 41
108 56 47
98 50 39
101 53 46
106 55 49
103 54 43
103 54 44
97 51 33
102 54 46
97 51 35
102 54 39
98 52 35
99 52 41
100 52 44
101 53 43
95 50 39
104 54 44
98 52 43
96 50 29
101 53 41
100 53 35
101 53 39
98 51 32
100 53 35
100 52 46
103 54 46
100 53 39
102 53 43
97 50 36
103 53 39
101 53 41
97 52 36
99 51 33
105 55 52
96 50 36
95 50 32
97 51 36
99 50 36
102 53 41
104 54 50
105 55 47
99 52 38
105 53 46
98 52 41
106 54 49
107 55 47
108 55 52
102 54 44
98 52 38
102 53 44
100 52 39
99 52 41
101 53 36
108 56 52
181 195 226
193 218 255
193 218 255
193 218 255
193 218 255
193 218 255
193 218 255
193 218 255
193 218 255
193 218 255
193 218 255
193 218 255
193 218 255
193 218 255
193 218 255
193 218 255
193 218 255
193 218 255
193 218 255
193 218 255
193 218 255
193 218 255
193 218 255
193 218 255
193 218 255
193 218 255
193 218 255
193 218 255
193 218 255
193 218 255
193 218 255
193 218 255
193 218 255
193 218 255
193 218 255
193 218 255
193 218 255
193 218 255
193 218 255
193 218 255
193 218 255
193 218 255
193 218 255
193 218 255
193 218 255
193 218 255
193 218 255
193 218 255
193 218 255
193 218 255
193 218 255
193 218 255
193 218 255
193 218 255
193 218 255
193 218 255
193 218 255
193 218 255
193 218 255
193 218 255
193 218 255
193 218 255
193 218 255
193 218 255
193 218 255
193 218 255
193 218 255
193 218 255
193 218 255
193 218 255
193 218 255
193 218 255
193 218 255
193 218 255
193 218 255
193 218 255
193 218 255
193 218 255
193 218 255
193 218 255
193 218 255
193 218 255
193 218 255
193 218 255
193 218 255
193 218 255
193 218 255
193 218 255
193 218 255
193 218 255
193 218 255
193 218 255
193 218 255
193 218 255
193 218 255
193 218 255
193 218 255
193 218 255
193 218 255
193 218 255
193 218 255
193 218 255
193 218 255
193 218 255
193 218 255
193 218 255
193 218 255
193 218 255
193 218 255
193 218 255
193 218 255
193 218 255
193 218 255
193 218 255
193 218 255
193 218 255
193 218 255
193 218 255
193 218 255
193 218 255
193 218 255
193 218 255
193 218 255
193 218 255
193 218 255
193 218 255
193 218 255
193 218 255
192 218 255
192 218 255
192 218 255
193 218 255
192 218 255
192 218 255
192 218 255
192 218 255
193 218 255
193 218 255
193 218 255
193 218 255
193 218 255
193 218 255
193 218 255
193 218 255
193 218 255
193 218 255
193 218 255
193 218 255
193 218 255
193 218 255
193 218 255
193 218 255
193 218 255
193 218 255
193 218 255
193 218 255
193 218 255
193 218 255
193 218 255
193 218 255
193 218 255
193 218 255
193 218 255
193 218 255
193 218 255
193 218 255
193 218 255
193 218 255
193 218 255
193 218 255
193 218 255
193 218 255
193 218 255
193 218 255
193 218 255
193 218 255
193 218 255
193 218 255
193 218 255
193 218 255
193 218 255
193 218 255
193 218 255
193 218 255
193 218 255
193 218 255
193 218 255
193 218 255
193 218 255
193 218 255
193 218 255
193 218 255
193 218 255
193 218 255
193 218 255
193 218 255
193 218 255
193 218 255
193 218 255
193 218 255
193 218 255
193 218 255
193 218 255
193 218 255
193 218 255
193 218 255
193 218 255
193 218 255
193 218 255
193 218 255
193 218 255
193 218 255
193 218 255
193 218 255
193 218 255
193 218 255
193 218 255
193 218 255
193 218 255
193 218 255
193 218 255
193 218 255
193 218 255
193 218 255
193 218 255
193 218 255
193 218 255
193 218 255
193 218 255
193 218 255
193 218 255
193 218 255
193 218 255
193 218 255
193 218 255
193 218 255
193 218 255
193 218 255
193 218 255
193 218 255
193 218 255
193 218 255
193 218 255
194 218 255
194 218 255
194 218 255
194 218 255
193 218 255
194 218 255
194 218 255
194 218 255
194 218 255
194 218 255
194 218 255
194 218 255
194 218 255
194 218 255
194 218 255
194 218 255
194 218 255
194 218 255
194 218 255
194 218 255
194 218 255
194 218 255
194 218 255
194 218 255
194 218 255
194 218 255
194 218 255
180 192 221
103 54 46
102 54 43
104 55 49
103 54 41
101 52 41
99 53 39
99 52 36
100 53 43
103 54 46
103 54 43
102 54 47
104 55 44
101 52 41
100 53 41
100 53 43
97 51 35
99 52 38
101 53 38
100 52 38
100 53 41
100 53 36
97 49 32
100 51 39
105 54 47
98 51 30
106 55 47
99 52 38
104 54 47
100 51 39
99 52 38
106 55 46
99 52 36
102 53 35
102 54 46
102 53 41
100 53 46
100 53 43
100 51 36
109 56 53
95 49 32
94 49 35
106 55 47
104 53 44
99 52 38
103 53 39
102 53 39
102 54 43
95 50 33
100 52 43
99 52 41
100 52 38
103 54 44
102 53 38
104 55 44
104 55 49
99 51 36
101 53 43
100 52 35
103 52 39
102 54 47
101 53 41
98 51 36
102 53 46
95 49 32
96 50 30
105 55 52
101 53 41
100 52 35
100 52 41
101 53 44
97 51 33
99 51 38
106 55 50
102 53 43
101 54 43
102 53 41
101 52 47
105 54 44
102 54 43
96 51 33
98 53 38
102 54 47
99 52 36
104 55 49
103 53 44
99 51 35
102 53 39
96 50 33
100 51 43
100 52 39
97 51 32
102 54 39
101 53 44
103 54 39
100 53 41
102 53 49
104 53 46
99 52 43
98 52 35
98 52 39
102 54 47
101 53 44
106 54 49
102 53 46
101 53 39
104 54 43
104 55 44
98 51 38
97 52 38
97 51 38
104 53 43
95 49 33
103 52 41
108 56 46
96 51 32
101 53 39
103 53 43
99 51 35
101 53 43
101 51 41
98 51 39
97 51 35
98 51 35
105 55 44
99 52 39
98 50 41
102 54 49
103 53 39
101 53 39
181 198 226
194 218 255
194 218 255
194 218 255
194 218 255
194 218 255
194 218 255
194 218 255
194 218 255
194 218 255
194 218 255
194 218 255
194 218 255
194 218 255
194 218 255
194 218 255
194 218 255
194 218 255
194 218 255
194 218 255
194 218 255
194 218 255
194 218 255
194 218 255
194 218 255
194 218 255
193 218 255
193 218 255
193 218 255
193 218 255
193 218 255
193 218 255
193 218 255
193 218 255
193 218 255
193 218 255
193 218 255
193 218 255
193 218 255
193 218 255
193 218 255
193 218 255
193 218 255
193 218 255
193 218 255
193 218 255
193 218 255
193 218 255
193 218 255
193 218 255
193 218 255
193 218 255
193 218 255
193 218 255
193 218 255
193 218 255
193 218 255
193 218 255
193 218 255
193 218 255
193 218 255
193 218 255
193 218 255
193 218 255
193 218 255
193 218 255
193 218 255
193 218 255
193 218 255
193 218 255
193 218 255
193 218 255
193 218 255
193 218 255
193 218 255
193 218 255
193 218 255
193 218 255
193 218 255
193 218 255
193 218 255
193 218 255
193 218 255
193 218 255
193 218 255
193 218 255
193 218 255
193 218 255
193 218 255
193 218 255
193 218 255
193 218 255
193 218 255
193 218 255
193 218 255
193 218 255
193 218 255
193 218 255
193 218 255
193 218 255
193 218 255
193 218 255
193 218 255
193 218 255
193 218 255
193 218 255
193 218 255
193 218 255
193 218 255
193 218 255
193 218 255
193 218 255
193 218 255
193 218 255
193 218 255
193 218 255
193 218 255
193 218 255
193 218 255
193 218 255
193 218 255
193 218 255
193 218 255
193 218 255
193 218 255
193 218 255
193 218 255
193 218 255
193 218 255
193 218 255
193 218 255
193 218 255
193 218 255
193 218 255
193 218 255
193 218 255
193 218 255
193 218 255
193 218 255
193 218 255
193 218 255
193 218 255
193 218 255
193 218 255
193 218 255
193 218 255
193 218 255
193 218 255
193 218 255
193 218 255
193 218 255
193 218 255
193 218 255
193 218 255
193 218 255
193 218 255
193 218 255
193 218 255
193 218 255
193 218 255
193 218 255
193 218 255
193 218 255
193 218 255
193 218 255
193 218 255
193 218 255
193 218 255
193 218 255
193 218 255
193 218 255
193 218 255
193 218 255
193 218 255
193 218 255
193 218 255
193 218 255
193 218 255
193 218 255
193 218 255
193 218 255
193 218 255
193 218 255
193 218 255
193 218 255
193 218 255
193 218 255
193 218 255
193 218 255
193 218 255
193 218 255
193 218 255
193 218 255
193 218 255
193 218 255
193 218 255
193 218 255
193 218 255
193 218 255
194 218 255
194 218 255
194 218 255
194 218 255
194 218 255
194 218 255
194 218 255
194 218 255
194 218 255
194 218 255
194 218 255
194 218 255
194 218 255
194 218 255
194 218 255
194 218 255
194 218 255
194 218 255
194 218 255
194 218 255
194 218 255
194 218 255
194 218 255
194 218 255
194 218 255
194 218 255
194 218 255
194 218 255
194 218 255
194 218 255
194 218 255
194 218 255
194 218 255
194 218 255
194 219 255
194 218 255
194 219 255
194 219 255
194 219 255
194 219 255
194 219 255
194 219 255
194 219 255
194 219 255
194 219 255
194 219 255
194 219 255
194 219 255
194 219 255
194 219 255
194 219 255
194 219 255
194 219 255
194 219 255
194 219 255
194 219 255
194 219 255
194 219 255
194 219 255
194 219 255
194 219 255
194 219 255
194 219 255
194 219 255
194 219 255
194 219 255
194 219 255
194 219 255
194 219 255
194 219 255
194 219 255
190 209 245
105 54 46
99 52 36
104 54 44
97 52 36
105 55 49
103 54 39
93 49 33
101 54 44
100 51 41
103 55 47
103 54 46
107 56 47
103 53 41
103 54 46
101 52 39
92 48 29
100 53 43
102 54 41
97 50 33
104 54 49
108 55 50
108 56 47
103 53 46
106 55 47
98 52 36
100 52 36
99 52 39
98 52 39
98 51 38
101 52 41
104 54 43
102 53 43
100 51 38
97 52 33
99 52 36
98 51 39
99 52 36
99 51 36
98 51 33
101 52 39
102 53 36
102 54 47
102 54 44
103 54 44
95 50 33
105 55 47
100 53 36
101 53 41
95 51 29
102 53 41
101 54 44
100 52 43
105 54 46
102 53 44
102 52 43
101 53 44
103 54 46
101 54 43
96 50 33
100 52 46
104 54 50
100 52 35
96 51 32
98 51 33
100 52 38
104 54 46
97 52 30
103 52 43
100 52 36
99 53 38
101 53 38
102 53 43
101 53 36
101 54 43
101 53 43
105 54 49
104 55 44
97 50 29
98 51 38
104 54 39
100 52 41
101 53 41
97 51 33
102 53 43
100 52 32
95 49 30
100 52 43
103 54 49
96 50 32
95 50 30
102 54 41
96 49 36
98 51 35
98 51 32
104 55 46
104 54 44
101 52 38
104 53 43
98 52 43
99 52 35
102 53 41
100 52 39
104 55 47
99 53 43
105 54 47
99 52 41
100 52 41
94 48 32
104 55 44
102 52 41
100 52 44
99 52 43
102 53 44
98 50 36
96 50 33
100 51 39
107 55 47
92 48 23
106 54 46
99 52 35
100 52 36
105 55 49
99 51 36
99 52 38
96 51 33
103 53 52
94 48 27
109 56 53
100 51 44
188 209 242
194 219 255
194 219 255
194 219 255
194 219 255
194 219 255
194 219 255
194 219 255
194 219 255
194 219 255
194 219 255
194 219 255
194 219 255
194 219 255
194 219 255
194 219 255
194 219 255
194 219 255
194 219 255
194 219 255
194 219 255
194 219 255
194 219 255
194 219 255
194 219 255
194 219 255
194 219 255
194 219 255
194 219 255
194 219 255
194 219 255
194 219 255
194 219 255
194 219 255
194 218 255
194 219 255
194 218 255
194 218 255
194 218 255
194 218 255
194 218 255
194 218 255
194 218 255
194 218 255
194 218 255
194 218 255
194 218 255
194 218 255
194 218 255
194 218 255
194 218 255
194 218 255
194 218 255
194 218 255
194 218 255
194 218 255
194 218 255
194 218 255
194 218 255
194 218 255
194 218 255
194 218 255
194 218 255
194 218 255
194 218 255
194 218 255
194 218 255
194 218 255
194 218 255
193 218 255
193 218 255
193 218 255
193 218 255
193 218 255
193 218 255
193 218 255
193 218 255
193 218 255
193 218 255
193 218 255
193 218 255
193 218 255
193 218 255
193 218 255
193 218 255
193 218 255
193 218 255
193 218 255
193 218 255
193 218 255
193 218 255
193 218 255
193 218 255
193 218 255
193 218 255
193 218 255
193 218 255
193 218 255
193 218 255
193 218 255
193 218 255
193 218 255
193 218 255
193 218 255
193 218 255
193 218 255
193 218 255
193 218 255
193 218 255
193 218 255
193 218 255
193 218 255
193 218 255
193 218 255
193 218 255
193 218 255
193 218 255
193 218 255
193 218 255
193 218 255
193 218 255
193 218 255
193 218 255
193 218 255
193 218 255
193 218 255
193 218 255
193 218 255
193 218 255
193 218 255
193 218 255
193 218 255
193 218 255
193 218 255
193 218 255
193 218 255
193 218 255
193 218 255
193 218 255
193 218 255
193 218 255
193 218 255
193 218 255
193 218 255
193 218 255
193 218 255
193 218 255
193 218 255
193 218 255
193 218 255
193 218 255
193 218 255
193 218 255
193 218 255
193 218 255
193 218 255
193 218 255
193 218 255
193 218 255
194 218 255
194 218 255
194 218 255
194 218 255
194 218 255
194 218 255
194 218 255
194 218 255
194 218 255
194 218 255
194 218 255
194 218 255
194 218 255
194 218 255
194 218 255
194 218 255
194 218 255
194 218 255
194 218 255
194 218 255
194 218 255
194 218 255
194 218 255
194 218 255
194 218 255
194 218 255
194 218 255
194 218 255
194 218 255
194 218 255
194 218 255
194 218 255
194 218 255
194 218 255
194 218 255
194 218 255
194 219 255
194 219 255
194 219 255
194 219 255
194 219 255
194 219 255
194 219 255
194 219 255
194 219 255
194 219 255
194 219 255
194 219 255
194 219 255
194 219 255
194 219 255
194 219 255
194 219 255
194 219 255
194 219 255
194 219 255
194 219 255
194 219 255
194 219 255
194 219 255
194 219 255
194 219 255
194 219 255
194 219 255
194 219 255
194 219 255
194 219 255
194 219 255
194 219 255
194 219 255
194 219 255
194 219 255
194 219 255
194 219 255
194 219 255
194 219 255
194 219 255
194 219 255
194 219 255
194 219 255
194 219 255
194 219 255
194 219 255
194 219 255
194 219 255
194 219 255
194 219 255
194 219 255
194 219 255
194 219 255
194 219 255
194 219 255
194 219 255
194 219 255
194 219 255
195 219 255
195 219 255
194 219 255
195 219 255
195 219 255
195 219 255
195 219 255
195 219 255
195 219 255
195 219 255
195 219 255
195 219 255
195 219 255
195 219 255
195 219 255
195 219 255
195 219 255
114 68 66
97 51 38
101 53 44
101 53 43
101 52 33
101 52 41
93 50 26
100 53 41
99 52 33
99 52 33
100 53 41
95 50 30
100 52 33
97 51 35
100 53 36
102 54 39
102 53 47
102 53 41
101 53 39
106 55 44
105 52 44
102 54 39
103 53 46
102 54 39
101 52 39
104 54 43
103 54 44
99 52 35
103 53 44
103 53 44
100 51 36
97 52 39
104 54 43
98 52 36
98 51 38
100 53 41
103 54 44
97 51 32
97 51 44
101 52 38
99 52 33
99 51 41
100 52 36
106 54 44
96 50 35
94 50 30
100 52 41
105 54 43
99 52 39
96 50 32
99 51 41
104 54 46
99 52 44
100 53 38
104 54 43
106 56 52
97 51 39
101 53 47
103 53 44
100 52 39
99 52 39
107 56 49
98 51 35
103 54 46
99 52 35
99 53 38
96 51 32
103 54 46
98 52 39
103 53 33
103 54 44
100 53 43
97 50 47
103 53 41
97 51 32
103 53 38
102 53 43
98 51 36
100 51 43
98 50 32
103 54 44
105 55 46
99 52 39
98 52 35
99 50 36
101 53 44
101 54 41
105 55 52
101 53 41
105 55 47
103 53 43
101 51 38
104 55 50
98 51 43
100 53 43
107 56 49
99 50 29
101 51 39
98 51 36
101 53 39
96 51 29
97 52 36
104 54 44
104 55 47
100 52 36
100 53 36
104 54 44
104 54 46
98 51 36
98 50 36
101 53 39
100 51 38
105 54 47
100 53 43
104 54 43
104 53 43
104 54 47
100 52 39
97 50 32
102 53 41
100 52 38
101 53 41
97 51 33
107 55 46
100 53 43
105 54 44
99 53 36
97 51 32
108 65 57
195 219 255
195 219 255
195 219 255
195 219 255
195 219 255
195 219 255
195 219 255
195 219 255
195 219 255
195 219 255
195 219 255
195 219 255
195 219 255
195 219 255
195 219 255
195 219 255
194 219 255
195 219 255
194 219 255
194 219 255
194 219 255
194 219 255
194 219 255
194 219 255
194 219 255
194 219 255
194 219 255
194 219 255
194 219 255
194 219 255
194 219 255
194 219 255
194 219 255
194 219 255
194 219 255
194 219 255
194 219 255
194 219 255
194 219 255
194 219 255
194 219 255
194 219 255
194 219 255
194 219 255
194 219 255
194 219 255
194 219 255
194 219 255
194 219 255
194 219 255
194 219 255
194 219 255
194 219 255
194 219 255
194 219 255
194 219 255
194 219 255
194 219 255
194 219 255
194 219 255
194 219 255
194 219 255
194 219 255
194 219 255
194 219 255
194 219 255
194 219 255
194 219 255
194 219 255
194 219 255
194 219 255
194 219 255
194 219 255
194 219 255
194 219 255
194 218 255
194 218 255
194 218 255
194 218 255
194 218 255
194 218 255
194 218 255
194 218 255
194 218 255
194 218 255
194 218 255
194 218 255
194 218 255
194 218 255
194 218 255
194 218 255
194 218 255
194 218 255
194 218 255
194 218 255
194 218 255
194 218 255
194 218 255
194 218 255
194 218 255
194 218 255
194 218 255
194 218 255
194 218 255
194 218 255
194 218 255
194 218 255
194 218 255
194 218 255
194 218 255
193 218 255
194 218 255
193 218 255
193 218 255
193 218 255
193 218 255
193 218 255
193 218 255
193 218 255
193 218 255
193 218 255
193 218 255
193 218 255
193 218 255
193 218 255
193 218 255
193 218 255
193 218 255
193 218 255
193 218 255
193 218 255
193 218 255
193 218 255
193 218 255
193 218 255
193 218 255
194 218 255
194 218 255
194 218 255
194 218 255
194 218 255
194 218 255
194 218 255
194 218 255
194 218 255
194 218 255
194 218 255
194 218 255
194 218 255
194 218 255
194 218 255
194 218 255
194 218 255
194 218 255
194 218 255
194 218 255
194 218 255
194 218 255
194 218 255
194 218 255
194 218 255
194 218 255
194 218 255
194 219 255
194 218 255
194 219 255
194 219 255
194 219 255
194 219 255
194 219 255
194 219 255
194 219 255
194 219 255
194 219 255
194 219 255
194 219 255
194 219 255
194 219 255
194 219 255
194 219 255
194 219 255
194 219 255
194 219 255
194 219 255
194 219 255
194 219 255
194 219 255
194 219 255
194 219 255
194 219 255
194 219 255
194 219 255
194 219 255
194 219 255
194 219 255
194 219 255
194 219 255
194 219 255
194 219 255
194 219 255
194 219 255
194 219 255
194 219 255
194 219 255
194 219 255
194 219 255
194 219 255
194 219 255
194 219 255
194 219 255
194 219 255
194 219 255
194 219 255
194 219 255
194 219 255
194 219 255
194 219 255
194 219 255
194 219 255
194 219 255
194 219 255
195 219 255
195 219 255
195 219 255
195 219 255
195 219 255
195 219 255
195 219 255
195 219 255
195 219 255
195 219 255
195 219 255
195 219 255
195 219 255
195 219 255
195 219 255
195 219 255
195 219 255
195 219 255
195 219 255
195 219 255
195 219 255
195 219 255
195 219 255
195 219 255
195 219 255
195 219 255
195 219 255
195 219 255
195 219 255
195 219 255
195 219 255
195 219 255
195 219 255
195 219 255
195 219 255
195 219 255
195 219 255
195 219 255
195 219 255
195 219 255
195 219 255
195 219 255
195 219 255
195 219 255
195 219 255
195 219 255
195 219 255
195 219 255
195 219 255
195 219 255
109 68 56
100 52 41
102 54 44
101 53 36
100 52 39
103 53 43
100 52 39
104 54 47
109 56 55
94 50 29
102 54 43
101 52 43
95 50 32
99 51 38
101 51 41
108 55 53
97 50 41
100 51 38
102 53 41
104 55 49
109 55 46
94 49 27
98 52 32
102 54 41
105 53 47
92 49 30
100 53 41
99 52 30
98 52 38
101 53 44
101 53 46
97 50 35
99 52 44
97 51 33
99 51 43
99 52 44
104 54 41
96 51 33
109 57 59
92 49 32
100 51 36
100 52 43
100 51 39
101 53 44
103 53 46
100 52 35
98 52 38
94 49 33
99 51 39
100 52 39
101 53 44
101 52 38
96 51 32
100 52 39
99 52 38
104 54 41
95 50 32
98 52 38
99 52 38
100 53 44
101 53 41
101 52 41
96 50 30
106 54 47
102 53 43
98 51 36
99 52 38
102 53 46
103 53 41
98 52 39
104 54 43
103 54 46
99 52 44
104 53 41
100 52 41
101 53 41
99 51 35
98 49 35
99 52 39
100 52 43
99 52 39
100 52 39
102 51 43
97 51 35
90 47 27
102 53 41
97 50 30
106 56 53
99 52 39
100 53 43
97 51 36
105 55 50
105 55 50
102 53 47
97 51 38
105 55 50
98 52 35
97 51 32
98 51 41
102 53 43
103 53 39
104 53 43
101 53 36
100 52 43
96 50 30
98 52 41
102 53 43
107 55 46
100 52 35
101 53 43
106 55 46
96 52 33
104 54 43
101 53 41
105 55 46
103 54 44
103 54 38
107 56 47
96 51 33
91 48 26
96 51 38
103 54 36
102 54 47
99 53 38
100 51 36
105 54 53
100 52 41
99 53 38
119 88 87
195 219 255
195 219 255
195 219 255
195 219 255
195 219 255
195 219 255
195 219 255
195 219 255
195 219 255
195 219 255
195 219 255
195 219 255
195 219 255
195 219 255
195 219 255
195 219 255
195 219 255
195 219 255
195 219 255
195 219 255
195 219 255
195 219 255
195 219 255
195 219 255
195 219 255
195 219 255
195 219 255
195 219 255
195 219 255
195 219 255
195 219 255
195 219 255
195 219 255
195 219 255
195 219 255
195 219 255
195 219 255
195 219 255
195 219 255
195 219 255
195 219 255
195 219 255
195 219 255
195 219 255
195 219 255
195 219 255
195 219 255
195 219 255
195 219 255
195 219 255
195 219 255
194 219 255
194 219 255
194 219 255
194 219 255
194 219 255
194 219 255
194 219 255
194 219 255
194 219 255
194 219 255
194 219 255
194 219 255
194 219 255
194 219 255
194 219 255
194 219 255
194 219 255
194 219 255
194 219 255
194 219 255
194 219 255
194 219 255
194 219 255
194 219 255
194 219 255
194 219 255
194 219 255
194 219 255
194 219 255
194 219 255
194 219 255
194 219 255
194 219 255
194 219 255
194 219 255
194 219 255
194 219 255
194 219 255
194 219 255
194 219 255
194 219 255
194 219 255
194 219 255
194 219 255
194 219 255
194 219 255
194 219 255
194 219 255
194 219 255
194 219 255
194 219 255
194 219 255
194 219 255
194 219 255
194 219 255
194 219 255
194 219 255
194 218 255
194 218 255
194 218 255
194 218 255
194 218 255
194 218 255
194 218 255
194 218 255
194 218 255
194 218 255
194 218 255
194 218 255
194 218 255
194 218 255
194 218 255
194 218 255
194 218 255
194 218 255
194 218 255
194 218 255
194 218 255
194 218 255
194 218 255
194 218 255
194 218 255
194 218 255
194 218 255
194 218 255
194 219 255
194 219 255
194 219 255
194 219 255
194 219 255
194 219 255
194 219 255
194 219 255
194 219 255
194 219 255
194 219 255
194 219 255
194 219 255
194 219 255
194 219 255
194 219 255
194 219 255
194 219 255
194 219 255
194 219 255
194 219 255
194 219 255
194 219 255
194 219 255
194 219 255
194 219 255
194 219 255
194 219 255
194 219 255
194 219 255
194 219 255
194 219 255
194 219 255
194 219 255
194 219 255
194 219 255
194 219 255
194 219 255
194 219 255
194 219 255
194 219 255
194 219 255
194 219 255
194 219 255
194 219 255
194 219 255
194 219 255
194 219 255
194 219 255
194 219 255
194 219 255
194 219 255
194 219 255
194 219 255
194 219 255
194 219 255
195 219 255
195 219 255
195 219 255
195 219 255
195 219 255
195 219 255
195 219 255
195 219 255
195 219 255
195 219 255
195 219 255
195 219 255
195 219 255
195 219 255
195 219 255
195 219 255
195 219 255
195 219 255
195 219 255
195 219 255
195 219 255
195 219 255
195 219 255
195 219 255
195 219 255
195 219 255
195 219 255
195 219 255
195 219 255
195 219 255
195 219 255
195 219 255
195 219 255
195 219 255
195 219 255
195 219 255
195 219 255
195 219 255
195 219 255
195 219 255
195 219 255
195 219 255
195 219 255
195 219 255
195 219 255
195 219 255
195 219 255
195 219 255
195 219 255
195 219 255
195 219 255
195 219 255
195 219 255
195 219 255
195 219 255
195 219 255
195 219 255
195 219 255
195 219 255
195 219 255
195 219 255
195 219 255
195 219 255
195 219 255
196 220 255
195 219 255
195 219 255
196 220 255
196 220 255
196 220 255
196 220 255
196 220 255
196 220 255
196 220 255
196 220 255
196 220 255
196 220 255
196 220 255
196 220 255
119 88 87
104 54 41
102 54 46
99 50 35
101 52 39
101 52 43
102 54 39
100 52 33
97 52 36
100 52 38
100 52 39
107 55 43
101 52 35
106 55 47
100 52 38
102 53 38
101 52 39
98 51 33
99 52 36
99 52 39
103 55 49
101 52 43
98 52 38
100 53 43
96 51 35
96 51 33
102 52 35
101 52 38
96 50 38
95 50 32
103 54 41
101 52 32
104 53 47
101 53 43
103 54 49
95 50 30
99 52 39
101 52 35
99 51 38
99 52 36
104 54 44
103 53 43
103 54 43
95 51 36
104 55 46
102 52 43
103 54 47
97 51 39
102 52 44
98 51 38
97 51 36
92 47 35
103 53 43
106 55 49
100 52 44
103 52 43
97 51 35
98 52 33
102 54 43
103 54 46
100 52 41
104 54 47
103 54 44
101 53 41
104 54 46
100 52 38
101 53 36
107 55 50
98 52 38
101 52 41
99 52 38
98 50 33
101 53 44
101 54 41
107 55 49
103 54 43
98 52 35
98 51 39
105 54 52
100 51 38
103 53 44
101 53 39
100 53 36
100 51 35
100 51 32
102 53 41
101 53 39
95 49 29
93 46 30
101 53 43
105 55 46
98 51 38
104 54 47
102 53 35
105 55 50
100 52 35
107 56 53
101 52 35
97 52 39
99 52 41
99 53 35
98 51 32
95 50 29
100 52 44
104 54 49
103 53 39
98 50 32
103 54 43
101 52 35
91 49 29
96 50 32
98 50 32
101 51 44
102 52 44
101 52 41
100 51 38
102 53 36
101 53 36
96 50 30
102 53 46
96 51 38
98 51 36
103 55 47
100 52 36
107 56 52
100 52 39
101 51 41
98 50 38
121 89 87
196 220 255
196 220 255
196 220 255
196 220 255
196 220 255
196 220 255
196 220 255
196 220 255
196 220 255
196 220 255
196 220 255
196 220 255
195 219 255
195 219 255
195 219 255
195 219 255
195 219 255
195 219 255
195 219 255
195 219 255
195 219 255
195 219 255
195 219 255
195 219 255
195 219 255
195 219 255
195 219 255
195 219 255
195 219 255
195 219 255
195 219 255
195 219 255
195 219 255
195 219 255
195 219 255
195 219 255
195 219 255
195 219 255
195 219 255
195 219 255
195 219 255
195 219 255
195 219 255
195 219 255
195 219 255
195 219 255
195 219 255
195 219 255
195 219 255
195 219 255
195 219 255
195 219 255
195 219 255
195 219 255
195 219 255
195 219 255
195 219 255
195 219 255
195 219 255
195 219 255
195 219 255
195 219 255
195 219 255
195 219 255
195 219 255
195 219 255
195 219 255
195 219 255
195 219 255
195 219 255
195 219 255
195 219 255
195 219 255
195 219 255
195 219 255
195 219 255
195 219 255
194 219 255
195 219 255
194 219 255
194 219 255
194 219 255
194 219 255
194 219 255
194 219 255
194 219 255
194 219 255
194 219 255
194 219 255
194 219 255
194 219 255
194 219 255
194 219 255
194 219 255
194 219 255
194 219 255
194 219 255
194 219 255
194 219 255
194 219 255
194 219 255
194 219 255
194 219 255
194 219 255
194 219 255
194 219 255
194 219 255
194 219 255
194 219 255
194 219 255
194 219 255
194 219 255
194 219 255
194 219 255
194 219 255
194 219 255
194 219 255
194 219 255
194 219 255
194 219 255
194 219 255
194 219 255
194 219 255
194 219 255
194 219 255
194 219 255
194 219 255
194 219 255
194 219 255
194 219 255
194 219 255
194 219 255
194 219 255
194 219 255
194 219 255
194 219 255
194 219 255
194 219 255
194 219 255
194 219 255
194 219 255
194 219 255
194 219 255
194 219 255
194 219 255
194 219 255
194 219 255
194 219 255
194 219 255
194 219 255
194 219 255
194 219 255
194 219 255
194 219 255
194 219 255
194 219 255
194 219 255
194 219 255
194 219 255
194 219 255
194 219 255
194 219 255
194 219 255
194 219 255
194 219 255
195 219 255
194 219 255
195 219 255
195 219 255
195 219 255
195 219 255
195 219 255
195 219 255
195 219 255
195 219 255
195 219 255
195 219 255
195 219 255
195 219 255
195 219 255
195 219 255
195 219 255
195 219 255
195 219 255
195 219 255
195 219 255
195 219 255
195 219 255
195 219 255
195 219 255
195 219 255
195 219 255
195 219 255
195 219 255
195 219 255
195 219 255
195 219 255
195 219 255
195 219 255
195 219 255
195 219 255
195 219 255
195 219 255
195 219 255
195 219 255
195 219 255
195 219 255
195 219 255
195 219 255
195 219 255
195 219 255
195 219 255
195 219 255
195 219 255
195 219 255
195 219 255
195 219 255
195 219 255
195 219 255
195 219 255
195 219 255
195 219 255
195 219 255
195 219 255
195 219 255
195 219 255
195 219 255
195 219 255
195 219 255
195 219 255
195 219 255
195 219 255
196 220 255
195 219 255
196 220 255
196 220 255
196 220 255
196 220 255
196 220 255
196 220 255
196 220 255
196 220 255
196 220 255
196 220 255
196 220 255
196 220 255
196 220 255
196 220 255
196 220 255
196 220 255
196 220 255
196 220 255
196 220 255
196 220 255
196 220 255
196 220 255
196 220 255
196 220 255
196 220 255
196 220 255
196 220 255
196 220 255
196 220 255
196 220 255
196 220 255
196 220 255
196 220 255
196 220 255
196 220 255
196 220 255
196 220 255
149 137 151
102 54 44
101 53 41
101 53 38
100 53 39
107 55 46
109 56 50
106 54 44
104 55 47
97 51 33
100 53 39
101 53 41
105 55 49
98 50 35
102 53 41
102 53 41
102 54 44
94 49 35
101 53 38
95 50 30
98 51 35
95 51 39
95 50 33
100 52 43
100 53 39
105 54 39
102 52 39
98 52 38
96 50 32
101 52 38
95 49 30
94 50 30
97 51 38
100 50 39
102 53 43
100 51 39
103 54 41
102 52 50
97 49 32
94 50 27
96 51 33
98 52 33
103 53 43
100 53 43
100 52 43
99 51 38
95 51 35
102 53 38
103 53 43
100 53 39
100 52 38
101 53 41
96 51 32
106 55 49
98 51 38
101 52 43
104 55 46
94 49 33
98 50 35
103 53 41
99 51 38
99 52 36
103 53 47
97 51 35
103 54 49
101 53 38
101 53 46
101 52 39
98 52 36
105 54 39
97 51 33
99 52 36
103 53 47
97 51 36
97 51 39
102 54 41
102 53 41
102 53 44
98 51 32
103 53 44
95 51 32
100 51 46
99 51 32
100 52 43
98 52 33
102 53 43
101 52 39
95 49 39
102 51 39
99 51 36
97 51 35
98 51 32
105 54 44
101 52 41
99 52 39
102 52 39
102 53 41
98 51 41
102 53 39
103 54 35
101 53 39
98 51 36
105 54 43
100 52 50
101 53 41
104 54 41
102 53 41
98 51 36
101 52 39
100 52 38
101 52 41
104 54 41
97 49 33
93 49 26
103 54 44
95 50 36
101 52 41
98 49 39
103 53 39
99 51 38
101 52 39
105 55 46
103 53 41
98 52 32
100 52 35
100 53 41
104 54 49
98 50 36
151 140 154
196 220 255
196 220 255
196 220 255
196 220 255
196 220 255
196 220 255
196 220 255
196 220 255
196 220 255
196 220 255
196 220 255
196 220 255
196 220 255
196 220 255
196 220 255
196 220 255
196 220 255
196 220 255
196 220 255
196 220 255
196 220 255
196 220 255
196 220 255
196 220 255
196 220 255
196 220 255
196 220 255
196 220 255
196 220 255
196 220 255
196 220 255
196 220 255
196 220 255
196 220 255
196 220 255
196 220 255
196 220 255
195 219 255
195 219 255
195 219 255
195 219 255
195 219 255
195 219 255
195 219 255
195 219 255
195 219 255
195 219 255
195 219 255
195 219 255
195 219 255
195 219 255
195 219 255
195 219 255
195 219 255
195 219 255
195 219 255
195 219 255
195 219 255
195 219 255
195 219 255
195 219 255
195 219 255
195 219 255
195 219 255
195 219 255
195 219 255
195 219 255
195 219 255
195 219 255
195 219 255
195 219 255
195 219 255
195 219 255
195 219 255
195 219 255
195 219 255
195 219 255
195 219 255
195 219 255
195 219 255
195 219 255
195 219 255
195 219 255
195 219 255
195 219 255
195 219 255
195 219 255
195 219 255
195 219 255
195 219 255
195 219 255
195 219 255
195 219 255
195 219 255
195 219 255
195 219 255
195 219 255
195 219 255
195 219 255
195 219 255
195 219 255
195 219 255
195 219 255
195 219 255
195 219 255
194 219 255
194 219 255
194 219 255
194 219 255
194 219 255
194 219 255
194 219 255
194 219 255
194 219 255
194 219 255
194 219 255
194 219 255
194 219 255
194 219 255
194 219 255
194 219 255
194 219 255
194 219 255
194 219 255
194 219 255
194 219 255
194 219 255
194 219 255
194 219 255
194 219 255
194 219 255
194 219 255
194 219 255
194 219 255
194 219 255
194 219 255
194 219 255
194 219 255
194 219 255
194 219 255
194 219 255
195 219 255
195 219 255
195 219 255
195 219 255
195 219 255
195 219 255
195 219 255
195 219 255
195 219 255
195 219 255
195 219 255
195 219 255
195 219 255
195 219 255
195 219 255
195 219 255
195 219 255
195 219 255
195 219 255
195 219 255
195 219 255
195 219 255
195 219 255
195 219 255
195 219 255
195 219 255
195 219 255
195 219 255
195 219 255
195 219 255
195 219 255
195 219 255
195 219 255
195 219 255
195 219 255
195 219 255
195 219 255
195 219 255
195 219 255
195 219 255
195 219 255
195 219 255
195 219 255
195 219 255
195 219 255
195 219 255
195 219 255
195 219 255
195 219 255
195 219 255
195 219 255
195 219 255
195 219 255
195 219 255
195 219 255
195 219 255
195 219 255
195 219 255
195 219 255
195 219 255
195 219 255
195 219 255
195 219 255
195 219 255
195 219 255
195 219 255
195 219 255
195 219 255
196 220 255
195 219 255
195 219 255
196 220 255
196 220 255
196 220 255
196 220 255
196 220 255
196 220 255
196 220 255
196 220 255
196 220 255
196 220 255
196 220 255
196 220 255
196 220 255
196 220 255
196 220 255
196 220 255
196 220 255
196 220 255
196 220 255
196 220 255
196 220 255
196 220 255
196 220 255
196 220 255
196 220 255
196 220 255
196 220 255
196 220 255
196 220 255
196 220 255
196 220 255
196 220 255
196 220 255
196 220 255
196 220 255
196 220 255
196 220 255
196 220 255
196 220 255
196 220 255
196 220 255
196 220 255
196 220 255
196 220 255
196 220 255
196 220 255
196 220 255
197 220 255
197 220 255
196 220 255
197 220 255
197 220 255
197 220 255
197 220 255
197 220 255
197 220 255
197 220 255
197 220 255
197 220 255
161 156 174
105 54 46
99 52 36
102 54 41
100 52 43
97 50 35
97 51 35
99 52 39
109 56 50
99 51 39
96 48 26
99 52 33
103 53 44
99 52 39
107 55 46
104 54 43
98 51 35
101 53 43
106 55 46
98 51 36
101 52 43
103 52 46
97 51 33
96 50 36
97 50 29
104 55 46
101 53 43
105 54 44
103 53 41
105 53 44
94 50 30
101 53 43
102 53 43
104 53 44
101 54 43
95 50 38
99 51 35
100 52 39
99 51 36
96 49 39
102 53 44
105 54 49
102 53 46
100 53 41
103 54 44
103 53 46
94 50 32
98 51 38
101 53 44
98 51 35
99 52 36
103 54 49
100 51 36
103 53 41
97 51 39
104 53 43
99 52 43
97 51 35
99 52 38
100 52 39
96 51 33
103 54 47
99 51 43
101 51 38
98 52 29
106 55 47
101 52 43
95 50 36
96 50 36
96 51 36
96 50 33
103 53 49
101 53 43
104 54 44
97 50 36
98 51 38
103 54 46
101 53 39
99 51 35
108 55 52
100 53 39
98 52 38
103 54 44
103 55 47
95 51 30
100 52 41
100 51 41
100 53 38
99 51 33
105 54 46
98 50 36
99 50 38
102 53 39
92 48 30
98 52 36
100 52 39
97 51 39
99 52 32
98 51 30
106 54 50
103 54 41
102 54 41
103 54 44
100 51 39
100 53 38
99 52 38
97 51 38
101 52 35
99 52 38
105 55 44
102 53 39
101 53 43
99 53 38
102 52 43
103 53 39
99 51 35
104 53 39
102 52 35
101 53 38
103 54 43
102 54 39
101 52 41
105 54 43
107 56 50
97 51 32
97 52 33
95 51 35
102 53 41
148 138 150
197 220 255
197 220 255
197 220 255
197 220 255
197 220 255
197 220 255
197 220 255
197 220 255
197 220 255
196 220 255
196 220 255
196 220 255
196 220 255
196 220 255
196 220 255
196 220 255
196 220 255
196 220 255
196 220 255
196 220 255
196 220 255
196 220 255
196 220 255
196 220 255
196 220 255
196 220 255
196 220 255
196 220 255
196 220 255
196 220 255
196 220 255
196 220 255
196 220 255
196 220 255
196 220 255
196 220 255
196 220 255
196 220 255
196 220 255
196 220 255
196 220 255
196 220 255
196 220 255
196 220 255
196 220 255
196 220 255
196 220 255
196 220 255
196 220 255
196 220 255
196 220 255
196 220 255
196 220 255
196 220 255
196 220 255
196 220 255
196 220 255
196 220 255
196 220 255
196 220 255
196 220 255
195 219 255
195 219 255
195 219 255
195 219 255
195 219 255
195 219 255
195 219 255
195 219 255
195 219 255
195 219 255
195 219 255
195 219 255
195 219 255
195 219 255
195 219 255
195 219 255
195 219 255
195 219 255
195 219 255
195 219 255
195 219 255
195 219 255
195 219 255
195 219 255
195 219 255
195 219 255
195 219 255
195 219 255
195 219 255
195 219 255
195 219 255
195 219 255
195 219 255
195 219 255
195 219 255
195 219 255
195 219 255
195 219 255
195 219 255
195 219 255
195 219 255
195 219 255
195 219 255
195 219 255
195 219 255
195 219 255
195 219 255
195 219 255
195 219 255
195 219 255
195 219 255
195 219 255
195 219 255
195 219 255
195 219 255
195 219 255
195 219 255
195 219 255
195 219 255
195 219 255
195 219 255
195 219 255
195 219 255
195 219 255
195 219 255
195 219 255
195 219 255
195 219 255
194 219 255
194 219 255
194 219 255
194 219 255
194 219 255
194 219 255
194 219 255
195 219 255
195 219 255
195 219 255
195 219 255
195 219 255
195 219 255
195 219 255
195 219 255
195 219 255
195 219 255
195 219 255
195 219 255
195 219 255
195 219 255
195 219 255
195 219 255
195 219 255
195 219 255
195 219 255
195 219 255
195 219 255
195 219 255
195 219 255
195 219 255
195 219 255
195 219 255
195 219 255
195 219 255
195 219 255
195 219 255
195 219 255
195 219 255
195 219 255
195 219 255
195 219 255
195 219 255
195 219 255
195 219 255
195 219 255
195 219 255
195 219 255
195 219 255
195 219 255
195 219 255
195 219 255
195 219 255
195 219 255
195 219 255
195 219 255
195 219 255
195 219 255
195 219 255
196 220 255
195 219 255
196 220 255
196 220 255
196 220 255
196 220 255
196 220 255
196 220 255
196 220 255
196 220 255
196 220 255
196 220 255
196 220 255
196 220 255
196 220 255
196 220 255
196 220 255
196 220 255
196 220 255
196 220 255
196 220 255
196 220 255
196 220 255
196 220 255
196 220 255
196 220 255
196 220 255
196 220 255
196 220 255
196 220 255
196 220 255
196 220 255
196 220 255
196 220 255
196 220 255
196 220 255
196 220 255
196 220 255
196 220 255
196 220 255
196 220 255
196 220 255
196 220 255
196 220 255
196 220 255
196 220 255
196 220 255
196 220 255
196 220 255
196 220 255
196 220 255
196 220 255
197 220 255
197 220 255
197 220 255
197 220 255
197 220 255
197 220 255
197 220 255
197 220 255
197 220 255
197 220 255
197 220 255
197 220 255
197 220 255
197 220 255
197 220 255
197 220 255
197 220 255
197 220 255
197 220 255
197 220 255
197 220 255
197 220 255
197 220 255
197 220 255
197 220 255
197 220 255
197 220 255
197 220 255
197 220 255
192 216 240
190 214 230
163 171 162
106 54 50
97 50 33
96 51 32
96 50 33
101 53 41
98 50 35
95 48 35
99 52 38
96 50 29
103 53 43
99 52 36
100 52 35
100 53 41
99 52 38
103 54 41
96 50 30
101 53 43
100 53 36
100 53 38
101 52 44
106 55 49
100 53 38
100 52 39
101 52 43
106 55 49
94 47 33
101 53 44
98 51 33
100 53 41
101 53 41
103 55 47
102 54 39
98 52 33
99 52 33
97 52 32
98 51 35
101 53 36
98 52 35
94 49 29
96 52 32
99 51 33
96 52 35
100 53 38
95 49 35
102 53 44
99 52 36
103 54 43
102 53 43
104 53 49
97 51 33
98 51 32
103 54 44
100 51 41
100 53 44
101 52 35
98 50 33
105 55 47
106 54 47
96 49 36
98 51 41
102 54 39
94 49 38
101 52 41
97 51 33
98 52 35
103 54 44
102 53 43
98 51 35
100 53 41
99 51 36
101 52 39
98 50 35
98 51 30
100 52 36
99 52 41
97 50 30
97 51 38
99 51 43
100 52 43
102 53 41
101 53 38
102 53 43
102 53 44
101 51 43
93 49 33
103 54 46
99 51 41
99 51 38
99 52 35
96 51 36
104 54 44
93 49 24
100 52 43
97 49 36
98 51 36
97 51 30
95 51 32
99 52 36
98 52 36
100 53 38
102 53 43
108 56 50
97 51 38
94 49 32
99 51 36
107 55 50
96 50 27
102 52 41
103 54 43
97 50 32
98 52 33
100 52 43
100 51 41
103 54 49
100 53 38
102 53 44
97 51 39
104 54 44
104 54 46
102 53 39
100 54 44
101 51 44
104 54 39
103 54 44
100 51 38
94 50 32
96 51 33
148 147 138
184 209 209
193 217 245
195 219 250
197 220 255
197 220 255
197 220 255
197 220 255
197 220 255
197 220 255
197 220 255
197 220 255
197 220 255
197 220 255
197 220 255
197 220 255
197 220 255
197 220 255
197 220 255
197 220 255
197 220 255
197 220 255
197 220 255
197 220 255
197 220 255
197 220 255
197 220 255
197 220 255
197 220 255
197 220 255
197 220 255
197 220 255
196 220 255
196 220 255
196 220 255
196 220 255
196 220 255
196 220 255
196 220 255
196 220 255
196 220 255
196 220 255
196 220 255
196 220 255
196 220 255
196 220 255
196 220 255
196 220 255
196 220 255
196 220 255
196 220 255
196 220 255
196 220 255
196 220 255
196 220 255
196 220 255
196 220 255
196 220 255
196 220 255
196 220 255
196 220 255
196 220 255
196 220 255
196 220 255
196 220 255
196 220 255
196 220 255
196 220 255
196 220 255
196 220 255
196 220 255
196 220 255
196 220 255
196 220 255
196 220 255
196 220 255
196 220 255
196 220 255
196 220 255
196 220 255
196 220 255
196 220 255
196 220 255
195 219 255
195 219 255
195 219 255
195 219 255
195 219 255
195 219 255
195 219 255
195 219 255
195 219 255
195 219 255
195 219 255
195 219 255
195 219 255
195 219 255
195 219 255
195 219 255
195 219 255
195 219 255
195 219 255
195 219 255
195 219 255
195 219 255
195 219 255
195 219 255
195 219 255
195 219 255
195 219 255
195 219 255
195 219 255
195 219 255
195 219 255
195 219 255
195 219 255
195 219 255
195 219 255
195 219 255
195 219 255
195 219 255
195 219 255
195 219 255
195 219 255
195 219 255
195 219 255
195 219 255
195 219 255
195 219 255
195 219 255
195 219 255
195 219 255
195 219 255
195 219 255
195 219 255
195 219 255
195 219 255
195 219 255
195 219 255
195 219 255
195 219 255
195 219 255
195 219 255
195 219 255
195 219 255
195 219 255
195 219 255
195 219 255
195 219 255
195 219 255
195 219 255
195 219 255
195 219 255
195 219 255
195 219 255
195 219 255
195 219 255
195 219 255
195 219 255
195 219 255
195 219 255
195 219 255
195 219 255
195 219 255
195 219 255
195 219 255
195 219 255
195 219 255
195 219 255
195 219 255
195 219 255
195 219 255
196 220 255
196 220 255
196 220 255
196 220 255
196 220 255
196 220 255
196 220 255
196 220 255
196 220 255
196 220 255
196 220 255
196 220 255
196 220 255
196 220 255
196 220 255
196 220 255
196 220 255
196 220 255
196 220 255
196 220 255
196 220 255
196 220 255
196 220 255
196 220 255
196 220 255
196 220 255
196 220 255
196 220 255
196 220 255
196 220 255
196 220 255
196 220 255
196 220 255
196 220 255
196 220 255
196 220 255
196 220 255
196 220 255
196 220 255
196 220 255
196 220 255
196 220 255
196 220 255
196 220 255
196 220 255
196 220 255
196 220 255
196 220 255
196 220 255
196 220 255
197 220 255
197 220 255
197 220 255
197 220 255
197 220 255
197 220 255
197 220 255
197 220 255
197 220 255
197 220 255
197 220 255
197 220 255
197 220 255
197 220 255
197 220 255
197 220 255
197 220 255
197 220 255
197 220 255
197 220 255
197 220 255
197 220 255
197 220 255
197 220 255
197 220 255
197 220 255
197 220 255
197 220 255
197 221 255
197 221 255
193 217 240
184 210 215
180 206 199
177 203 189
172 198 168
161 190 143
169 196 163
155 184 122
163 190 138
147 177 87
141 173 76
140 172 76
139 170 66
125 159 20
128 161 30
128 160 25
122 157 20
120 154 5
120 154 0
120 154 0
119 150 3
95 50 30
97 51 38
101 52 38
103 54 46
100 51 38
102 53 41
100 52 38
105 54 46
90 48 26
95 51 36
97 50 33
98 51 29
99 51 41
97 51 38
97 51 38
98 51 29
103 55 47
104 54 41
102 53 43
98 52 36
99 51 33
98 52 29
102 53 38
98 51 33
95 50 32
100 53 38
101 52 44
99 51 33
106 54 47
106 55 49
105 55 49
101 52 41
97 50 36
101 52 39
97 51 33
101 53 41
103 52 43
103 54 43
99 52 36
99 51 41
103 53 38
100 51 39
102 53 39
95 50 30
104 54 41
96 51 33
100 51 38
100 53 36
101 53 43
103 54 44
101 53 44
96 49 36
101 53 41
100 53 38
97 50 29
103 53 44
99 50 36
101 52 43
101 53 38
101 53 41
93 48 32
96 51 33
101 53 43
101 53 44
99 53 39
101 53 38
104 54 38
96 50 35
105 55 47
97 51 32
95 50 35
102 53 38
97 51 32
99 51 39
106 55 47
98 50 30
96 48 33
98 53 39
96 50 36
98 51 36
99 52 39
103 54 43
99 51 35
100 53 39
99 52 36
105 54 41
100 53 41
100 52 41
96 51 33
98 51 35
98 50 38
97 51 30
100 52 41
101 52 44
105 55 47
96 50 30
102 53 36
102 52 43
102 53 41
103 53 39
102 52 35
99 52 38
94 50 32
104 54 43
96 48 36
96 51 38
95 50 27
97 50 33
100 52 36
97 51 35
97 50 27
105 54 50
100 52 38
100 52 38
96 51 33
103 53 39
98 51 39
101 52 43
105 54 50
95 50 36
98 50 38
102 54 46
100 53 39
100 52 36
96 50 35
96 51 32
101 53 33
118 144 3
117 152 0
119 153 0
122 155 0
120 154 5
126 159 20
133 165 46
132 165 46
145 176 92
148 178 92
147 177 87
158 186 122
158 186 122
159 187 128
159 187 122
165 193 153
183 208 209
187 211 220
188 213 225
191 215 235
192 216 240
196 219 250
197 220 255
197 220 255
197 220 255
197 220 255
197 220 255
197 220 255
197 220 255
197 220 255
197 220 255
197 220 255
197 220 255
197 220 255
197 220 255
197 220 255
197 220 255
197 220 255
197 220 255
197 220 255
197 220 255
197 220 255
197 220 255
197 220 255
197 220 255
197 220 255
197 220 255
197 220 255
197 220 255
197 220 255
196 220 255
196 220 255
196 220 255
196 220 255
196 220 255
196 220 255
196 220 255
196 220 255
196 220 255
196 220 255
196 220 255
196 220 255
196 220 255
196 220 255
196 220 255
196 220 255
196 220 255
196 220 255
196 220 255
196 220 255
196 220 255
196 220 255
196 220 255
196 220 255
196 220 255
196 220 255
196 220 255
196 220 255
196 220 255
196 220 255
196 220 255
196 220 255
196 220 255
196 220 255
196 220 255
196 220 255
196 220 255
196 220 255
196 220 255
196 220 255
196 220 255
196 220 255
196 220 255
196 220 255
196 220 255
196 220 255
196 220 255
196 220 255
196 220 255
196 220 255
196 220 255
196 220 255
196 220 255
195 219 255
195 219 255
195 219 255
195 219 255
195 219 255
195 219 255
195 219 255
195 219 255
195 219 255
195 219 255
195 219 255
195 219 255
195 219 255
195 219 255
195 219 255
195 219 255
195 219 255
195 219 255
195 219 255
195 219 255
195 219 255
195 219 255
195 219 255
195 219 255
195 219 255
195 219 255
195 219 255
195 219 255
195 219 255
195 219 255
195 219 255
195 219 255
195 219 255
195 219 255
195 219 255
195 219 255
195 219 255
195 219 255
195 219 255
195 219 255
195 219 255
195 219 255
195 219 255
195 219 255
195 219 255
195 219 255
195 219 255
195 219 255
195 219 255
196 220 255
196 220 255
196 220 255
196 220 255
196 220 255
196 220 255
196 220 255
196 220 255
196 220 255
196 220 255
196 220 255
196 220 255
196 220 255
196 220 255
196 220 255
196 220 255
196 220 255
196 220 255
196 220 255
196 220 255
196 220 255
196 220 255
196 220 255
196 220 255
196 220 255
196 220 255
196 220 255
196 220 255
196 220 255
196 220 255
196 220 255
196 220 255
196 220 255
196 220 255
196 220 255
196 220 255
196 220 255
196 220 255
196 220 255
196 220 255
196 220 255
196 220 255
196 220 255
196 220 255
196 220 255
196 220 255
196 220 255
196 220 255
196 220 255
196 220 255
196 220 255
196 220 255
196 220 255
197 220 255
197 220 255
197 220 255
197 220 255
197 220 255
197 220 255
197 220 255
197 220 255
197 220 255
197 220 255
197 220 255
197 220 255
197 220 255
197 220 255
197 220 255
197 220 255
197 220 255
197 220 255
197 220 255
197 220 255
197 220 255
197 220 255
197 220 255
197 220 255
197 220 255
197 220 255
197 220 255
197 220 255
197 221 255
197 221 255
197 221 255
197 221 255
189 214 230
190 214 230
183 208 209
174 201 184
162 189 148
158 187 133
159 188 133
152 181 102
143 174 81
140 171 66
134 166 51
132 164 40
129 162 35
130 163 35
121 155 5
118 152 0
120 154 0
119 153 0
117 152 0
118 153 0
117 152 0
120 154 0
120 154 0
119 153 0
119 153 0
118 152 0
117 152 0
120 154 0
119 153 0
117 152 0
118 153 0
118 153 0
121 154 0
120 154 0
121 154 0
116 150 0
108 70 39
98 52 33
105 54 44
98 51 32
105 54 44
96 51 26
96 51 38
99 53 41
95 50 30
107 55 46
103 53 39
102 53 41
105 55 46
102 53 39
101 52 41
99 51 35
102 53 41
99 51 36
98 51 36
103 53 44
99 51 36
98 52 41
92 48 30
100 51 38
102 53 39
101 53 38
96 51 38
95 50 33
99 52 43
95 49 32
100 53 39
106 55 46
104 53 43
99 52 36
99 52 39
98 51 33
98 52 41
97 52 36
95 50 32
101 53 35
99 52 41
99 51 38
99 52 35
101 53 41
103 53 43
100 51 38
94 49 29
95 50 33
98 51 38
99 52 44
100 52 39
101 52 41
105 54 47
96 51 30
96 50 32
98 50 35
101 53 44
94 49 30
98 50 36
98 51 38
98 52 33
103 54 39
105 54 43
101 52 43
95 50 35
101 51 38
99 52 30
95 51 30
104 54 43
99 52 36
97 51 33
98 52 33
102 54 44
99 52 39
99 51 38
99 53 36
103 53 38
103 54 44
103 53 41
103 54 44
101 52 43
100 52 35
101 53 39
97 52 38
102 54 39
101 52 41
102 53 38
101 51 44
97 50 32
98 52 38
100 53 39
99 52 36
104 54 41
101 54 43
100 52 43
102 53 46
94 50 29
104 54 41
98 52 32
99 52 41
100 52 35
101 51 41
97 51 33
98 52 35
101 53 43
96 51 33
102 54 44
98 52 39
101 52 38
101 53 36
100 52 35
95 50 32
104 54 47
96 51 29
100 51 36
98 52 33
103 53 41
96 50 33
97 50 33
102 54 47
103 54 46
96 51 32
93 47 29
102 53 36
100 51 36
101 52 33
109 73 39
118 153 0
120 154 0
119 153 0
120 154 0
118 153 0
119 153 0
120 153 0
122 153 0
119 153 0
118 153 0
121 154 0
118 152 0
118 153 0
117 152 0
120 154 0
118 152 0
120 154 0
120 154 0
120 154 0
118 153 0
120 154 0
121 155 5
123 156 10
129 162 35
135 167 51
136 167 51
138 169 56
157 186 122
161 189 133
162 190 138
164 192 148
172 199 174
180 205 194
175 202 184
187 211 220
194 218 245
191 215 235
197 221 255
197 221 255
197 221 255
197 220 255
197 220 255
197 220 255
197 220 255
197 220 255
197 220 255
197 220 255
197 220 255
197 220 255
197 220 255
197 220 255
197 220 255
197 220 255
197 220 255
197 220 255
197 220 255
197 220 255
197 220 255
197 220 255
197 220 255
197 220 255
197 220 255
197 220 255
197 220 255
197 220 255
197 220 255
197 220 255
197 220 255
196 220 255
196 220 255
196 220 255
196 220 255
196 220 255
196 220 255
196 220 255
196 220 255
196 220 255
196 220 255
196 220 255
196 220 255
196 220 255
196 220 255
196 220 255
196 220 255
196 220 255
196 220 255
196 220 255
196 220 255
196 220 255
196 220 255
196 220 255
196 220 255
196 220 255
196 220 255
196 220 255
196 220 255
196 220 255
196 220 255
196 220 255
196 220 255
196 220 255
196 220 255
196 220 255
196 220 255
196 220 255
196 220 255
196 220 255
196 220 255
196 220 255
196 220 255
196 220 255
196 220 255
196 220 255
196 220 255
196 220 255
196 220 255
196 220 255
196 220 255
196 220 255
196 220 255
196 220 255
195 219 255
196 220 255
195 219 255
195 219 255
195 219 255
195 219 255
195 219 255
195 219 255
195 219 255
195 219 255
195 219 255
195 219 255
195 219 255
195 219 255
195 219 255
195 219 255
196 220 255
196 220 255
196 220 255
196 220 255
196 220 255
196 220 255
196 220 255
196 220 255
196 220 255
196 220 255
196 220 255
196 220 255
196 220 255
196 220 255
196 220 255
196 220 255
196 220 255
196 220 255
196 220 255
196 220 255
196 220 255
196 220 255
196 220 255
196 220 255
196 220 255
196 220 255
196 220 255
196 220 255
196 220 255
196 220 255
196 220 255
196 220 255
196 220 255
196 220 255
196 220 255
196 220 255
196 220 255
196 220 255
196 220 255
196 220 255
196 220 255
196 220 255
196 220 255
196 220 255
196 220 255
196 220 255
196 220 255
196 220 255
196 220 255
196 220 255
196 220 255
197 220 255
197 220 255
197 220 255
197 220 255
197 220 255
197 220 255
197 220 255
197 220 255
197 220 255
197 220 255
197 220 255
197 220 255
197 220 255
197 220 255
197 220 255
197 220 255
197 220 255
197 220 255
197 220 255
197 220 255
197 220 255
197 220 255
197 220 255
197 220 255
197 220 255
197 220 255
197 220 255
197 220 255
197 220 255
197 220 255
197 221 255
197 221 255
197 221 255
197 221 255
192 216 240
182 207 204
179 205 199
172 199 168
166 194 153
165 193 153
156 185 122
174 200 174
154 184 117
128 161 30
141 172 76
126 160 30
134 166 51
126 159 25
121 154 0
120 153 0
119 153 0
115 151 0
117 152 0
122 155 0
117 152 0
116 151 0
121 154 0
118 152 0
119 153 0
121 154 0
118 152 0
119 153 0
120 154 0
119 153 0
117 152 0
117 152 0
118 152 0
118 151 0
120 154 0
120 154 0
115 151 0
117 152 0
117 152 0
120 154 0
121 154 0
120 154 0
118 153 0
121 154 0
119 153 0
119 153 0
121 154 0
120 154 0
117 152 0
121 154 0
120 154 0
107 92 21
101 53 36
104 54 44
100 52 39
101 53 44
102 53 38
94 49 30
99 52 36
98 51 38
104 53 41
100 53 36
102 53 43
103 54 44
95 49 35
98 51 33
98 52 35
93 49 27
105 56 53
97 51 29
102 52 36
106 54 47
100 52 36
104 54 44
100 52 36
98 51 38
95 50 27
97 52 32
97 51 33
98 52 36
100 52 36
104 54 46
102 54 43
101 52 43
93 49 32
104 53 44
98 49 32
100 52 39
98 52 36
100 52 41
99 51 32
103 53 38
100 52 36
95 50 36
97 51 30
100 52 35
105 55 52
99 52 38
94 48 30
100 53 41
95 49 30
103 54 44
108 56 50
99 52 39
106 55 46
98 51 35
100 53 39
98 52 33
105 56 53
95 51 30
101 52 44
92 48 26
102 52 43
97 50 32
99 53 35
98 51 32
99 52 39
95 50 29
97 51 33
98 52 38
95 49 29
97 51 29
101 53 41
99 51 35
101 53 43
95 49 29
104 54 41
98 51 33
100 50 39
100 53 38
102 53 41
100 53 38
97 51 32
94 47 33
93 47 35
105 54 44
95 48 33
99 51 33
99 52 44
99 51 36
96 51 35
97 50 29
97 50 35
92 49 29
96 50 32
96 51 33
105 54 47
103 53 43
97 50 35
101 53 39
99 53 39
98 51 36
98 51 35
101 53 39
101 53 49
97 50 35
98 51 43
94 49 27
99 51 36
100 52 35
98 51 33
95 50 32
93 49 29
99 52 35
93 49 30
98 52 33
92 48 27
98 51 35
103 54 43
99 52 36
98 50 38
94 49 30
102 53 38
100 52 38
97 51 33
100 52 38
96 50 32
107 98 21
117 150 0
119 153 0
118 153 0
118 153 0
118 152 0
118 153 0
118 152 0
118 152 0
117 152 0
118 152 0
118 153 0
116 152 0
118 153 0
118 152 0
117 152 0
117 152 0
118 153 0
119 153 0
119 153 0
119 153 0
118 153 0
119 153 0
119 153 0
119 153 0
120 153 0
119 153 0
120 154 0
121 154 0
122 155 0
120 154 0
121 154 0
120 152 0
118 153 0
117 152 0
121 154 0
119 153 0
124 156 0
123 156 5
125 159 20
137 168 56
142 172 71
147 177 92
145 176 87
151 181 102
164 191 143
164 193 153
172 198 168
181 207 204
173 200 174
190 214 230
194 218 245
197 221 255
197 221 255
197 221 255
197 221 255
197 221 255
197 220 255
197 220 255
197 220 255
197 220 255
197 220 255
197 220 255
197 220 255
197 220 255
197 220 255
197 220 255
197 220 255
197 220 255
197 220 255
197 220 255
197 220 255
197 220 255
197 220 255
197 220 255
197 220 255
197 220 255
197 220 255
197 220 255
197 220 255
197 220 255
197 220 255
197 220 255
197 220 255
197 220 255
196 220 255
196 220 255
196 220 255
196 220 255
196 220 255
196 220 255
196 220 255
196 220 255
196 220 255
196 220 255
196 220 255
196 220 255
196 220 255
196 220 255
196 220 255
196 220 255
196 220 255
196 220 255
196 220 255
196 220 255
196 220 255
196 220 255
196 220 255
196 220 255
196 220 255
196 220 255
196 220 255
196 220 255
196 220 255
196 220 255
196 220 255
196 220 255
196 220 255
196 220 255
196 220 255
196 220 255
196 220 255
196 220 255
196 220 255
196 220 255
196 220 255
196 220 255
196 220 255
196 220 255
196 220 255
196 220 255
196 220 255
196 220 255
196 220 255
196 220 255
196 220 255
196 220 255
196 220 255
196 220 255
196 220 255
196 220 255
196 220 255
196 220 255
196 220 255
196 220 255
196 220 255
196 220 255
196 220 255
196 220 255
196 220 255
196 220 255
196 220 255
196 220 255
196 220 255
196 220 255
196 220 255
196 220 255
196 220 255
196 220 255
196 220 255
196 220 255
196 220 255
196 220 255
196 220 255
196 220 255
196 220 255
196 220 255
196 220 255
196 220 255
196 220 255
196 220 255
196 220 255
196 220 255
196 220 255
196 220 255
197 220 255
197 220 255
197 220 255
197 220 255
197 220 255
197 220 255
197 220 255
197 220 255
197 220 255
197 220 255
197 220 255
197 220 255
197 220 255
197 220 255
197 220 255
197 220 255
197 220 255
197 220 255
197 220 255
197 220 255
197 220 255
197 220 255
197 220 255
197 220 255
197 220 255
197 220 255
197 220 255
197 220 255
197 221 255
197 221 255
197 221 255
197 221 255
197 221 255
197 221 255
197 221 255
188 212 225
184 209 209
170 197 163
181 207 204
151 181 107
164 192 148
159 187 128
142 174 81
156 185 117
145 174 71
133 165 51
125 158 20
118 153 5
121 154 0
119 153 0
118 152 0
118 152 0
120 154 0
120 154 0
118 152 0
119 153 0
118 153 0
119 153 0
119 153 0
119 153 0
121 154 0
120 153 0
116 152 0
122 155 0
122 155 0
118 152 0
120 154 0
119 153 0
119 153 0
120 153 0
119 153 0
119 153 0
120 154 0
121 155 0
121 154 0
120 154 0
118 151 0
119 153 0
119 153 0
118 152 0
118 153 0
118 152 0
122 155 0
117 152 0
116 152 0
117 152 0
120 154 0
117 152 0
120 154 0
117 152 0
119 153 0
119 153 0
121 154 0
119 153 0
117 152 0
119 151 0
119 153 0
118 153 0
119 153 0
113 122 12
97 51 32
101 52 38
99 50 38
98 52 33
103 54 43
95 50 30
100 52 39
103 54 41
99 52 36
100 52 38
94 48 33
103 53 41
99 52 35
103 53 41
98 51 35
96 50 32
93 49 27
99 53 36
95 50 29
93 49 30
95 49 35
99 50 39
98 50 33
101 52 38
98 51 38
101 52 36
98 51 33
98 52 35
100 52 36
99 51 38
99 52 36
101 53 41
100 52 38
105 54 44
96 50 33
90 46 32
101 52 44
99 52 44
97 50 30
101 53 43
100 52 36
98 51 38
95 49 30
102 53 44
103 52 46
102 53 43
101 52 39
100 52 36
96 48 33
103 54 49
96 50 33
97 51 32
97 50 30
99 51 33
97 50 33
101 52 43
96 50 33
96 51 32
101 53 39
102 53 39
97 51 32
102 53 39
98 51 39
98 51 36
101 53 38
99 52 33
96 50 41
99 53 36
98 52 38
93 50 30
104 54 41
100 52 38
96 48 35
97 50 27
101 53 43
98 51 30
101 53 38
97 51 36
98 51 41
95 49 33
100 52 36
102 53 44
103 53 43
97 51 33
99 52 38
98 51 33
99 52 32
100 52 35
99 51 33
91 46 19
99 51 36
91 48 27
99 51 36
99 52 36
103 54 44
101 54 43
97 50 38
101 52 35
93 47 29
95 49 29
100 52 36
96 50 35
95 51 30
102 53 43
99 53 38
98 50 32
104 53 46
95 51 27
98 51 36
99 53 43
97 50 33
98 50 33
96 48 32
101 53 39
96 51 35
91 47 24
101 52 41
98 52 30
102 52 46
94 50 33
102 53 38
96 48 30
100 52 39
101 52 43
96 50 30
108 116 7
117 152 0
116 151 0
116 152 0
117 152 0
122 155 0
119 153 0
121 154 0
118 152 0
117 150 0
117 152 0
120 154 0
120 153 0
122 155 0
117 152 0
124 156 0
123 155 0
118 153 0
117 152 0
122 155 0
118 153 0
120 153 0
120 154 0
120 154 0
123 156 0
116 151 0
118 152 0
116 151 0
118 152 0
117 152 0
116 151 0
120 154 0
119 153 0
119 153 0
121 155 0
120 154 0
123 155 0
118 152 0
120 153 0
117 152 0
119 153 0
122 155 0
121 154 0
118 153 0
118 152 0
117 152 0
119 153 0
119 153 0
122 155 0
119 153 0
117 152 0
122 155 0
119 154 5
124 158 20
125 159 30
140 172 76
148 179 97
154 183 112
156 184 112
153 182 112
161 189 133
179 205 194
167 194 158
183 209 209
189 214 230
194 218 245
197 221 255
197 221 255
197 221 255
197 221 255
197 221 255
197 220 255
197 220 255
197 220 255
197 220 255
197 220 255
197 220 255
197 220 255
197 220 255
197 220 255
197 220 255
197 220 255
197 220 255
197 220 255
197 220 255
197 220 255
197 220 255
197 220 255
197 220 255
197 220 255
197 220 255
197 220 255
197 220 255
197 220 255
197 220 255
197 220 255
197 220 255
197 220 255
197 220 255
197 220 255
196 220 255
196 220 255
196 220 255
196 220 255
196 220 255
196 220 255
196 220 255
196 220 255
196 220 255
196 220 255
196 220 255
196 220 255
196 220 255
196 220 255
196 220 255
196 220 255
196 220 255
196 220 255
196 220 255
196 220 255
196 220 255
196 220 255
196 220 255
196 220 255
196 220 255
196 220 255
196 220 255
196 220 255
196 220 255
196 220 255
196 220 255
196 220 255
196 220 255
196 220 255
196 220 255
196 220 255
196 220 255
196 220 255
196 220 255
196 220 255
196 220 255
196 220 255
196 220 255
196 220 255
196 220 255
196 220 255
196 220 255
196 220 255
196 220 255
196 220 255
196 220 255
196 220 255
196 220 255
196 220 255
196 220 255
196 220 255
196 220 255
196 220 255
196 220 255
197 220 255
197 220 255
197 220 255
197 220 255
197 220 255
197 220 255
197 220 255
197 220 255
197 220 255
197 220 255
197 220 255
197 220 255
197 220 255
197 220 255
197 220 255
197 220 255
197 220 255
197 220 255
197 220 255
197 220 255
197 220 255
197 220 255
197 220 255
197 220 255
197 220 255
197 220 255
197 220 255
197 220 255
197 220 255
197 220 255
197 221 255
197 221 255
197 221 255
197 221 255
197 221 255
197 221 255
197 221 255
197 221 255
189 214 230
181 206 199
178 204 194
169 196 163
162 190 143
157 185 117
143 175 87
149 179 97
152 181 102
132 165 46
137 168 56
116 151 0
119 153 0
121 154 0
115 151 0
118 153 0
116 151 0
119 153 0
120 154 0
117 152 0
120 154 0
118 153 0
119 153 0
118 153 0
117 152 0
118 152 0
118 153 0
116 151 0
118 152 0
118 153 0
118 151 0
118 153 0
119 153 0
116 152 0
120 154 0
119 151 0
118 153 0
119 153 0
121 154 0
118 152 0
118 152 0
121 154 0
119 153 0
117 152 0
117 152 0
118 153 0
118 152 0
116 151 0
121 154 0
118 153 0
120 154 0
116 151 0
118 152 0
121 154 0
121 154 0
116 151 0
117 152 0
120 154 0
120 154 0
118 153 0
119 153 0
117 152 0
120 154 0
117 152 0
121 154 0
119 153 0
119 153 0
123 155 0
118 153 0
120 154 0
123 155 0
121 155 0
120 154 0
119 151 0
118 152 0
117 152 0
118 151 0
116 138 3
99 52 38
98 50 35
101 53 41
100 50 39
103 53 41
105 54 46
96 51 33
98 51 36
98 51 33
101 52 39
98 51 35
101 53 35
99 52 36
95 50 26
98 51 35
105 55 50
101 52 36
99 52 36
102 54 43
94 48 27
105 54 44
96 51 32
100 53 33
96 50 38
99 52 35
96 50 30
97 52 36
95 49 36
97 50 33
103 54 43
94 50 26
103 53 44
96 50 30
97 51 30
99 52 35
98 51 35
97 51 36
98 52 35
102 53 43
96 49 32
98 51 38
97 51 33
104 54 41
100 53 38
97 52 35
104 54 49
95 50 32
99 50 36
97 50 39
100 52 35
98 52 33
95 50 30
98 51 35
102 52 36
98 51 32
99 51 36
99 51 32
99 51 39
98 50 36
97 50 32
105 54 47
97 50 29
96 50 33
98 52 33
97 51 35
102 53 39
99 51 43
92 48 24
97 51 29
101 52 36
96 50 32
96 50 32
101 53 41
101 53 43
97 50 33
106 54 47
92 47 27
100 53 46
103 54 38
97 52 35
100 51 38
95 48 35
96 51 29
98 52 35
98 52 35
100 52 33
98 51 35
103 54 47
101 52 36
94 50 33
93 49 27
99 52 32
98 50 39
96 50 32
98 51 32
98 51 32
103 54 41
107 55 49
96 51 33
100 51 35
98 52 36
99 52 35
101 52 38
104 54 44
103 53 39
100 52 43
101 52 41
98 51 32
97 52 29
104 55 43
100 52 38
98 51 33
93 48 32
99 52 32
102 53 39
97 50 35
98 50 32
95 50 29
96 51 30
98 51 36
101 52 36
97 52 36
97 50 30
95 50 36
101 52 39
113 130 7
119 153 0
117 152 0
117 152 0
121 155 0
117 152 0
119 153 0
119 153 0
122 155 0
124 154 0
121 154 0
118 153 0
121 152 0
115 151 0
121 154 0
122 155 0
122 155 0
119 153 0
120 154 0
120 154 0
120 154 0
119 153 0
117 152 0
120 152 0
119 153 0
118 153 0
120 154 0
119 153 0
118 151 0
121 154 0
118 152 0
119 153 0
120 154 0
119 153 0
123 155 0
117 152 0
117 152 0
118 153 0
118 153 0
121 154 0
119 153 0
117 152 0
120 154 0
118 153 0
120 154 0
120 154 0
122 155 0
121 154 0
117 152 0
121 154 0
121 155 0
120 154 0
116 151 0
119 153 0
118 153 0
121 154 0
119 153 0
118 152 0
120 154 0
119 153 0
118 153 0
119 153 0
117 152 0
120 154 0
118 153 0
117 152 0
120 155 10
121 156 15
135 167 51
141 172 71
138 170 66
157 186 122
172 198 168
165 193 148
170 197 168
174 200 179
184 210 215
189 214 230
193 217 240
197 221 255
197 221 255
197 221 255
197 221 255
197 221 255
197 221 255
197 221 255
197 220 255
197 220 255
197 220 255
197 220 255
197 220 255
197 220 255
197 220 255
197 220 255
197 220 255
197 220 255
197 220 255
197 220 255
197 220 255
197 220 255
197 220 255
197 220 255
197 220 255
197 220 255
197 220 255
197 220 255
197 220 255
197 220 255
197 220 255
197 220 255
197 220 255
197 220 255
197 220 255
197 220 255
197 220 255
197 220 255
196 220 255
196 220 255
196 220 255
196 220 255
196 220 255
196 220 255
196 220 255
196 220 255
196 220 255
196 220 255
196 220 255
196 220 255
196 220 255
196 220 255
196 220 255
196 220 255
196 220 255
196 220 255
196 220 255
196 220 255
196 220 255
196 220 255
196 220 255
196 220 255
196 220 255
196 220 255
196 220 255
196 220 255
197 220 255
197 220 255
197 220 255
197 220 255
197 220 255
197 220 255
197 220 255
197 220 255
197 220 255
197 220 255
197 220 255
197 220 255
197 220 255
197 220 255
197 220 255
197 220 255
197 220 255
197 220 255
197 220 255
197 220 255
197 220 255
197 220 255
197 220 255
197 220 255
197 220 255
197 220 255
197 220 255
197 220 255
197 220 255
197 220 255
197 220 255
197 221 255
197 221 255
197 221 255
197 221 255
197 221 255
197 221 255
197 221 255
197 221 255
196 219 250
189 214 230
185 210 215
179 205 194
178 204 194
167 194 158
167 194 153
162 190 138
138 170 71
146 177 92
134 166 46
125 159 30
118 153 10
120 154 0
119 153 0
122 155 0
118 152 0
119 153 0
122 155 0
120 154 0
118 153 0
121 152 0
120 154 0
121 154 0
121 154 0
122 155 0
118 153 0
121 154 0
118 153 0
120 152 0
118 152 0
118 152 0
117 152 0
119 153 0
120 154 0
120 154 0
120 153 0
119 153 0
115 151 0
117 152 0
119 153 0
122 155 0
117 152 0
116 152 0
118 152 0
119 153 0
118 153 0
120 154 0
120 154 0
119 153 0
120 154 0
117 152 0
119 153 0
119 153 0
119 153 0
119 152 0
120 153 0
117 152 0
122 155 0
117 152 0
118 152 0
120 153 0
120 154 0
117 150 0
117 152 0
120 154 0
119 153 0
118 153 0
122 155 0
119 153 0
119 151 0
119 153 0
122 155 0
119 153 0
120 152 0
120 154 0
118 151 0
124 156 0
116 152 0
118 151 0
121 154 0
118 151 0
117 150 0
115 151 0
118 153 0
118 153 0
121 154 0
117 152 0
119 153 0
119 153 0
120 153 0
119 153 0
100 69 24
99 53 36
96 51 32
97 49 30
93 49 29
102 52 44
102 53 43
103 53 33
91 48 24
97 51 30
95 51 29
93 48 24
101 53 38
105 54 44
94 49 29
102 53 43
99 50 33
95 50 27
98 51 36
98 51 33
102 53 38
89 47 23
100 53 44
99 51 36
92 48 29
106 54 47
97 50 32
101 52 44
99 51 36
93 49 30
104 55 44
100 52 36
95 50 29
96 51 33
100 52 43
101 51 41
100 53 36
98 51 30
102 53 39
99 52 33
96 50 33
94 48 26
100 51 38
99 51 33
102 52 38
98 51 38
98 52 36
104 54 41
103 53 43
99 52 39
93 48 24
98 49 32
101 51 38
96 48 39
110 57 52
99 50 39
96 51 33
95 50 30
98 50 36
99 52 33
98 52 35
94 49 32
97 51 35
98 49 41
94 50 29
99 52 36
106 55 46
96 50 38
98 50 33
96 51 36
96 50 35
94 49 30
91 47 26
102 53 41
97 51 35
95 50 32
96 51 38
99 53 36
101 53 36
99 52 32
99 51 38
96 51 29
100 52 32
96 49 32
100 53 33
97 51 33
99 51 35
95 50 27
99 50 33
100 52 33
99 51 35
97 51 32
104 55 46
97 50 35
100 51 36
97 51 33
90 47 29
99 51 39
99 52 38
93 49 29
95 50 30
98 50 35
94 49 26
100 52 35
98 51 35
100 52 36
96 49 29
99 51 41
103 53 41
99 53 36
103 53 38
95 50 29
99 50 36
95 50 35
100 53 33
101 52 35
94 49 35
102 53 36
95 50 33
100 53 41
100 52 35
102 52 44
100 52 39
94 49 32
97 59 24
119 153 0
118 153 0
120 154 0
115 151 0
118 152 0
120 153 0
118 152 0
118 152 0
118 152 0
119 153 0
120 154 0
118 153 0
119 153 0
117 152 0
118 153 0
119 153 0
121 154 0
116 151 0
116 151 0
118 151 0
118 153 0
119 153 0
118 151 0
121 154 0
119 153 0
121 154 0
119 153 0
119 151 0
120 153 0
121 155 0
116 151 0
121 154 0
118 152 0
117 152 0
117 152 0
119 153 0
121 154 0
116 152 0
121 154 0
118 153 0
119 153 0
119 153 0
119 153 0
118 153 0
118 152 0
121 154 0
120 154 0
118 153 0
120 153 0
118 152 0
119 153 0
119 153 0
118 152 0
119 153 0
117 152 0
118 152 0
120 154 0
118 153 0
119 153 0
118 153 0
117 152 0
118 152 0
118 152 0
114 150 0
118 153 0
120 154 0
118 153 0
121 154 0
118 153 0
121 154 0
119 153 0
118 152 0
122 155 0
118 153 0
118 152 0
117 152 0
119 153 0
118 153 0
117 152 0
125 158 15
131 164 46
132 163 46
138 170 61
140 171 71
151 181 107
153 183 117
168 196 163
165 193 153
169 196 163
191 215 235
191 215 235
197 221 255
197 221 255
197 221 255
197 221 255
197 221 255
197 221 255
197 221 255
197 221 255
197 220 255
197 220 255
197 220 255
197 220 255
197 220 255
197 220 255
197 220 255
197 220 255
197 220 255
197 220 255
197 220 255
197 220 255
197 220 255
197 220 255
197 220 255
197 220 255
197 220 255
197 220 255
197 220 255
197 220 255
197 220 255
197 220 255
197 220 255
197 220 255
197 220 255
197 220 255
197 220 255
197 220 255
197 220 255
197 220 255
197 220 255
197 220 255
196 220 255
196 220 255
196 220 255
196 220 255
196 220 255
196 220 255
196 220 255
197 220 255
197 220 255
197 220 255
197 220 255
197 220 255
197 220 255
197 220 255
197 220 255
197 220 255
197 220 255
197 220 255
197 220 255
197 220 255
197 220 255
197 220 255
197 220 255
197 220 255
197 220 255
197 220 255
197 220 255
197 220 255
197 220 255
197 220 255
197 220 255
197 221 255
197 221 255
197 221 255
197 221 255
197 221 255
197 221 255
197 221 255
197 221 255
197 221 255
196 219 250
189 213 230
187 212 220
178 204 194
162 190 138
179 204 194
160 189 138
146 177 92
145 176 92
142 173 76
131 163 30
135 167 46
126 159 15
118 153 0
123 156 0
118 153 0
117 152 0
118 153 0
121 154 0
119 153 0
118 152 0
118 152 0
119 153 0
118 152 0
120 154 0
120 154 0
117 152 0
121 154 0
119 153 0
119 153 0
123 155 0
119 153 0
117 152 0
117 152 0
120 153 0
115 151 0
115 151 0
120 154 0
118 153 0
118 152 0
119 153 0
120 153 0
115 151 0
120 153 0
120 154 0
119 153 0
121 154 0
120 154 0
118 152 0
118 153 0
121 154 0
120 154 0
121 154 0
122 155 0
120 154 0
118 153 0
116 152 0
117 152 0
120 154 0
124 156 0
119 153 0
122 155 0
121 154 0
117 150 0
120 154 0
118 153 0
121 155 0
117 152 0
121 154 0
117 150 0
118 152 0
120 154 0
116 151 0
115 151 0
117 152 0
118 153 0
118 153 0
115 151 0
120 154 0
118 153 0
119 153 0
118 152 0
118 152 0
118 153 0
119 153 0
119 153 0
115 151 0
119 153 0
120 154 0
117 150 0
122 155 0
119 152 0
119 151 0
122 155 0
119 153 0
118 151 0
122 155 0
118 152 0
120 154 0
119 151 0
122 155 0
119 153 0
119 151 0
120 154 0
114 99 32
97 51 33
96 50 30
96 50 35
96 49 41
97 50 35
96 50 35
110 56 52
100 51 44
98 49 36
95 50 26
102 52 41
97 52 32
105 54 47
97 50 32
94 49 29
102 53 46
95 49 26
96 49 35
96 50 30
104 53 44
102 54 41
98 50 30
99 52 30
97 51 33
100 52 36
100 52 36
100 52 38
99 52 35
97 50 30
99 51 41
99 51 35
94 50 29
91 48 26
98 51 41
99 51 38
92 50 32
98 51 35
96 51 35
98 52 36
101 51 43
100 52 38
96 50 29
96 51 35
95 50 27
101 52 41
92 49 23
103 53 39
97 49 41
94 48 30
96 50 30
95 51 29
95 49 32
94 48 35
99 52 38
102 53 39
96 51 30
99 50 36
99 52 33
100 52 39
99 51 35
95 50 27
100 53 36
102 53 43
97 50 30
100 51 35
97 49 33
97 51 33
96 50 29
95 49 35
98 51 32
97 51 32
95 48 32
100 51 36
97 49 36
94 49 35
96 51 35
102 53 43
99 53 35
100 52 38
94 48 26
97 49 36
99 51 35
104 53 46
100 52 36
100 50 38
107 55 46
97 50 26
94 48 30
97 52 36
98 50 35
101 52 38
103 54 49
104 53 43
101 53 39
98 50 39
96 51 30
99 52 33
97 50 32
94 49 32
98 49 39
96 51 30
95 50 35
98 52 35
100 52 39
97 51 32
98 52 33
96 50 32
97 51 32
100 52 36
98 51 35
96 50 29
99 50 35
95 50 27
98 52 32
97 50 33
99 52 32
98 50 36
99 50 30
102 53 44
101 52 39
96 51 30
92 47 26
101 51 41
107 100 19
117 152 0
119 153 0
118 153 0
122 155 0
120 154 0
120 154 0
118 153 0
116 151 0
120 154 0
117 152 0
120 154 0
120 154 0
116 151 0
120 152 0
120 154 0
118 153 0
117 152 0
119 153 0
118 152 0
123 156 0
118 153 0
121 154 0
117 152 0
119 153 0
118 152 0
120 154 0
117 150 0
121 154 0
121 152 0
121 154 0
118 153 0
119 153 0
118 153 0
117 152 0
121 154 0
121 154 0
118 152 0
120 154 0
122 155 0
119 153 0
121 154 0
116 150 0
120 154 0
120 154 0
120 154 0
118 153 0
117 152 0
119 153 0
118 153 0
118 153 0
117 152 0
115 151 0
120 154 0
120 153 0
121 154 0
120 154 0
123 155 0
120 154 0
120 154 0
118 152 0
122 155 0
119 153 0
119 153 0
119 153 0
117 152 0
120 154 0
118 153 0
117 152 0
116 152 0
120 154 0
119 151 0
121 154 0
121 154 0
120 154 0
118 152 0
118 153 0
121 154 0
120 154 0
121 155 0
122 155 0
118 153 0
120 154 0
121 154 0
119 153 0
119 153 0
119 153 0
114 150 0
121 154 0
118 152 0
120 154 0
118 152 0
121 155 5
125 159 25
135 166 46
139 171 71
147 178 97
147 177 87
157 185 107
167 194 158
162 190 138
173 199 168
175 201 174
188 212 225
197 221 255
197 221 255
197 221 255
197 221 255
197 221 255
197 221 255
197 221 255
197 221 255
197 221 255
197 221 255
197 220 255
197 220 255
197 220 255
197 220 255
197 220 255
197 220 255
197 220 255
197 220 255
197 220 255
197 220 255
197 220 255
197 220 255
197 220 255
197 220 255
197 220 255
197 220 255
197 220 255
197 220 255
197 220 255
197 220 255
197 220 255
197 220 255
197 220 255
197 220 255
197 220 255
197 220 255
197 220 255
197 220 255
197 220 255
197 220 255
197 220 255
197 220 255
197 220 255
197 220 255
197 220 255
197 220 255
197 220 255
197 221 255
197 221 255
197 221 255
197 221 255
197 221 255
197 221 255
197 221 255
197 221 255
197 221 255
197 221 255
191 215 235
188 212 225
168 195 158
164 192 148
167 195 158
164 192 148
139 171 66
155 184 117
136 168 61
132 164 46
130 162 25
119 153 0
120 153 0
118 153 0
121 154 0
118 153 0
119 153 0
122 155 0
120 154 0
119 153 0
120 153 0
120 154 0
123 156 0
118 152 0
118 152 0
115 151 0
120 154 0
118 152 0
120 154 0
122 155 0
118 152 0
118 152 0
115 151 0
120 154 0
119 153 0
120 154 0
119 153 0
121 154 0
119 153 0
122 155 0
118 152 0
122 155 0
119 153 0
118 153 0
120 154 0
118 152 0
120 154 0
123 155 0
121 155 0
119 153 0
122 155 0
117 152 0
120 154 0
118 153 0
120 154 0
119 153 0
119 153 0
116 152 0
118 153 0
119 153 0
119 153 0
120 154 0
117 152 0
119 153 0
118 153 0
119 153 0
122 155 0
121 154 0
119 153 0
118 152 0
120 154 0
118 152 0
119 153 0
121 154 0
121 154 0
117 152 0
118 152 0
117 152 0
123 155 0
118 152 0
123 156 0
117 152 0
117 152 0
120 154 0
119 153 0
115 151 0
119 152 0
120 154 0
120 154 0
120 152 0
121 154 0
117 152 0
118 151 0
117 152 0
117 152 0
118 152 0
117 152 0
118 152 0
116 152 0
119 153 0
120 154 0
120 153 0
115 150 0
120 154 0
119 153 0
119 153 0
123 156 0
119 153 0
122 153 0
120 152 0
119 151 0
120 154 0
118 152 0
117 152 0
119 151 0
118 133 12
95 49 29
98 51 36
95 50 32
92 46 26
95 48 32
95 50 26
99 53 39
95 50 30
104 53 47
103 53 41
97 49 30
98 51 33
101 53 39
101 53 35
102 53 38
98 52 32
97 50 32
100 51 43
97 50 33
99 52 33
100 53 39
95 49 35
94 50 30
103 53 43
97 51 33
95 50 30
95 49 33
101 52 41
98 51 32
99 51 39
94 50 29
97 51 36
99 51 35
94 49 30
98 49 36
94 50 30
96 50 32
94 50 27
97 50 29
98 51 32
93 49 29
98 51 38
96 50 30
101 52 38
95 48 35
94 49 29
99 50 36
99 51 35
104 53 41
95 49 35
101 52 43
94 48 32
102 53 38
97 50 32
98 50 32
95 50 29
102 53 39
98 52 33
107 54 47
94 49 26
100 51 35
100 51 36
98 51 33
105 54 46
97 50 35
96 50 29
96 50 32
98 51 29
96 51 27
96 50 29
103 54 44
100 52 43
95 50 38
95 50 35
99 52 38
99 52 39
100 52 33
101 53 35
93 48 24
100 51 36
97 50 32
99 51 35
99 51 33
101 52 46
100 53 38
100 52 35
99 52 38
96 51 33
99 52 32
102 53 43
102 52 46
99 52 41
96 51 38
102 53 36
102 53 41
100 52 38
93 49 32
96 50 33
100 53 36
97 50 26
99 51 36
103 53 41
97 50 38
98 52 33
100 51 38
99 52 33
93 48 21
96 49 33
99 51 35
101 52 32
100 53 39
103 53 43
97 51 33
99 51 32
95 49 29
98 50 29
94 49 30
96 50 38
91 48 21
97 51 33
97 51 35
98 50 36
95 49 35
114 121 15
119 153 0
115 151 0
119 153 0
119 153 0
119 153 0
121 154 0
121 154 0
122 155 0
118 153 0
118 153 0
118 153 0
121 155 0
121 154 0
119 153 0
119 153 0
120 152 0
118 151 0
122 155 0
118 153 0
122 155 0
120 154 0
123 156 0
116 150 0
119 153 0
117 152 0
119 153 0
119 153 0
116 152 0
118 152 0
117 152 0
116 150 0
121 155 0
118 152 0
117 152 0
118 152 0
116 152 0
119 153 0
121 154 0
120 152 0
118 153 0
119 151 0
117 152 0
120 154 0
117 152 0
117 152 0
119 153 0
120 153 0
118 153 0
117 152 0
119 151 0
120 154 0
121 153 0
120 154 0
119 153 0
120 154 0
116 150 0
117 152 0
118 152 0
118 153 0
117 152 0
117 152 0
118 153 0
120 153 0
120 154 0
119 153 0
121 154 0
121 154 0
121 154 0
118 152 0
121 154 0
119 153 0
114 150 0
119 153 0
121 154 0
119 153 0
123 155 0
121 154 0
120 153 0
119 153 0
118 152 0
117 152 0
122 155 0
121 154 0
114 150 0
118 153 0
118 152 0
119 153 0
121 155 0
123 156 0
121 154 0
120 154 0
119 153 0
119 153 0
120 154 0
121 154 0
118 153 0
120 154 0
118 153 0
121 154 0
119 153 0
122 155 0
121 154 0
119 153 0
119 154 5
127 159 20
130 162 30
135 167 56
144 175 81
151 181 107
160 188 133
165 194 158
176 202 184
179 205 194
185 210 215
196 220 250
197 221 255
197 221 255
197 221 255
197 221 255
197 221 255
197 221 255
197 221 255
197 221 255
197 221 255
197 221 255
197 221 255
197 220 255
197 220 255
197 220 255
197 220 255
197 220 255
197 220 255
197 220 255
197 220 255
197 220 255
197 220 255
197 220 255
197 220 255
197 221 255
197 221 255
197 221 255
197 221 255
197 221 255
197 221 255
197 221 255
197 221 255
197 221 255
197 221 255
194 218 245
184 209 209
184 209 209
184 209 209
177 203 184
156 185 122
152 182 112
152 181 102
133 165 40
131 163 40
127 160 25
121 155 5
117 152 0
119 153 0
121 155 0
118 152 0
121 154 0
118 153 0
117 152 0
117 152 0
117 152 0
119 153 0
118 153 0
118 153 0
118 152 0
116 151 0
118 152 0
118 153 0
119 153 0
119 153 0
121 154 0
118 152 0
119 153 0
118 152 0
119 153 0
120 153 0
117 152 0
120 153 0
118 153 0
120 154 0
121 154 0
118 153 0
118 153 0
119 153 0
119 153 0
121 155 0
122 155 0
119 153 0
117 152 0
118 153 0
118 152 0
118 153 0
115 151 0
119 153 0
118 153 0
119 153 0
119 153 0
120 154 0
115 151 0
120 153 0
118 153 0
122 153 0
119 151 0
118 153 0
120 153 0
118 153 0
120 154 0
118 152 0
119 153 0
119 151 0
118 153 0
120 153 0
117 152 0
119 153 0
118 153 0
118 152 0
119 153 0
120 154 0
118 151 0
117 152 0
119 153 0
121 154 0
119 153 0
121 155 0
115 151 0
119 153 0
118 152 0
121 154 0
120 154 0
118 151 0
120 154 0
119 153 0
118 153 0
121 155 0
119 153 0
120 152 0
120 154 0
121 154 0
119 153 0
115 150 0
117 152 0
120 152 0
122 155 0
119 153 0
118 153 0
120 154 0
117 152 0
121 154 0
118 152 0
118 153 0
121 154 0
118 152 0
117 152 0
120 154 0
117 152 0
114 150 0
120 154 0
119 153 0
121 154 0
122 155 0
118 152 0
116 151 0
113 146 0
117 152 0
118 149 0
123 155 0
119 153 0
118 151 1
95 51 27
93 48 26
95 50 30
101 53 41
98 51 36
99 52 38
98 50 35
93 49 26
96 49 32
95 50 29
95 49 33
95 49 32
99 50 35
91 46 24
92 47 26
97 50 33
99 50 36
99 53 39
101 52 35
93 49 30
101 52 44
100 51 38
96 51 30
95 48 30
93 48 26
94 50 33
97 50 32
96 50 33
98 51 38
102 52 44
96 49 27
93 49 29
105 55 43
99 52 36
97 50 35
98 51 43
99 52 30
96 51 32
102 53 43
100 51 36
99 52 33
102 53 38
96 51 29
96 49 33
99 52 30
102 52 38
93 49 29
96 50 38
96 49 33
96 49 30
99 51 30
96 51 30
97 51 35
104 54 41
99 50 35
96 48 32
99 52 38
99 52 41
98 50 36
97 52 29
93 48 35
97 51 30
98 50 32
93 48 30
101 52 39
98 52 38
94 48 30
98 52 33
101 53 44
97 50 35
96 50 26
98 52 35
100 50 39
102 53 39
94 49 29
101 52 33
93 49 29
105 54 38
100 51 35
91 48 23
99 51 35
96 50 24
100 51 38
93 49 29
99 51 36
100 53 38
93 51 29
97 50 32
104 54 46
100 52 38
99 52 33
96 50 35
93 48 27
95 50 33
99 51 41
96 50 29
100 52 30
97 50 32
96 50 33
99 52 39
98 52 30
98 50 35
99 51 41
97 50 33
100 51 36
102 53 41
97 50 36
95 49 30
97 51 30
100 51 38
108 55 52
96 49 33
96 48 32
100 53 35
96 50 35
98 52 35
97 50 32
95 50 33
96 49 32
95 48 30
96 49 33
93 48 29
98 62 26
117 150 0
116 150 0
118 151 0
118 151 0
120 153 0
117 150 0
121 154 0
118 152 0
119 151 0
119 153 0
119 153 0
120 154 0
119 153 0
118 152 0
117 150 0
121 154 0
117 152 0
119 153 0
119 151 0
118 151 0
119 153 0
118 153 0
118 153 0
117 149 0
118 153 0
117 150 0
120 154 0
119 153 0
119 153 0
118 152 0
116 149 0
123 155 0
120 154 0
123 156 0
119 151 0
123 155 0
120 154 0
118 153 0
121 154 0
120 154 0
117 152 0
120 154 0
121 154 0
121 154 0
120 153 0
117 152 0
120 154 0
113 148 0
116 150 0
115 149 0
119 153 0
120 152 0
117 152 0
117 152 0
120 153 0
116 151 0
122 155 0
117 152 0
121 154 0
118 153 0
121 154 0
117 152 0
122 155 0
123 155 0
117 152 0
119 151 0
120 154 0
118 152 0
119 153 0
121 154 0
118 152 0
120 154 0
115 151 0
119 153 0
117 152 0
121 155 0
120 153 0
118 152 0
119 153 0
119 153 0
117 152 0
117 152 0
117 152 0
120 154 0
119 153 0
119 153 0
118 153 0
118 153 0
120 154 0
120 154 0
120 154 0
119 153 0
119 153 0
116 152 0
119 153 0
119 151 0
120 154 0
120 153 0
121 154 0
116 151 0
117 152 0
117 152 0
119 153 0
119 153 0
118 153 0
120 154 0
122 155 0
117 152 0
119 153 0
119 153 0
117 152 0
119 153 0
119 153 0
119 153 0
123 155 0
120 153 0
125 158 15
127 161 35
130 163 40
140 172 76
146 177 92
151 180 102
158 187 128
168 194 148
173 199 168
185 210 215
186 210 215
194 218 245
197 221 255
197 221 255
197 221 255
197 221 255
197 221 255
197 221 255
197 221 255
197 221 255
197 221 255
197 221 255
197 221 255
181 207 204
179 205 199
169 196 163
160 188 133
153 183 112
146 177 92
144 174 81
136 167 51
123 157 20
119 152 0
116 152 0
120 154 0
119 153 0
117 152 0
117 152 0
118 152 0
116 151 0
117 152 0
120 154 0
121 154 0
120 154 0
120 154 0
121 154 0
123 155 0
121 154 0
119 153 0
120 154 0
119 153 0
118 153 0
119 153 0
121 154 0
118 153 0
116 151 0
118 152 0
118 153 0
121 154 0
120 154 0
117 152 0
117 152 0
120 154 0
118 153 0
116 151 0
117 152 0
118 152 0
119 153 0
121 155 0
119 153 0
118 152 0
119 153 0
121 154 0
118 153 0
116 151 0
121 154 0
118 152 0
121 154 0
119 153 0
119 153 0
117 152 0
119 153 0
117 152 0
119 153 0
116 151 0
118 152 0
119 153 0
118 153 0
120 154 0
120 154 0
119 153 0
118 153 0
122 155 0
118 153 0
120 154 0
118 153 0
119 153 0
117 152 0
119 152 0
117 152 0
120 152 0
121 154 0
121 154 0
119 153 0
122 155 0
115 149 0
122 155 0
118 153 0
118 152 0
117 152 0
118 152 0
118 152 0
122 155 0
121 154 0
118 151 0
119 153 0
120 154 0
116 149 0
120 154 0
122 155 0
118 149 0
120 154 0
118 151 0
116 150 0
116 152 0
117 152 0
118 153 0
121 155 0
117 150 0
120 153 0
121 154 0
117 152 0
120 154 0
120 154 0
121 152 0
119 151 0
117 150 0
121 154 0
116 151 0
121 155 0
118 152 0
118 151 0
123 155 0
119 153 0
118 152 0
118 152 0
120 154 0
121 152 0
120 154 0
119 153 0
120 154 0
118 151 0
120 152 0
118 153 0
120 152 0
118 151 0
116 150 0
117 152 0
116 151 0
117 149 0
119 153 0
105 83 24
96 50 33
97 51 35
101 53 41
95 48 32
102 52 43
92 47 24
100 52 35
101 53 38
101 53 41
101 52 38
97 49 38
99 50 35
97 50 38
100 52 39
99 51 30
102 53 38
100 52 33
98 52 35
95 51 30
99 50 35
94 49 29
98 50 38
99 51 38
104 53 39
96 50 35
105 53 41
102 53 38
104 54 43
99 51 38
102 53 38
96 51 23
98 51 35
99 52 36
99 51 36
99 52 32
100 52 41
100 52 46
95 50 30
104 53 47
102 52 39
97 50 33
97 50 29
95 50 32
93 48 32
96 47 32
100 51 36
99 51 35
97 50 35
92 48 27
101 52 33
101 53 36
96 50 32
94 48 32
94 48 30
98 50 38
101 52 41
98 51 35
100 52 38
93 50 30
103 52 46
98 51 36
101 53 38
96 50 30
101 52 41
93 47 29
106 55 41
98 51 32
96 50 30
107 55 47
96 49 33
99 51 38
98 51 35
97 49 39
96 48 32
97 49 32
96 51 33
97 50 29
95 49 33
96 50 32
96 51 29
100 52 39
99 53 41
98 52 35
100 52 39
97 51 33
103 53 36
100 50 39
100 52 41
101 52 39
103 53 41
98 51 30
101 54 43
98 51 32
101 53 36
99 51 39
103 52 41
94 49 26
99 51 39
100 53 39
94 49 21
106 54 44
97 50 33
100 50 39
98 51 33
95 50 32
94 49 23
104 54 39
98 50 33
97 49 38
98 52 33
90 46 24
100 52 41
104 54 43
100 52 32
94 48 33
99 49 36
95 50 33
105 54 38
101 51 38
99 51 32
95 49 35
103 87 19
116 150 0
117 152 0
116 150 0
115 145 0
121 154 0
120 152 0
115 147 0
119 153 0
118 149 0
118 151 0
119 152 0
118 152 0
115 151 0
120 152 0
121 154 0
119 153 0
119 153 0
117 152 0
119 153 0
119 151 0
119 153 0
124 156 0
120 154 0
118 152 0
119 153 0
118 152 0
119 153 0
121 154 0
122 155 0
118 153 0
121 155 0
118 151 0
119 151 0
119 153 0
121 152 0
121 154 0
119 153 0
120 154 0
117 152 0
120 154 0
123 155 0
119 153 0
120 153 0
117 152 0
118 152 0
120 154 0
119 153 0
116 149 0
118 153 0
121 152 0
117 152 0
119 153 0
122 155 0
115 151 0
120 153 0
120 153 0
119 153 0
119 153 0
119 153 0
121 154 0
118 151 0
121 154 0
119 153 0
120 154 0
120 154 0
120 154 0
119 153 0
120 154 0
118 153 0
118 152 0
121 154 0
118 152 0
118 151 0
119 153 0
118 153 0
119 153 0
119 153 0
120 154 0
120 154 0
119 153 0
115 151 0
118 152 0
119 153 0
117 152 0
116 152 0
118 152 0
118 153 0
121 154 0
117 152 0
124 156 0
118 153 0
123 155 0
117 152 0
119 153 0
118 153 0
120 152 0
119 153 0
122 155 0
121 154 0
119 153 0
119 153 0
119 153 0
119 153 0
119 153 0
116 150 0
119 153 0
118 153 0
120 154 0
118 152 0
120 154 0
118 153 0
118 152 0
118 152 0
120 154 0
122 155 0
120 154 0
119 153 0
120 154 0
119 153 0
119 153 0
120 154 0
116 151 0
121 154 0
119 153 0
122 155 0
117 152 0
119 153 0
122 155 0
128 161 25
129 162 35
137 168 51
139 170 61
140 171 66
149 179 97
170 197 168
169 196 163
178 204 194
182 208 209
189 214 230
119 153 0
116 151 0
119 153 0
119 153 0
120 154 0
121 154 0
118 153 0
114 150 0
120 154 0
119 153 0
118 153 0
121 154 0
119 153 0
117 152 0
119 153 0
121 154 0
122 155 0
119 153 0
119 153 0
120 154 0
119 153 0
117 152 0
123 155 0
118 153 0
121 154 0
120 154 0
120 154 0
118 153 0
117 152 0
116 152 0
120 154 0
120 154 0
120 154 0
118 153 0
121 154 0
120 154 0
118 153 0
120 153 0
117 152 0
119 153 0
122 153 0
120 152 0
120 154 0
117 152 0
120 154 0
122 155 0
120 153 0
123 155 0
119 153 0
117 152 0
121 155 0
121 155 0
120 154 0
119 153 0
120 153 0
122 155 0
119 153 0
120 153 0
121 154 0
120 154 0
117 152 0
118 152 0
119 152 0
116 152 0
117 152 0
117 152 0
118 153 0
119 151 0
117 150 0
119 153 0
119 153 0
118 153 0
118 153 0
124 156 0
120 154 0
121 154 0
121 154 0
118 153 0
117 152 0
117 152 0
117 152 0
119 153 0
119 153 0
117 152 0
117 152 0
116 152 0
118 153 0
119 153 0
118 152 0
117 152 0
119 153 0
119 153 0
121 154 0
116 151 0
120 154 0
119 153 0
121 154 0
120 154 0
117 152 0
120 154 0
119 151 0
119 149 0
118 153 0
116 150 0
119 153 0
118 151 0
118 153 0
118 152 0
121 154 0
117 152 0
123 155 0
117 152 0
117 150 0
117 152 0
120 154 0
119 151 0
118 152 0
119 151 0
119 153 0
118 153 0
117 150 0
120 154 0
118 153 0
119 153 0
116 150 0
116 151 0
117 149 0
120 153 0
119 153 0
117 152 0
119 153 0
120 153 0
118 153 0
117 150 0
117 152 0
119 153 0
118 153 0
118 152 0
116 131 9
103 54 41
97 49 29
88 46 19
97 51 32
93 47 24
99 52 33
94 49 29
96 50 30
103 54 39
93 48 23
99 51 38
98 51 33
98 51 35
103 53 36
98 51 32
103 53 41
97 51 30
95 50 26
99 52 36
96 51 29
92 46 32
99 53 36
99 51 35
100 51 36
91 47 23
95 50 35
99 52 35
98 51 36
96 50 33
95 49 29
96 51 30
100 51 38
99 51 30
103 52 39
97 50 35
100 52 35
94 50 29
98 50 33
92 47 26
93 48 24
98 50 33
105 55 44
101 51 35
104 54 33
100 52 39
101 52 38
97 51 26
98 52 32
101 51 46
95 49 23
103 54 43
99 52 38
95 48 30
98 50 36
92 49 23
103 54 41
98 52 33
102 52 33
99 51 36
100 51 38
95 50 27
102 53 41
96 49 33
99 52 36
97 50 38
99 52 38
97 50 35
104 53 43
104 54 43
103 54 38
96 50 32
97 51 33
99 52 33
96 49 35
99 52 35
105 55 43
95 49 39
100 51 43
98 51 36
103 53 43
92 47 23
98 50 39
99 52 36
101 53 32
100 52 38
97 50 33
97 50 33
97 50 30
95 49 27
98 51 33
95 50 32
95 50 26
90 46 23
95 50 32
100 52 35
101 52 44
96 50 33
99 51 36
97 49 36
98 50 36
102 52 44
100 53 38
97 51 32
94 47 32
92 47 26
97 51 32
100 52 38
90 47 24
96 49 30
101 53 41
99 51 35
100 51 39
103 53 39
97 52 30
102 52 39
101 52 38
93 48 26
95 50 30
101 51 35
93 48 27
96 48 29
112 118 9
116 149 0
119 152 0
119 150 0
118 150 0
116 150 0
120 154 0
120 154 0
120 154 0
119 153 0
121 154 0
116 149 0
118 151 0
121 151 0
119 153 0
118 151 0
118 151 0
117 150 0
122 155 0
122 155 0
120 153 0
120 154 0
122 153 0
115 149 0
118 152 0
117 150 0
118 152 0
119 153 0
122 155 0
119 153 0
116 151 0
113 148 0
119 153 0
119 151 0
119 153 0
119 151 0
118 152 0
119 151 0
123 154 0
118 151 0
121 154 0
118 153 0
119 149 0
122 155 0
119 153 0
117 152 0
120 152 0
118 153 0
117 152 0
120 154 0
119 153 0
120 154 0
120 152 0
119 153 0
116 152 0
120 154 0
119 151 0
118 153 0
118 153 0
118 151 0
117 152 0
119 153 0
123 155 0
121 154 0
117 152 0
117 152 0
118 153 0
118 153 0
119 153 0
117 152 0
118 153 0
120 154 0
118 152 0
118 153 0
116 149 0
117 152 0
118 152 0
121 154 0
117 152 0
121 154 0
118 152 0
119 153 0
118 153 0
117 152 0
119 153 0
119 153 0
117 152 0
118 153 0
119 153 0
120 154 0
118 152 0
118 153 0
119 153 0
120 154 0
118 153 0
118 153 0
119 151 0
118 152 0
115 151 0
120 154 0
118 152 0
119 153 0
119 153 0
119 153 0
118 152 0
120 154 0
118 152 0
118 153 0
122 155 0
117 152 0
117 152 0
119 152 0
119 153 0
120 154 0
117 152 0
119 153 0
122 155 0
121 154 0
117 152 0
119 153 0
120 154 0
121 154 0
118 153 0
120 154 0
119 153 0
118 153 0
118 152 0
119 153 0
119 153 0
119 153 0
118 152 0
117 152 0
121 155 0
122 155 0
120 154 0
115 151 0
121 155 0
120 154 0
119 153 0
121 154 0
120 154 0
122 155 0
118 153 0
121 154 0
119 153 0
118 153 0
122 155 0
117 152 0
121 154 0
117 152 0
120 154 0
122 155 0
119 153 0
123 156 0
116 151 0
119 153 0
119 153 0
121 154 0
121 155 0
116 151 0
119 153 0
118 152 0
119 153 0
122 155 0
119 153 0
120 154 0
119 153 0
121 154 0
118 153 0
118 153 0
120 153 0
117 152 0
119 153 0
119 153 0
117 152 0
116 152 0
118 152 0
119 151 0
119 153 0
117 152 0
118 152 0
117 152 0
121 154 0
117 152 0
121 154 0
119 153 0
118 153 0
116 151 0
119 153 0
121 154 0
118 153 0
120 154 0
116 150 0
117 150 0
115 151 0
114 150 0
120 154 0
119 153 0
121 154 0
115 151 0
118 153 0
116 151 0
120 154 0
117 152 0
121 154 0
117 152 0
119 153 0
119 153 0
119 152 0
117 152 0
118 153 0
118 151 0
120 153 0
118 153 0
120 154 0
120 154 0
116 151 0
119 153 0
120 152 0
119 153 0
118 151 0
118 151 0
121 154 0
118 153 0
119 151 0
119 153 0
119 152 0
118 153 0
118 152 0
121 153 0
117 152 0
117 152 0
116 151 0
118 153 0
120 152 0
118 151 0
119 153 0
119 151 0
121 154 0
118 153 0
117 150 0
117 150 0
119 153 0
117 152 0
119 153 0
116 151 0
121 154 0
119 153 0
120 153 0
120 153 0
119 153 0
118 151 0
118 153 0
121 154 0
117 152 0
118 151 0
116 150 0
118 153 0
119 153 0
118 152 0
119 151 0
119 151 0
116 151 0
116 151 0
117 150 0
118 153 0
118 151 0
120 152 0
117 148 0
118 151 0
119 153 0
119 153 0
118 151 0
117 148 0
118 151 0
118 151 0
117 149 0
119 151 0
119 149 0
100 61 30
91 48 24
96 48 33
93 49 30
94 48 30
100 52 35
96 48 35
101 52 39
98 51 36
92 47 26
98 50 35
100 51 32
96 50 29
105 54 43
96 50 38
101 53 41
105 54 46
91 47 24
96 50 30
99 51 33
99 49 36
95 50 32
98 53 39
101 53 38
100 51 33
103 53 39
103 54 36
98 51 35
93 49 27
91 49 24
92 48 30
94 49 27
97 51 33
97 50 38
98 51 35
104 54 41
98 51 36
97 50 35
95 48 30
94 49 27
95 49 32
91 48 26
96 50 33
96 50 35
98 51 30
106 55 46
99 51 33
89 46 24
98 51 39
101 53 38
102 52 38
97 50 27
96 51 33
98 52 33
98 50 27
95 49 30
96 50 26
96 50 29
91 48 23
94 49 30
98 52 33
101 53 39
95 50 35
98 52 32
99 51 35
98 49 33
98 51 35
98 51 30
98 51 30
97 50 32
95 49 27
103 53 39
97 50 39
97 50 35
100 52 32
98 51 32
98 50 39
95 50 32
96 51 33
100 51 36
97 50 36
98 49 35
91 47 27
102 53 39
97 51 38
100 53 39
93 49 24
97 51 33
101 52 32
95 49 30
95 49 30
91 49 26
98 52 38
97 50 33
101 51 41
106 55 46
95 48 33
97 50 36
98 51 30
103 53 44
102 53 36
101 52 32
98 51 29
98 51 30
101 53 38
94 49 35
96 49 33
101 52 39
98 50 35
100 51 41
100 51 38
99 51 36
95 50 24
102 53 41
98 49 41
96 49 29
95 47 29
98 52 33
96 49 26
88 45 26
97 60 29
119 150 0
116 149 0
117 152 0
119 153 0
120 154 0
119 153 0
118 153 0
120 154 0
117 150 0
117 148 0
118 152 0
115 149 0
118 153 0
122 155 0
119 152 0
117 152 0
119 150 0
118 152 0
120 154 0
120 152 0
118 153 0
118 150 0
118 153 0
120 154 0
118 152 0
118 151 0
120 154 0
122 155 0
119 151 0
117 150 0
120 152 0
119 153 0
117 152 0
118 153 0
117 152 0
120 153 0
117 149 0
119 153 0
118 153 0
118 152 0
124 156 0
118 151 0
119 153 0
122 155 0
122 155 0
118 152 0
118 153 0
117 150 0
121 154 0
116 152 0
119 153 0
116 151 0
119 151 0
118 150 0
118 151 0
118 153 0
121 154 0
115 151 0
122 155 0
120 154 0
119 151 0
119 153 0
119 153 0
118 152 0
115 149 0
119 153 0
118 152 0
120 154 0
120 154 0
116 151 0
117 152 0
117 152 0
117 152 0
119 152 0
119 153 0
118 152 0
119 153 0
120 154 0
120 154 0
118 152 0
119 153 0
117 152 0
119 153 0
115 151 0
121 155 0
119 153 0
121 153 0
122 155 0
117 152 0
118 152 0
122 155 0
120 154 0
121 154 0
121 154 0
118 152 0
122 155 0
119 153 0
121 154 0
121 154 0
117 152 0
120 153 0
120 154 0
120 154 0
120 154 0
121 154 0
118 153 0
120 153 0
120 154 0
119 153 0
120 154 0
116 151 0
114 148 0
120 154 0
116 149 0
121 154 0
118 153 0
122 155 0
120 154 0
120 154 0
118 153 0
119 153 0
122 155 0
118 153 0
116 152 0
122 155 0
121 155 0
118 152 0
120 154 0
120 154 0
120 153 0
117 152 0
122 155 0
118 152 0
120 154 0
119 153 0
118 152 0
121 154 0
117 152 0
119 153 0
118 152 0
118 152 0
119 153 0
121 154 0
121 154 0
118 152 0
120 153 0
119 153 0
121 154 0
119 153 0
118 153 0
119 153 0
119 153 0
119 153 0
121 154 0
121 155 0
119 153 0
118 153 0
117 152 0
121 154 0
121 154 0
120 154 0
121 154 0
120 154 0
120 153 0
118 151 0
120 152 0
119 153 0
119 153 0
116 152 0
119 153 0
120 154 0
118 153 0
121 154 0
118 152 0
120 154 0
120 154 0
119 153 0
121 154 0
121 154 0
122 155 0
120 154 0
121 154 0
115 151 0
116 152 0
120 154 0
119 153 0
119 153 0
120 154 0
118 153 0
119 153 0
121 154 0
118 152 0
120 154 0
122 155 0
117 152 0
118 153 0
114 148 0
120 154 0
119 153 0
117 150 0
118 152 0
120 154 0
118 152 0
119 153 0
122 155 0
120 154 0
121 154 0
117 152 0
114 147 0
120 154 0
118 152 0
120 154 0
119 153 0
118 152 0
119 153 0
120 153 0
118 152 0
121 154 0
120 153 0
120 154 0
119 153 0
120 154 0
118 153 0
118 152 0
120 154 0
119 153 0
119 153 0
118 151 0
118 152 0
118 151 0
120 153 0
119 153 0
116 152 0
117 152 0
118 152 0
118 153 0
120 154 0
120 154 0
117 152 0
117 152 0
118 152 0
119 153 0
118 152 0
118 149 0
120 152 0
119 153 0
120 154 0
115 149 0
119 151 0
117 152 0
116 148 0
120 153 0
118 151 0
117 152 0
118 153 0
117 150 0
121 155 0
117 150 0
117 148 0
117 152 0
115 151 0
119 150 0
120 154 0
119 153 0
117 150 0
121 154 0
121 153 0
118 149 0
118 150 0
116 150 0
119 153 0
117 150 0
118 151 0
118 151 0
116 148 0
116 149 0
117 152 0
118 153 0
116 148 0
112 112 9
95 50 27
90 47 19
99 50 33
99 51 39
96 50 33
96 50 35
95 47 30
95 50 30
98 51 33
97 50 32
96 50 30
96 49 27
100 52 38
100 52 32
106 54 41
97 51 33
100 52 38
96 50 32
93 48 27
96 49 29
99 52 30
99 50 36
97 49 36
94 47 30
99 51 32
99 50 33
94 49 30
102 54 41
97 50 35
99 51 32
101 52 39
99 51 39
98 52 36
97 50 33
101 51 38
98 51 32
95 50 30
98 50 32
97 50 33
97 50 33
100 52 33
94 48 27
96 49 36
94 49 24
95 50 33
97 51 33
95 49 32
93 48 27
103 53 41
96 50 30
98 51 35
95 49 33
102 52 36
99 51 35
96 50 35
91 47 24
102 53 46
95 49 36
99 51 35
99 51 33
100 51 38
93 48 29
97 50 30
96 49 30
103 53 46
103 54 43
100 52 43
97 50 30
95 49 27
101 52 38
93 47 24
99 51 38
95 49 29
101 52 46
98 51 30
96 49 33
99 51 39
93 49 27
101 53 39
96 50 32
98 51 33
100 51 39
99 51 35
95 50 38
96 50 30
98 50 32
93 48 26
99 50 38
95 49 32
97 51 30
93 48 23
97 51 32
98 51 36
101 53 38
99 51 38
91 45 26
100 53 36
103 54 39
97 50 38
103 54 49
88 47 18
98 52 27
100 50 41
100 50 35
97 49 30
95 48 30
92 46 33
102 53 35
89 47 26
99 51 38
94 47 29
96 50 35
96 49 30
99 52 33
95 49 32
94 49 24
97 51 32
93 48 29
94 48 35
109 112 6
119 153 0
117 152 0
116 144 0
117 150 0
117 148 0
118 150 0
121 154 0
118 151 0
119 153 0
119 151 0
118 151 0
118 150 0
119 153 0
120 154 0
120 153 0
117 150 0
119 153 0
118 151 0
123 156 0
118 153 0
121 155 0
117 149 0
122 155 0
119 151 0
116 152 0
121 154 0
123 155 0
118 151 0
117 152 0
118 153 0
119 153 0
123 154 0
121 154 0
119 153 0
119 153 0
118 153 0
119 153 0
119 153 0
118 153 0
118 151 0
118 153 0
118 151 0
120 154 0
118 153 0
120 154 0
119 153 0
119 153 0
118 153 0
120 154 0
116 151 0
118 153 0
118 153 0
117 150 0
119 153 0
119 153 0
119 153 0
119 153 0
120 152 0
119 153 0
117 152 0
118 152 0
119 151 0
118 153 0
116 151 0
117 150 0
120 154 0
118 153 0
118 151 0
116 151 0
119 151 0
117 152 0
117 152 0
118 153 0
121 154 0
115 151 0
116 152 0
117 152 0
119 153 0
119 153 0
116 151 0
120 154 0
119 151 0
120 153 0
118 153 0
118 153 0
119 153 0
121 154 0
118 152 0
121 155 0
119 153 0
122 155 0
120 154 0
118 151 0
119 153 0
118 153 0
117 150 0
118 153 0
121 155 0
121 154 0
119 153 0
120 154 0
118 153 0
119 153 0
120 154 0
118 153 0
121 155 0
120 153 0
119 153 0
121 154 0
120 153 0
119 153 0
117 152 0
120 154 0
118 153 0
118 152 0
116 151 0
117 152 0
118 153 0
119 153 0
117 152 0
119 153 0
122 155 0
120 154 0
117 152 0
117 152 0
116 152 0
120 154 0
124 156 0
118 153 0
119 153 0
115 151 0
118 153 0
121 155 0
121 154 0
120 154 0
120 154 0
117 152 0
119 153 0
122 155 0
122 155 0
121 154 0
119 153 0
118 152 0
120 154 0
117 152 0
116 151 0
120 154 0
115 151 0
117 152 0
117 152 0
120 154 0
118 153 0
118 153 0
117 150 0
118 151 0
120 154 0
118 152 0
118 153 0
117 152 0
117 152 0
117 152 0
121 154 0
120 154 0
117 152 0
118 152 0
118 153 0
121 154 0
117 150 0
120 154 0
118 153 0
119 153 0
119 153 0
119 153 0
117 152 0
120 154 0
120 154 0
120 153 0
118 153 0
119 153 0
118 153 0
117 152 0
120 153 0
120 154 0
117 152 0
119 153 0
119 153 0
123 155 0
119 151 0
118 153 0
121 154 0
119 153 0
113 150 0
119 153 0
116 151 0
119 153 0
117 152 0
119 153 0
118 153 0
118 153 0
118 153 0
120 152 0
121 154 0
118 152 0
119 153 0
120 153 0
117 152 0
120 154 0
117 152 0
119 153 0
118 152 0
118 153 0
119 153 0
119 153 0
122 155 0
118 152 0
114 147 0
114 147 0
120 154 0
118 153 0
119 153 0
118 151 0
120 153 0
119 153 0
118 152 0
117 150 0
118 153 0
117 150 0
119 152 0
119 153 0
119 153 0
118 151 0
121 153 0
119 153 0
120 154 0
124 156 0
120 154 0
117 152 0
118 153 0
120 154 0
122 155 0
119 153 0
117 152 0
119 153 0
118 152 0
121 154 0
116 149 0
120 154 0
121 152 0
121 154 0
119 153 0
118 153 0
119 153 0
119 153 0
122 155 0
120 154 0
117 150 0
120 154 0
118 152 0
119 151 0
121 152 0
121 154 0
120 153 0
119 149 0
120 150 0
121 155 0
118 149 0
120 152 0
121 154 0
119 151 0
115 147 0
119 153 0
117 150 0
116 148 0
117 152 0
117 148 0
115 149 0
117 152 0
116 151 0
118 151 0
119 148 0
95 52 26
92 47 24
104 52 44
98 50 32
93 47 29
91 46 24
92 48 26
93 49 24
99 52 35
97 50 36
95 49 26
96 50 33
93 48 27
99 52 35
98 52 38
96 49 35
95 49 26
95 49 27
93 49 32
99 49 41
98 52 35
95 50 29
97 49 32
97 51 33
100 51 41
100 52 35
94 48 32
92 49 29
96 50 29
98 51 29
96 50 30
97 50 35
97 50 36
95 49 27
99 50 38
100 51 38
95 48 33
100 51 36
96 50 36
106 55 43
95 49 29
97 50 32
94 50 33
97 50 30
97 51 27
98 50 33
93 47 33
94 48 32
100 50 39
95 49 29
96 49 27
96 48 35
101 52 41
97 50 29
92 49 26
98 51 32
95 50 29
91 49 23
97 51 26
99 51 38
94 49 29
97 50 30
99 50 35
101 53 41
104 53 49
98 50 38
97 51 36
97 51 36
103 53 39
103 54 41
100 51 41
100 52 41
93 47 30
98 50 36
99 51 39
98 52 29
97 50 35
97 50 33
98 51 32
95 50 27
94 49 27
98 50 35
96 50 33
100 51 35
96 50 33
101 51 35
97 50 29
95 49 35
94 49 29
99 51 36
91 48 21
92 48 27
93 49 30
97 49 33
97 51 32
94 47 27
94 49 29
96 50 27
96 50 29
95 49 27
99 51 33
99 51 39
104 51 43
94 48 30
94 49 29
98 52 36
97 51 30
99 52 43
100 52 35
90 45 23
100 51 36
96 49 30
92 47 29
95 50 29
93 49 24
94 49 29
95 49 24
97 51 32
94 55 21
120 150 1
116 149 0
117 149 0
118 149 0
119 149 0
119 151 0
118 151 0
119 151 0
116 148 0
117 152 0
118 153 0
118 147 0
116 150 0
118 150 0
120 153 0
120 154 0
120 154 0
119 153 0
116 150 0
119 151 0
117 150 0
115 147 0
119 153 0
117 150 0
118 153 0
117 152 0
119 153 0
121 152 0
120 154 0
121 154 0
118 153 0
118 152 0
119 153 0
118 151 0
119 153 0
114 145 0
119 153 0
118 152 0
119 151 0
120 154 0
119 153 0
119 148 0
121 154 0
120 154 0
119 153 0
120 152 0
119 153 0
120 153 0
117 152 0
118 153 0
118 153 0
119 153 0
117 152 0
116 152 0
118 153 0
119 153 0
117 152 0
116 151 0
117 152 0
118 152 0
119 153 0
121 155 0
117 152 0
118 153 0
118 153 0
117 152 0
122 155 0
120 154 0
119 153 0
119 153 0
119 153 0
119 153 0
120 154 0
118 153 0
116 151 0
118 151 0
119 152 0
121 154 0
117 152 0
113 146 0
119 153 0
117 152 0
119 153 0
119 153 0
117 152 0
119 153 0
118 153 0
118 152 0
118 152 0
119 153 0
121 154 0
118 153 0
118 153 0
119 153 0
121 154 0
122 155 0
116 152 0
118 152 0
122 155 0
119 153 0
117 152 0
119 151 0
121 154 0
117 152 0
115 149 0
121 154 0
121 154 0
118 153 0
123 155 0
117 150 0
120 154 0
121 154 0
118 153 0
119 153 0
114 150 0
122 155 0
116 151 0
117 152 0
118 151 0
120 153 0
118 153 0
121 154 0
117 150 0
118 152 0
118 151 0
117 152 0
118 153 0
116 151 0
120 152 0
119 153 0
116 151 0
118 153 0
119 153 0
118 153 0
119 153 0
119 151 0
116 151 0
118 153 0
118 152 0
119 153 0
119 153 0
118 153 0
117 152 0
119 153 0
118 153 0
119 153 0
118 152 0
114 149 0
116 149 0
118 152 0
116 151 0
119 153 0
119 153 0
120 154 0
116 151 0
120 154 0
120 154 0
119 153 0
124 156 0
123 155 0
117 152 0
119 153 0
117 152 0
118 153 0
118 152 0
119 153 0
119 153 0
117 152 0
121 154 0
118 153 0
118 152 0
118 153 0
120 154 0
117 152 0
117 152 0
118 152 0
121 154 0
121 155 0
120 154 0
119 153 0
120 152 0
121 152 0
116 151 0
121 154 0
120 153 0
119 153 0
120 154 0
118 153 0
119 153 0
120 154 0
118 153 0
118 152 0
116 151 0
118 153 0
119 153 0
119 153 0
120 154 0
118 153 0
122 155 0
119 153 0
117 152 0
120 154 0
121 154 0
117 150 0
115 147 0
120 154 0
119 151 0
120 154 0
119 153 0
122 155 0
117 152 0
117 152 0
117 150 0
117 152 0
117 150 0
120 154 0
117 152 0
117 150 0
121 154 0
116 151 0
116 151 0
119 153 0
120 154 0
119 153 0
116 150 0
118 153 0
121 154 0
116 151 0
120 154 0
118 152 0
120 154 0
120 154 0
116 150 0
118 151 0
119 153 0
116 150 0
119 153 0
117 152 0
121 152 0
120 154 0
119 153 0
120 154 0
118 153 0
118 152 0
115 151 0
119 151 0
118 151 0
119 152 0
118 151 0
120 154 0
120 152 0
121 153 0
117 152 0
118 149 0
121 153 0
118 153 0
117 152 0
120 154 0
119 153 0
120 154 0
115 149 0
118 152 0
119 151 0
120 152 0
117 150 0
118 147 0
117 152 0
121 154 0
119 153 0
117 152 0
119 151 0
116 148 0
121 151 0
121 151 0
116 149 0
118 153 0
119 153 0
117 148 0
118 150 0
118 151 0
118 153 0
103 78 24
89 43 23
93 48 32
90 46 16
93 48 27
93 49 24
97 51 33
97 49 35
96 49 30
99 51 35
99 52 33
97 50 36
96 51 35
92 47 23
96 50 32
101 51 39
100 52 30
92 46 26
92 46 29
95 50 32
99 52 36
98 51 32
95 50 32
98 52 33
100 52 36
103 54 38
95 50 32
93 48 27
95 50 32
103 54 38
101 52 38
95 49 36
107 55 44
96 51 35
95 50 26
96 50 33
98 52 33
102 52 39
99 51 36
96 49 29
94 49 27
97 50 32
100 52 33
99 52 38
100 53 35
102 53 39
99 52 35
100 52 35
100 53 39
101 53 38
97 50 33
95 49 32
101 53 38
102 53 35
94 49 27
99 51 32
98 50 36
95 49 32
95 49 29
100 52 36
100 52 36
101 52 46
96 50 27
101 52 41
95 49 32
100 52 33
96 51 36
100 51 38
99 52 33
96 48 32
92 46 29
95 51 29
99 51 32
96 49 29
91 47 32
99 52 33
93 49 26
95 49 35
99 51 38
101 52 39
95 51 27
93 49 27
99 52 33
99 50 35
96 50 32
103 53 46
100 52 32
94 48 27
100 52 36
96 50 30
96 50 27
97 51 27
100 52 36
99 50 39
92 46 27
88 45 27
94 49 24
95 49 27
94 46 30
99 51 38
95 50 29
97 51 32
98 50 32
93 48 27
88 44 23
99 52 36
95 49 32
94 49 27
94 50 23
95 48 27
97 51 36
98 52 33
97 50 27
90 47 24
91 47 24
98 51 32
95 48 30
92 49 15
103 90 13
118 149 0
117 150 0
120 152 0
119 151 0
116 148 0
120 152 0
121 151 0
118 151 0
118 152 0
118 151 0
119 151 0
119 150 0
116 148 0
119 153 0
113 146 0
117 150 0
117 152 0
114 150 0
117 152 0
120 154 0
117 150 0
115 149 0
117 152 0
120 152 0
116 151 0
117 152 0
116 149 0
121 150 0
119 150 0
118 152 0
117 152 0
121 154 0
119 149 0
114 148 0
118 151 0
120 152 0
119 150 0
118 151 0
116 151 0
115 147 0
119 153 0
118 153 0
121 154 0
119 151 0
120 154 0
120 152 0
119 152 0
119 153 0
119 151 0
120 154 0
121 154 0
119 153 0
118 153 0
121 154 0
120 154 0
116 151 0
122 155 0
117 152 0
119 153 0
117 152 0
121 154 0
118 153 0
119 153 0
118 153 0
120 154 0
119 149 0
119 153 0
121 155 0
121 154 0
118 151 0
118 153 0
120 154 0
119 153 0
117 152 0
118 153 0
120 154 0
120 152 0
120 154 0
119 153 0
118 153 0
117 150 0
118 151 0
119 153 0
116 152 0
117 152 0
122 155 0
121 155 0
119 153 0
116 152 0
116 151 0
115 151 0
124 156 0
118 152 0
121 154 0
119 153 0
119 153 0
120 154 0
121 154 0
115 151 0
120 153 0
122 155 0
121 154 0
121 155 0
119 153 0
118 152 0
120 154 0
117 152 0
119 153 0
119 153 0
117 152 0
116 151 0
119 153 0
119 153 0
120 154 0
117 152 0
117 152 0
119 153 0
118 152 0
116 151 0
117 152 0
118 152 0
120 154 0
117 152 0
115 151 0
118 153 0
119 153 0
119 153 0
119 153 0
121 155 0
117 152 0
121 154 0
120 153 0
121 154 0
119 153 0
118 153 0
117 152 0
118 153 0
121 154 0
117 152 0
120 154 0
121 154 0
117 152 0
121 154 0
119 151 0
118 152 0
122 155 0
116 152 0
121 154 0
121 153 0
123 155 0
119 153 0
120 153 0
120 152 0
117 152 0
124 156 0
119 153 0
120 153 0
117 152 0
117 152 0
123 155 0
118 152 0
120 154 0
118 153 0
120 154 0
121 154 0
119 153 0
117 150 0
121 154 0
121 154 0
119 153 0
118 153 0
116 150 0
118 153 0
117 152 0
120 153 0
117 152 0
119 153 0
118 153 0
118 152 0
119 153 0
118 153 0
118 152 0
120 154 0
117 152 0
120 154 0
118 153 0
118 153 0
116 152 0
116 151 0
116 152 0
117 150 0
119 153 0
118 153 0
118 152 0
118 153 0
119 153 0
120 152 0
119 149 0
118 152 0
121 154 0
117 150 0
118 152 0
118 153 0
118 151 0
118 153 0
120 152 0
117 152 0
118 149 0
118 152 0
121 154 0
118 152 0
117 150 0
121 154 0
119 153 0
116 151 0
118 152 0
118 152 0
117 152 0
120 152 0
120 154 0
118 151 0
119 153 0
119 153 0
119 153 0
116 150 0
122 155 0
116 144 0
121 155 0
117 152 0
118 151 0
120 154 0
122 155 0
119 151 0
118 152 0
118 152 0
115 151 0
119 153 0
118 151 0
119 153 0
120 153 0
120 152 0
117 150 0
117 152 0
121 154 0
122 153 0
121 153 0
119 153 0
117 152 0
116 149 0
119 151 0
117 150 0
120 154 0
117 150 0
119 153 0
116 150 0
119 153 0
116 150 0
120 152 0
116 152 0
117 152 0
120 154 0
118 151 0
120 154 0
118 152 0
118 150 0
119 150 0
117 152 0
119 152 0
115 149 0
119 150 0
116 146 0
119 151 0
118 151 0
117 149 0
117 150 0
119 151 0
119 153 0
117 150 0
119 153 0
116 147 0
117 150 0
115 138 4
94 51 19
90 47 16
91 49 19
95 51 24
93 48 30
90 48 19
100 52 39
99 51 35
94 49 26
96 51 29
98 51 30
98 51 33
97 50 33
99 53 35
97 50 27
94 47 30
91 47 23
95 50 30
94 49 33
95 50 29
95 49 29
94 49 26
100 51 33
92 48 26
97 50 35
96 50 29
100 51 36
92 48 21
95 48 30
95 49 33
95 49 27
95 50 32
93 49 32
100 52 36
98 50 36
98 51 38
98 50 33
94 49 29
101 53 44
99 50 35
99 51 33
96 50 30
98 49 33
90 47 21
95 50 26
98 50 35
98 51 35
97 49 29
100 50 36
96 50 30
101 53 32
94 48 32
96 49 29
96 50 29
97 51 32
93 48 32
98 51 32
100 52 36
98 50 32
95 49 35
88 47 15
97 51 32
100 52 32
102 53 44
88 45 16
95 49 26
100 52 35
104 53 41
99 52 33
102 53 39
97 51 32
96 50 35
98 51 35
102 52 36
98 51 36
97 52 30
94 50 27
98 51 32
102 52 39
95 49 29
100 52 39
96 50 30
100 51 38
95 49 27
93 47 29
95 49 35
102 53 38
93 47 32
95 49 29
99 51 36
98 51 30
100 52 35
98 52 35
96 49 36
93 50 29
93 48 27
96 50 29
91 47 18
100 52 36
97 50 30
99 50 35
97 51 27
101 51 47
99 51 38
93 48 27
91 47 23
94 48 32
103 52 44
101 53 35
91 48 24
95 50 26
93 48 26
97 50 26
91 48 27
98 51 30
90 47 21
96 49 30
115 142 1
115 147 0
116 147 0
115 149 0
118 147 0
117 150 0
115 149 0
114 145 0
117 150 0
119 151 0
119 153 0
115 144 0
119 148 0
119 151 0
118 149 0
114 148 0
119 153 0
118 151 0
119 152 0
124 156 0
117 150 0
118 150 0
116 151 0
118 147 0
118 153 0
117 150 0
120 154 0
119 153 0
116 151 0
118 151 0
119 153 0
119 153 0
117 148 0
119 151 0
119 148 0
116 146 0
118 152 0
120 151 0
117 152 0
117 150 0
116 150 0
117 152 0
120 154 0
116 149 0
117 152 0
118 149 0
117 150 0
118 153 0
118 153 0
115 149 0
120 153 0
120 152 0
119 151 0
121 154 0
116 150 0
119 153 0
116 148 0
118 153 0
120 154 0
118 152 0
118 151 0
119 153 0
115 149 0
115 151 0
120 154 0
117 150 0
116 150 0
120 154 0
119 153 0
117 152 0
121 155 0
119 153 0
121 152 0
121 154 0
119 153 0
120 154 0
118 149 0
120 154 0
118 151 0
115 149 0
121 154 0
120 154 0
121 154 0
119 153 0
119 153 0
119 153 0
117 152 0
121 154 0
118 153 0
116 151 0
119 153 0
119 153 0
117 152 0
123 155 0
118 152 0
119 153 0
121 154 0
117 150 0
122 155 0
120 153 0
118 153 0
123 156 0
121 154 0
120 154 0
118 152 0
121 155 0
123 155 0
116 151 0
117 152 0
120 153 0
124 156 0
118 153 0
118 151 0
120 154 0
116 150 0
118 151 0
116 150 0
119 153 0
116 151 0
121 154 0
120 154 0
117 152 0
118 153 0
117 152 0
118 153 0
118 152 0
123 156 0
118 153 0
114 147 0
120 153 0
117 152 0
120 154 0
120 154 0
120 154 0
119 151 0
118 153 0
119 153 0
123 155 0
116 151 0
118 152 0
121 154 0
118 152 0
119 153 0
119 153 0
121 154 0
120 154 0
118 152 0
119 153 0
117 152 0
120 154 0
119 153 0
123 156 0
119 153 0
120 154 0
118 153 0
121 154 0
117 152 0
116 150 0
120 152 0
119 153 0
118 153 0
116 149 0
120 154 0
117 152 0
118 153 0
117 152 0
120 154 0
120 154 0
116 151 0
121 154 0
118 153 0
119 153 0
118 153 0
115 151 0
118 153 0
118 152 0
118 153 0
117 152 0
121 154 0
120 152 0
119 153 0
118 151 0
120 154 0
119 153 0
121 154 0
118 152 0
121 155 0
119 153 0
120 154 0
118 153 0
117 152 0
117 152 0
116 150 0
121 155 0
123 155 0
118 151 0
119 153 0
121 155 0
116 150 0
116 151 0
119 153 0
120 154 0
117 152 0
117 152 0
121 154 0
117 151 0
121 154 0
122 155 0
116 150 0
118 153 0
117 148 0
118 153 0
119 150 0
120 154 0
118 153 0
118 152 0
117 152 0
116 151 0
121 154 0
117 152 0
116 146 0
117 152 0
115 151 0
119 153 0
116 152 0
119 153 0
118 153 0
120 154 0
114 149 0
116 150 0
120 154 0
116 150 0
122 155 0
116 151 0
123 155 0
117 150 0
115 149 0
117 152 0
119 153 0
118 152 0
119 151 0
119 153 0
118 153 0
121 154 0
120 154 0
116 148 0
118 151 0
119 153 0
122 155 0
119 151 0
121 154 0
117 150 0
118 150 0
117 152 0
122 153 0
118 152 0
119 149 0
116 148 0
120 154 0
120 152 0
118 149 0
117 152 0
116 149 0
118 149 0
119 153 0
115 146 0
118 149 0
117 147 0
119 151 0
119 151 0
117 152 0
120 149 0
120 153 0
115 149 0
117 152 0
120 150 0
120 152 0
119 153 0
122 153 0
120 153 0
119 151 0
115 147 0
114 147 0
105 81 23
97 50 27
93 48 29
93 48 21
99 51 35
93 48 24
98 51 30
97 50 30
96 49 32
98 50 38
101 51 44
94 49 30
98 50 32
93 47 27
99 51 38
95 49 29
96 48 30
93 50 24
96 50 29
95 49 32
94 49 27
91 46 23
101 52 41
94 49 24
94 48 29
98 51 30
95 49 32
100 52 33
107 54 44
98 51 36
90 48 23
99 51 35
94 47 33
95 50 30
96 51 32
97 49 36
97 51 33
93 48 23
91 47 27
97 51 32
99 52 33
94 50 26
95 49 32
102 52 41
100 51 36
94 48 26
94 48 29
96 50 32
98 51 30
95 49 29
95 50 27
96 50 29
98 51 35
97 51 33
94 48 27
99 52 30
99 52 38
95 49 35
91 49 19
94 48 24
97 50 30
95 50 30
92 47 29
97 51 36
99 52 38
91 47 27
91 45 29
98 50 33
93 47 29
103 52 38
98 52 35
98 50 38
100 51 36
99 51 30
92 48 29
97 49 33
99 50 35
100 51 35
99 51 36
95 49 32
97 50 35
103 54 43
92 48 26
90 47 24
97 50 27
97 50 36
87 46 15
97 51 36
98 51 35
102 52 36
98 50 33
98 48 33
104 52 44
99 50 38
97 52 38
92 48 27
97 48 33
96 49 30
100 50 36
99 49 38
89 47 21
99 50 35
95 49 27
86 45 19
91 47 23
94 48 29
94 48 29
98 49 33
98 50 33
99 51 36
96 48 32
101 52 38
95 48 35
90 46 21
94 49 32
88 44 27
104 84 23
120 152 0
118 151 0
116 148 0
115 145 0
119 153 0
118 149 0
118 151 0
118 151 0
119 153 0
118 146 0
113 142 0
119 150 0
113 146 0
119 151 0
121 152 0
118 153 0
119 153 0
115 148 0
116 149 0
119 152 0
118 153 0
119 151 0
117 150 0
117 149 0
121 154 0
115 149 0
118 148 0
117 152 0
121 154 0
120 154 0
119 153 0
118 151 0
112 147 0
118 153 0
121 154 0
117 150 0
119 153 0
118 151 0
121 155 0
118 152 0
119 151 0
118 153 0
116 148 0
117 152 0
123 156 0
118 149 0
119 153 0
116 151 0
117 152 0
118 151 0
119 153 0
119 153 0
119 151 0
118 153 0
120 152 0
121 154 0
120 154 0
118 153 0
120 152 0
120 152 0
117 152 0
119 151 0
123 156 0
119 153 0
117 152 0
120 153 0
123 155 0
121 152 0
118 153 0
119 151 0
116 146 0
118 152 0
119 151 0
120 154 0
119 153 0
117 152 0
118 153 0
121 154 0
114 149 0
120 154 0
119 153 0
117 150 0
118 152 0
118 151 0
119 153 0
118 153 0
116 148 0
117 152 0
120 154 0
119 153 0
117 152 0
118 149 0
121 154 0
118 153 0
119 153 0
119 151 0
121 152 0
120 154 0
116 150 0
117 150 0
117 152 0
120 154 0
117 152 0
120 154 0
116 152 0
118 153 0
122 155 0
117 152 0
116 150 0
119 153 0
118 152 0
120 154 0
116 151 0
118 153 0
120 154 0
117 150 0
119 153 0
119 153 0
120 154 0
119 153 0
122 155 0
119 153 0
122 155 0
119 153 0
121 154 0
120 154 0
115 151 0
121 154 0
119 153 0
121 154 0
119 153 0
121 154 0
120 154 0
118 153 0
119 153 0
122 155 0
122 155 0
120 154 0
120 154 0
117 152 0
118 153 0
119 153 0
120 154 0
120 154 0
115 151 0
118 153 0
118 152 0
117 152 0
120 154 0
119 153 0
118 152 0
121 154 0
120 154 0
118 151 0
119 153 0
118 153 0
118 152 0
118 153 0
120 154 0
120 154 0
119 153 0
119 153 0
120 154 0
115 151 0
119 152 0
119 151 0
119 153 0
120 154 0
116 152 0
116 152 0
117 152 0
118 152 0
117 152 0
117 150 0
119 153 0
121 154 0
120 154 0
117 152 0
123 156 0
118 153 0
119 151 0
117 150 0
118 153 0
116 151 0
119 153 0
117 152 0
120 154 0
119 153 0
117 152 0
120 154 0
120 152 0
117 150 0
119 153 0
119 153 0
119 153 0
118 153 0
119 153 0
122 155 0
122 155 0
117 152 0
120 154 0
120 154 0
119 151 0
119 153 0
119 153 0
116 150 0
123 155 0
118 152 0
117 150 0
116 151 0
120 153 0
117 149 0
121 155 0
118 151 0
114 145 0
120 154 0
117 152 0
116 151 0
117 152 0
118 153 0
117 152 0
121 152 0
117 152 0
119 152 0
118 152 0
117 149 0
116 151 0
117 150 0
121 154 0
116 149 0
117 150 0
117 152 0
120 154 0
118 151 0
115 151 0
117 150 0
117 150 0
119 151 0
119 153 0
116 150 0
114 150 0
119 153 0
118 152 0
118 152 0
115 151 0
118 150 0
114 146 0
117 152 0
118 153 0
119 153 0
118 153 0
120 154 0
118 152 0
118 152 0
117 150 0
118 153 0
119 148 0
116 148 0
116 148 0
117 150 0
120 154 0
115 144 0
117 148 0
118 149 0
118 149 0
120 154 0
117 146 0
116 147 0
117 150 0
118 153 0
119 153 0
118 147 0
118 152 0
118 151 0
117 148 0
118 150 0
115 147 0
114 139 0
117 148 0
117 149 0
114 143 0
119 150 0
116 148 0
114 137 4
95 48 33
91 48 26
90 46 19
91 47 24
89 46 19
97 51 30
99 51 33
96 49 29
98 52 32
98 49 29
94 48 33
96 49 30
95 50 30
88 44 26
102 53 41
97 51 35
95 50 27
95 50 32
91 49 23
99 52 35
93 48 23
95 49 27
96 51 29
96 51 26
100 51 35
93 49 26
95 48 30
98 50 36
96 50 24
91 45 27
99 52 36
89 46 24
92 47 23
92 47 30
102 53 41
96 51 27
92 46 30
94 49 30
91 47 29
91 49 24
91 48 24
98 51 35
98 51 35
91 45 27
93 48 23
99 51 38
99 51 38
99 52 35
98 50 39
96 50 29
94 49 30
85 42 19
101 51 41
99 50 36
95 50 32
100 52 35
92 48 29
94 48 26
94 49 27
93 48 23
93 48 24
94 50 24
88 46 19
96 51 35
93 48 27
92 47 26
93 48 27
95 48 29
95 48 30
98 51 35
97 50 30
102 52 36
96 48 29
97 51 36
101 52 35
93 47 26
101 52 35
98 50 26
97 51 29
92 48 24
98 51 33
97 50 27
96 50 29
101 52 33
94 48 30
100 52 36
100 51 36
98 51 33
102 51 38
98 51 39
97 50 35
100 52 39
95 51 32
95 50 32
98 50 38
101 52 33
98 51 36
95 49 32
96 49 30
95 48 35
101 52 33
90 46 23
100 51 35
100 51 35
100 51 33
92 47 26
97 50 33
94 48 30
91 47 26
93 49 26
98 48 32
92 47 24
92 48 26
96 49 32
92 48 24
107 119 4
119 151 0
116 150 0
117 152 0
117 150 0
117 147 0
115 146 0
114 146 0
117 147 0
113 144 0
121 153 0
118 152 0
119 153 0
116 150 0
119 151 0
117 150 0
116 146 0
119 153 0
117 147 0
118 149 0
117 150 0
120 152 0
120 152 0
118 149 0
118 149 0
120 152 0
119 153 0
116 146 0
118 147 0
120 150 0
117 150 0
116 151 0
116 151 0
117 152 0
116 148 0
114 146 0
116 150 0
117 150 0
116 150 0
115 147 0
118 151 0
116 148 0
120 152 0
117 152 0
118 151 0
118 152 0
119 150 0
118 152 0
119 153 0
120 154 0
118 150 0
115 149 0
120 153 0
120 154 0
117 150 0
119 151 0
118 151 0
117 152 0
119 153 0
119 153 0
118 152 0
120 154 0
119 151 0
116 151 0
119 153 0
118 153 0
120 153 0
119 153 0
120 154 0
115 149 0
119 153 0
116 150 0
118 152 0
118 151 0
117 152 0
120 154 0
121 154 0
118 153 0
120 152 0
118 151 0
119 153 0
119 153 0
120 154 0
119 153 0
119 153 0
121 154 0
119 153 0
121 154 0
123 154 0
116 151 0
117 152 0
120 154 0
120 154 0
118 152 0
120 153 0
120 150 0
119 153 0
116 152 0
119 153 0
116 149 0
117 150 0
122 155 0
120 152 0
119 153 0
122 155 0
117 150 0
118 152 0
115 149 0
119 153 0
118 153 0
119 153 0
115 151 0
116 150 0
119 153 0
119 153 0
119 153 0
120 154 0
119 153 0
115 150 0
119 153 0
117 152 0
124 156 0
117 152 0
121 154 0
119 153 0
122 153 0
120 154 0
119 153 0
119 153 0
119 151 0
118 152 0
118 151 0
121 154 0
118 153 0
118 153 0
120 154 0
118 152 0
119 151 0
118 153 0
119 153 0
121 154 0
121 155 0
118 152 0
119 153 0
119 153 0
119 153 0
117 150 0
120 154 0
119 151 0
121 154 0
116 151 0
119 153 0
118 152 0
116 151 0
118 152 0
119 153 0
121 154 0
117 152 0
119 153 0
120 154 0
119 153 0
119 153 0
119 153 0
121 155 0
119 153 0
119 153 0
118 153 0
121 155 0
119 152 0
118 153 0
117 150 0
118 153 0
122 155 0
119 153 0
118 153 0
120 154 0
122 155 0
117 150 0
119 153 0
120 154 0
116 152 0
119 153 0
121 154 0
120 154 0
118 151 0
119 153 0
117 152 0
118 153 0
120 152 0
118 152 0
122 155 0
115 147 0
119 153 0
121 154 0
117 152 0
117 152 0
119 153 0
120 154 0
119 153 0
119 150 0
118 152 0
117 150 0
120 153 0
116 151 0
119 153 0
121 154 0
121 154 0
118 152 0
118 149 0
116 150 0
115 149 0
116 148 0
118 152 0
121 154 0
116 150 0
118 153 0
119 153 0
119 153 0
117 152 0
120 154 0
119 153 0
120 154 0
119 153 0
118 151 0
120 154 0
120 150 0
117 149 0
125 157 0
118 153 0
120 154 0
120 154 0
121 153 0
116 150 0
116 148 0
118 153 0
119 153 0
115 149 0
114 147 0
118 153 0
115 151 0
115 147 0
120 152 0
119 153 0
115 147 0
116 150 0
117 150 0
119 153 0
116 148 0
116 150 0
120 152 0
118 147 0
120 152 0
118 153 0
119 153 0
115 149 0
119 151 0
117 149 0
118 151 0
118 145 0
117 152 0
118 151 0
117 150 0
120 154 0
118 153 0
116 142 0
120 150 0
118 151 0
117 148 0
118 151 0
118 149 0
115 147 0
118 149 0
117 148 0
116 151 0
116 146 0
117 147 0
120 148 0
117 150 0
116 148 0
114 141 0
118 151 0
115 143 0
115 145 0
117 150 0
117 152 0
102 88 10
98 50 30
97 50 35
93 47 29
98 51 30
91 46 26
94 50 27
96 49 33
96 49 29
94 49 29
97 49 33
96 50 36
97 50 32
88 47 16
97 51 35
95 47 27
101 52 38
94 50 30
94 49 26
96 50 30
96 50 32
97 51 33
97 51 33
93 47 29
93 50 24
97 49 35
95 49 33
97 50 32
96 50 32
97 51 33
101 51 35
100 52 35
101 52 36
95 50 26
94 50 27
93 49 27
98 51 36
98 51 35
95 51 29
105 55 46
93 48 29
99 51 35
96 50 26
99 52 35
93 48 26
94 50 30
95 50 29
95 50 29
97 49 35
96 49 32
96 49 29
98 51 36
96 51 32
96 49 24
98 50 33
94 48 27
98 51 35
93 47 24
96 48 33
99 51 36
101 52 32
94 48 30
97 49 30
97 49 30
91 47 19
98 51 33
98 50 33
95 49 33
100 51 33
97 50 29
102 53 41
96 51 35
91 48 18
96 49 30
99 51 33
93 47 27
103 52 39
99 52 36
99 52 36
108 55 46
99 51 30
93 48 27
95 49 35
107 55 44
97 50 36
91 48 21
92 49 27
96 50 33
93 47 30
99 51 33
91 47 23
103 53 39
97 51 30
95 49 27
97 50 27
100 51 38
96 49 30
85 44 13
89 45 23
92 47 26
101 52 38
93 47 24
93 49 21
101 53 36
95 48 32
105 53 39
97 49 29
96 49 30
93 49 24
95 49 27
94 49 23
98 51 35
94 49 24
95 48 29
95 74 12
118 151 0
113 146 0
117 150 0
117 148 0
116 148 0
117 146 0
116 149 0
115 144 0
114 145 0
118 151 0
116 149 0
117 146 0
118 151 0
117 150 0
116 148 0
117 149 0
119 149 0
117 147 0
115 149 0
119 153 0
117 149 0
114 149 0
116 148 0
116 146 0
118 151 0
117 148 0
115 147 0
118 149 0
119 153 0
113 146 0
120 152 0
121 153 0
120 152 0
118 152 0
118 153 0
115 147 0
120 152 0
120 154 0
120 154 0
118 151 0
119 153 0
118 151 0
119 153 0
117 152 0
118 152 0
118 151 0
117 152 0
118 153 0
118 149 0
117 152 0
117 150 0
118 150 0
114 148 0
118 153 0
120 153 0
118 151 0
119 150 0
118 152 0
115 147 0
119 151 0
120 154 0
120 154 0
116 146 0
113 150 0
116 150 0
122 155 0
120 154 0
118 152 0
118 152 0
120 153 0
118 153 0
118 152 0
118 153 0
119 151 0
118 149 0
119 151 0
120 154 0
118 152 0
119 151 0
119 151 0
114 150 0
118 152 0
118 153 0
117 152 0
119 151 0
119 153 0
117 150 0
119 153 0
118 152 0
120 153 0
117 150 0
117 152 0
117 150 0
117 150 0
118 152 0
120 154 0
124 156 0
122 155 0
119 153 0
118 152 0
117 152 0
118 151 0
117 152 0
117 152 0
114 148 0
117 152 0
119 153 0
119 153 0
117 152 0
119 153 0
118 153 0
123 156 0
119 153 0
120 154 0
119 151 0
119 153 0
118 151 0
118 153 0
117 152 0
119 151 0
120 154 0
122 153 0
117 150 0
116 151 0
122 155 0
116 152 0
118 153 0
117 152 0
120 154 0
116 151 0
118 153 0
117 152 0
120 154 0
121 153 0
119 153 0
119 153 0
117 152 0
119 153 0
119 153 0
119 153 0
119 153 0
120 154 0
115 151 0
120 154 0
119 153 0
119 153 0
119 153 0
119 153 0
118 152 0
118 152 0
118 152 0
120 154 0
119 153 0
117 150 0
120 154 0
118 152 0
120 154 0
120 154 0
118 153 0
117 152 0
115 149 0
117 152 0
119 153 0
120 154 0
117 152 0
120 153 0
120 154 0
120 154 0
121 154 0
119 153 0
119 153 0
119 153 0
121 154 0
120 152 0
117 150 0
118 151 0
117 152 0
122 155 0
119 153 0
120 154 0
119 153 0
116 149 0
118 152 0
118 152 0
118 153 0
119 153 0
119 153 0
119 151 0
119 151 0
116 151 0
119 153 0
115 147 0
119 151 0
123 155 0
119 153 0
120 154 0
121 152 0
121 154 0
119 153 0
119 153 0
119 153 0
116 149 0
120 152 0
121 154 0
117 152 0
119 153 0
118 152 0
120 154 0
117 150 0
122 155 0
119 153 0
119 152 0
119 153 0
119 151 0
122 153 0
117 149 0
118 152 0
119 152 0
119 153 0
120 154 0
121 155 0
119 152 0
121 154 0
116 150 0
123 156 0
117 150 0
123 156 0
121 152 0
122 155 0
123 155 0
116 151 0
118 149 0
120 154 0
117 150 0
118 151 0
119 151 0
118 151 0
116 150 0
116 151 0
120 150 0
117 151 0
118 152 0
116 148 0
119 153 0
116 148 0
117 150 0
118 151 0
117 152 0
118 151 0
119 151 0
117 150 0
117 150 0
118 151 0
117 148 0
119 153 0
115 149 0
117 148 0
117 147 0
118 152 0
117 147 0
117 152 0
116 146 0
118 151 0
117 150 0
114 147 0
119 153 0
119 150 0
118 149 0
120 150 0
118 146 0
121 154 0
121 154 0
116 148 0
111 143 0
115 147 0
116 146 0
118 147 0
120 148 0
119 153 0
116 146 0
116 148 0
118 149 0
116 147 0
117 148 0
115 140 0
112 133 0
96 50 29
91 45 27
96 49 30
91 47 24
87 46 18
95 50 26
100 53 41
94 48 27
102 52 36
91 48 21
86 44 12
92 48 23
90 45 32
94 48 30
94 49 23
92 48 30
96 49 35
95 49 30
100 53 38
92 49 26
97 49 35
97 51 33
95 49 35
97 50 33
93 48 32
96 50 29
100 51 36
101 53 38
92 48 26
98 50 36
94 48 29
102 52 43
96 49 29
92 48 24
88 45 26
93 48 27
100 52 41
95 50 32
92 47 26
95 50 26
97 49 30
94 49 30
91 46 21
96 49 32
93 48 24
100 52 41
98 51 35
96 48 33
97 49 32
98 51 30
97 49 30
97 51 32
93 48 29
100 52 38
90 46 21
101 52 41
103 53 41
97 51 30
91 48 19
96 50 27
93 49 29
95 49 26
95 50 30
99 51 35
100 51 32
98 50 33
93 48 29
95 48 32
93 48 24
100 51 35
93 48 29
89 47 21
93 48 23
93 48 27
96 50 33
90 48 24
95 48 35
95 49 23
94 49 30
99 52 33
98 49 36
102 53 35
93 47 27
99 52 35
91 49 26
92 48 23
98 51 30
96 50 32
85 43 18
93 47 24
93 48 29
98 50 35
94 48 29
98 50 32
94 49 29
94 49 27
98 51 32
98 50 32
97 51 30
92 49 27
92 47 24
94 49 32
95 50 30
95 49 27
93 50 29
91 47 23
93 47 29
98 51 38
97 50 38
94 48 30
96 49 32
91 46 23
94 54 24
112 139 1
112 137 0
115 145 0
115 149 0
120 150 0
112 142 0
121 155 0
118 149 0
115 147 0
119 151 0
112 137 0
118 147 0
112 144 0
116 148 0
118 151 0
119 148 0
117 150 0
116 146 0
116 148 0
116 150 0
118 151 0
119 151 0
119 152 0
117 148 0
116 148 0
116 148 0
120 152 0
118 147 0
116 149 0
117 150 0
115 149 0
122 153 0
117 152 0
115 146 0
120 154 0
119 149 0
118 151 0
118 153 0
119 151 0
118 151 0
117 147 0
119 149 0
117 150 0
116 148 0
117 152 0
120 154 0
117 150 0
115 145 0
119 151 0
116 149 0
121 153 0
118 152 0
120 152 0
118 151 0
120 154 0
122 153 0
117 152 0
116 149 0
119 151 0
121 154 0
118 151 0
120 154 0
120 154 0
118 151 0
118 150 0
116 151 0
121 152 0
118 151 0
116 149 0
119 148 0
117 152 0
121 155 0
117 148 0
118 152 0
116 150 0
118 153 0
119 153 0
115 151 0
117 150 0
120 153 0
120 154 0
117 152 0
115 151 0
118 153 0
117 145 0
118 153 0
119 152 0
121 155 0
117 152 0
118 151 0
118 153 0
121 154 0
118 152 0
119 153 0
119 153 0
120 154 0
116 150 0
121 154 0
121 154 0
122 155 0
118 153 0
118 153 0
122 155 0
118 153 0
118 151 0
120 152 0
120 154 0
120 154 0
120 154 0
119 153 0
117 151 0
122 153 0
117 152 0
118 153 0
117 152 0
121 150 0
116 152 0
119 152 0
118 153 0
119 153 0
117 152 0
119 153 0
117 150 0
118 151 0
118 153 0
120 154 0
120 152 0
117 152 0
122 155 0
116 151 0
117 152 0
119 153 0
120 154 0
118 152 0
119 153 0
120 153 0
118 152 0
117 150 0
115 151 0
116 151 0
118 151 0
121 154 0
119 153 0
119 153 0
117 152 0
116 151 0
117 152 0
119 153 0
121 154 0
120 154 0
123 156 0
118 153 0
120 152 0
119 153 0
116 146 0
118 152 0
117 152 0
118 152 0
115 151 0
121 155 0
120 154 0
118 153 0
117 152 0
117 149 0
119 153 0
116 150 0
119 153 0
121 154 0
116 150 0
117 152 0
118 153 0
119 153 0
120 154 0
120 154 0
118 152 0
119 153 0
119 153 0
120 154 0
120 152 0
120 154 0
116 150 0
118 153 0
119 153 0
118 151 0
119 153 0
119 153 0
118 152 0
121 154 0
117 150 0
118 152 0
119 153 0
121 154 0
117 152 0
120 150 0
120 153 0
121 154 0
120 154 0
118 151 0
117 150 0
118 152 0
116 150 0
122 155 0
117 152 0
117 152 0
118 153 0
118 153 0
120 153 0
119 153 0
118 151 0
117 152 0
114 150 0
119 153 0
119 153 0
118 153 0
119 152 0
120 154 0
118 151 0
116 147 0
120 153 0
118 151 0
117 150 0
118 153 0
117 152 0
117 148 0
120 153 0
118 153 0
123 156 0
116 152 0
114 148 0
117 150 0
118 153 0
120 154 0
119 153 0
117 149 0
116 152 0
118 152 0
117 150 0
117 152 0
122 155 0
121 152 0
117 150 0
119 149 0
117 150 0
115 146 0
114 149 0
115 147 0
120 150 0
119 153 0
118 152 0
121 155 0
117 148 0
116 151 0
118 151 0
117 147 0
118 151 0
118 151 0
121 154 0
118 151 0
119 151 0
120 150 0
117 149 0
115 140 0
122 155 0
118 149 0
117 147 0
119 150 0
116 148 0
114 140 0
117 150 0
120 150 0
120 150 0
118 147 0
118 152 0
117 148 0
118 149 0
116 150 0
120 152 0
116 148 0
114 143 0
115 145 0
114 145 0
115 147 0
120 152 0
118 147 0
119 150 0
119 153 0
113 141 0
108 100 16
90 47 21
95 49 29
97 50 26
89 46 18
89 45 24
92 46 27
90 46 23
95 46 32
100 52 36
94 48 26
91 47 27
100 52 35
96 49 33
93 49 26
90 46 19
97 49 29
97 50 29
93 47 27
97 51 36
93 49 23
93 49 24
96 51 30
97 51 32
97 49 33
93 48 26
105 53 41
104 53 36
93 49 26
102 52 35
96 50 30
99 51 36
102 52 39
102 53 41
95 49 29
97 50 29
93 48 27
94 49 35
89 45 24
95 48 35
93 48 29
100 52 36
98 50 38
94 49 30
104 52 44
96 49 35
96 49 32
96 50 35
97 50 32
96 50 26
99 52 36
95 50 32
99 51 38
93 47 30
96 49 26
98 50 30
85 45 15
92 46 27
91 46 30
97 49 33
99 51 33
93 48 30
100 51 36
96 49 33
97 50 35
94 48 26
97 50 33
104 53 41
96 50 29
92 47 26
97 51 32
96 50 24
97 50 27
92 48 23
101 51 41
95 49 35
94 50 24
96 48 27
97 51 32
100 52 36
89 45 26
98 52 30
94 48 33
96 50 33
94 48 30
104 53 38
92 47 29
96 50 29
89 45 21
95 49 30
93 48 29
95 48 27
99 51 30
97 50 33
95 49 30
95 50 26
101 53 39
93 47 30
99 52 32
89 43 23
97 50 32
93 49 26
95 49 33
90 46 23
97 50 32
94 48 29
96 50 24
93 48 29
95 47 35
95 48 30
94 48 26
94 49 24
108 97 15
115 147 0
117 148 0
115 142 0
113 143 0
118 147 0
114 145 0
116 148 0
114 145 0
115 142 0
118 149 0
115 144 0
115 146 0
117 147 0
116 149 0
113 141 0
120 154 0
114 150 0
115 147 0
117 150 0
116 150 0
117 150 0
115 147 0
120 152 0
120 150 0
116 148 0
117 150 0
119 153 0
113 141 0
120 150 0
117 148 0
117 146 0
118 152 0
114 145 0
116 151 0
119 153 0
120 153 0
120 154 0
121 154 0
116 150 0
118 151 0
119 151 0
121 154 0
116 148 0
120 148 0
116 152 0
115 149 0
118 152 0
117 150 0
120 152 0
116 148 0
117 150 0
120 153 0
118 153 0
116 151 0
120 154 0
119 149 0
116 149 0
117 150 0
119 151 0
115 149 0
119 153 0
120 152 0
118 151 0
117 152 0
119 153 0
118 153 0
121 155 0
118 152 0
119 153 0
119 151 0
120 154 0
117 152 0
116 150 0
117 152 0
116 149 0
120 153 0
118 151 0
120 154 0
118 153 0
116 149 0
121 155 0
116 151 0
118 152 0
119 153 0
118 153 0
117 152 0
121 153 0
120 154 0
117 150 0
117 152 0
118 151 0
118 152 0
117 152 0
119 153 0
119 152 0
119 153 0
121 154 0
119 152 0
118 152 0
117 152 0
118 151 0
120 154 0
123 156 0
120 154 0
118 152 0
119 153 0
121 155 0
121 155 0
116 148 0
120 154 0
118 152 0
118 153 0
116 150 0
116 150 0
123 156 0
117 150 0
121 154 0
120 154 0
116 151 0
117 150 0
121 154 0
118 152 0
119 153 0
120 154 0
119 153 0
119 153 0
119 153 0
121 154 0
119 153 0
120 154 0
116 151 0
118 153 0
115 151 0
122 155 0
121 154 0
123 156 0
119 153 0
117 152 0
116 151 0
116 151 0
115 150 0
118 152 0
117 152 0
121 154 0
121 154 0
116 152 0
116 150 0
120 154 0
118 151 0
117 152 0
116 151 0
121 151 0
117 150 0
119 153 0
120 153 0
119 153 0
121 154 0
118 152 0
117 152 0
118 151 0
121 154 0
116 151 0
122 155 0
118 152 0
115 149 0
121 154 0
119 153 0
117 150 0
120 154 0
121 154 0
121 154 0
119 153 0
119 153 0
119 153 0
119 153 0
114 150 0
117 152 0
117 150 0
117 150 0
119 153 0
122 155 0
116 152 0
117 148 0
120 154 0
118 151 0
120 152 0
118 153 0
119 153 0
117 152 0
123 155 0
116 151 0
120 154 0
120 154 0
118 153 0
119 153 0
119 153 0
122 155 0
117 152 0
118 153 0
122 155 0
116 151 0
118 151 0
119 151 0
116 150 0
117 152 0
120 152 0
118 151 0
118 149 0
120 154 0
119 151 0
116 151 0
117 152 0
117 146 0
119 151 0
119 153 0
116 151 0
117 150 0
122 155 0
124 156 0
121 154 0
117 150 0
117 148 0
116 151 0
119 149 0
118 151 0
120 152 0
119 153 0
117 149 0
118 152 0
118 151 0
120 154 0
119 153 0
117 152 0
121 154 0
116 148 0
117 150 0
118 151 0
119 151 0
117 146 0
114 143 0
116 150 0
119 153 0
119 148 0
117 150 0
118 151 0
118 152 0
117 146 0
120 152 0
119 153 0
120 154 0
118 152 0
114 144 0
119 153 0
119 153 0
115 145 0
115 151 0
120 150 0
117 150 0
120 152 0
117 147 0
114 149 0
119 153 0
118 151 0
117 150 0
121 154 0
115 151 0
120 154 0
118 151 0
116 148 0
120 154 0
118 153 0
119 153 0
116 148 0
117 145 0
116 144 0
117 148 0
115 145 0
119 153 0
116 142 0
116 142 0
114 141 0
119 148 0
117 149 0
116 149 0
117 148 0
117 145 0
115 143 0
117 141 0
95 62 16
95 48 29
88 45 24
96 49 32
99 50 33
89 45 23
94 48 24
97 50 32
95 48 29
97 50 33
93 49 27
93 48 29
93 47 27
92 47 27
92 48 26
94 49 32
101 52 39
92 47 29
97 52 32
96 49 33
97 50 32
88 45 26
99 50 33
94 48 30
91 48 19
93 49 26
96 50 24
96 48 35
99 50 33
90 45 23
87 45 21
101 51 44
97 50 29
94 49 33
93 48 26
98 49 33
97 50 32
92 49 24
91 47 23
93 47 26
98 51 32
99 50 41
92 47 23
94 49 24
100 52 27
95 49 26
89 46 21
94 48 23
90 45 27
99 52 29
93 47 26
99 50 36
95 49 29
94 50 30
88 45 24
95 50 33
92 47 30
100 50 36
94 49 29
90 45 26
99 52 30
93 48 33
96 48 30
93 48 27
94 49 30
95 49 27
99 50 33
98 51 30
95 49 35
91 47 24
96 48 30
96 50 30
98 50 32
92 48 24
95 50 33
100 52 36
90 46 30
91 46 26
98 49 36
97 51 33
96 50 35
95 49 27
94 50 30
94 48 26
99 52 33
94 49 32
95 48 24
93 48 29
96 50 26
98 49 29
90 45 26
97 49 35
94 48 33
93 49 21
92 48 27
89 46 18
87 45 13
90 46 26
89 45 29
93 48 27
95 50 32
94 49 32
89 46 21
91 47 23
88 46 16
92 47 23
87 44 15
101 51 38
88 45 19
93 49 21
101 60 30
120 152 1
116 146 0
116 144 0
116 148 0
117 148 0
117 148 0
117 147 0
115 142 0
116 146 0
113 146 0
117 148 0
119 153 0
113 143 0
119 149 0
114 145 0
113 141 0
116 150 0
121 153 0
118 148 0
119 150 0
115 149 0
115 143 0
121 152 0
120 154 0
116 147 0
117 150 0
116 146 0
117 147 0
118 149 0
117 147 0
116 148 0
118 149 0
119 150 0
114 149 0
116 148 0
117 148 0
117 148 0
117 152 0
117 150 0
118 151 0
118 153 0
118 153 0
118 149 0
116 150 0
119 153 0
116 150 0
117 152 0
117 150 0
118 151 0
120 152 0
116 148 0
118 153 0
121 154 0
116 150 0
119 149 0
117 150 0
120 154 0
116 151 0
120 150 0
115 149 0
117 152 0
120 154 0
118 151 0
122 155 0
116 150 0
116 150 0
121 154 0
118 149 0
117 150 0
121 153 0
116 152 0
120 150 0
119 153 0
120 151 0
120 152 0
117 150 0
117 152 0
115 149 0
118 152 0
122 155 0
119 153 0
119 153 0
119 153 0
120 152 0
118 150 0
118 151 0
123 155 0
117 152 0
118 151 0
121 152 0
121 154 0
119 153 0
119 151 0
118 151 0
119 151 0
118 153 0
120 153 0
121 154 0
117 150 0
117 152 0
123 155 0
119 153 0
119 153 0
120 154 0
117 150 0
119 153 0
113 144 0
118 152 0
117 150 0
120 154 0
119 153 0
118 151 0
117 150 0
118 153 0
118 153 0
121 154 0
120 154 0
116 151 0
119 153 0
121 154 0
119 153 0
118 153 0
117 150 0
116 152 0
119 153 0
117 152 0
121 153 0
118 153 0
117 152 0
120 152 0
119 153 0
120 154 0
120 154 0
119 153 0
120 154 0
118 153 0
118 153 0
119 153 0
119 153 0
119 153 0
116 152 0
121 155 0
118 153 0
121 154 0
119 153 0
119 151 0
117 152 0
119 153 0
118 152 0
116 152 0
117 150 0
119 153 0
118 153 0
117 152 0
117 152 0
117 150 0
121 154 0
122 155 0
120 154 0
117 152 0
120 154 0
119 153 0
118 152 0
120 152 0
120 154 0
114 149 0
119 153 0
119 153 0
121 155 0
117 152 0
119 153 0
117 150 0
120 154 0
119 153 0
121 154 0
119 153 0
120 154 0
117 150 0
116 151 0
117 150 0
119 153 0
122 155 0
118 151 0
120 152 0
122 155 0
120 154 0
116 151 0
120 152 0
118 153 0
119 153 0
119 153 0
121 155 0
118 153 0
118 149 0
116 150 0
118 153 0
116 152 0
118 153 0
117 152 0
118 147 0
117 150 0
115 151 0
119 151 0
117 152 0
118 153 0
117 152 0
119 153 0
118 151 0
117 150 0
119 149 0
122 155 0
116 150 0
120 154 0
119 151 0
118 149 0
120 153 0
114 149 0
121 155 0
120 154 0
119 151 0
117 152 0
119 153 0
118 150 0
119 150 0
122 155 0
123 156 0
119 153 0
119 151 0
121 152 0
120 152 0
118 149 0
118 151 0
118 151 0
118 151 0
117 152 0
119 153 0
117 152 0
116 148 0
120 154 0
118 151 0
121 154 0
120 153 0
117 152 0
118 149 0
115 149 0
118 149 0
118 153 0
118 153 0
114 145 0
116 149 0
117 150 0
122 155 0
118 151 0
121 152 0
114 149 0
117 150 0
117 148 0
116 148 0
118 151 0
117 148 0
118 151 0
118 151 0
117 147 0
119 153 0
115 144 0
119 150 0
116 148 0
111 136 0
117 150 0
119 150 0
117 148 0
114 143 0
115 144 0
116 144 0
120 152 0
116 144 0
110 138 0
119 153 0
117 149 0
114 143 0
115 151 0
113 137 0
116 145 0
110 139 0
114 143 0
112 142 0
113 137 0
115 147 0
116 148 0
113 126 7
90 45 24
92 46 24
95 49 35
91 47 26
98 50 27
103 53 39
90 45 23
92 47 32
92 47 26
93 48 26
91 47 26
101 52 32
97 50 30
93 48 27
94 48 26
95 49 27
89 46 27
95 49 32
96 49 29
96 50 30
102 53 38
91 47 30
93 48 27
95 49 29
97 50 30
96 48 32
93 48 29
96 50 29
93 47 24
101 51 35
97 50 33
92 48 23
97 49 33
96 51 30
97 50 33
95 48 26
93 49 30
97 51 35
96 48 30
93 46 32
94 50 27
98 51 33
96 48 33
88 44 23
92 48 23
99 52 35
94 47 27
97 51 32
95 50 30
91 48 23
90 47 23
89 45 26
94 49 26
97 51 32
99 51 30
94 49 24
93 48 26
96 50 24
93 48 24
94 49 26
97 51 32
92 47 27
91 47 19
99 52 32
96 49 30
93 49 30
94 49 26
97 50 33
94 48 23
96 48 32
98 51 33
96 49 32
94 50 29
92 48 24
91 44 26
90 46 19
95 50 23
94 49 29
92 48 23
102 53 44
96 48 29
101 52 33
92 48 29
102 53 43
97 50 30
96 48 30
92 47 30
93 48 24
94 48 29
94 48 26
101 52 39
99 50 36
98 51 30
89 45 19
92 46 24
95 50 27
99 51 29
101 52 36
92 47 32
97 50 29
92 47 27
89 46 16
100 53 35
95 49 29
88 44 19
98 50 30
92 48 26
88 43 19
98 50 33
112 128 4
112 136 0
118 145 0
114 140 0
116 146 0
116 146 0
119 149 0
116 150 0
115 142 0
115 144 0
117 149 0
120 146 0
116 144 0
120 150 0
115 148 0
114 145 0
115 145 0
118 149 0
113 141 0
119 149 0
115 146 0
120 151 0
117 145 0
116 148 0
117 150 0
117 146 0
118 151 0
117 150 0
118 152 0
116 146 0
114 150 0
117 152 0
115 149 0
116 148 0
120 152 0
113 144 0
120 152 0
114 147 0
117 147 0
118 151 0
115 148 0
119 152 0
115 145 0
113 144 0
116 146 0
114 149 0
120 152 0
117 152 0
120 154 0
114 145 0
119 153 0
116 149 0
120 152 0
118 151 0
121 154 0
117 146 0
117 152 0
116 150 0
117 152 0
118 153 0
117 150 0
117 150 0
120 154 0
117 150 0
118 150 0
116 151 0
119 153 0
121 151 0
119 153 0
117 152 0
116 151 0
118 153 0
120 154 0
119 152 0
118 153 0
120 152 0
118 153 0
120 154 0
120 154 0
118 152 0
119 153 0
122 153 0
119 151 0
118 152 0
118 152 0
118 153 0
116 148 0
119 153 0
119 153 0
116 151 0
118 153 0
117 150 0
117 152 0
120 154 0
117 152 0
116 150 0
115 151 0
117 151 0
118 149 0
117 152 0
119 153 0
116 150 0
118 153 0
120 154 0
116 151 0
116 151 0
120 154 0
122 155 0
121 154 0
121 154 0
119 153 0
121 155 0
117 152 0
118 151 0
118 152 0
118 153 0
118 153 0
118 153 0
119 153 0
119 153 0
117 152 0
117 152 0
121 154 0
117 152 0
119 153 0
120 154 0
117 150 0
119 153 0
118 152 0
119 153 0
119 153 0
120 154 0
118 153 0
117 152 0
119 153 0
118 151 0
117 152 0
117 152 0
120 153 0
122 155 0
119 153 0
119 153 0
121 154 0
117 152 0
121 154 0
116 151 0
116 151 0
120 154 0
117 152 0
119 153 0
118 153 0
120 154 0
120 153 0
118 152 0
119 152 0
115 149 0
119 150 0
119 153 0
118 150 0
119 153 0
116 151 0
119 151 0
115 151 0
121 154 0
117 152 0
118 153 0
119 153 0
117 148 0
116 152 0
118 152 0
117 150 0
118 151 0
115 149 0
118 153 0
117 152 0
120 154 0
119 153 0
119 153 0
124 156 0
117 152 0
120 154 0
122 155 0
119 153 0
118 152 0
117 150 0
119 153 0
119 153 0
119 153 0
119 153 0
119 153 0
120 154 0
115 149 0
118 152 0
118 151 0
116 151 0
117 150 0
116 151 0
119 153 0
121 154 0
120 152 0
120 154 0
119 151 0
117 150 0
121 154 0
120 154 0
118 153 0
121 153 0
119 153 0
116 152 0
118 152 0
117 152 0
118 149 0
118 153 0
120 150 0
115 147 0
118 150 0
118 151 0
117 148 0
119 151 0
114 148 0
117 150 0
117 152 0
118 151 0
117 152 0
120 154 0
121 154 0
118 152 0
117 152 0
118 152 0
116 150 0
116 148 0
117 151 0
119 152 0
118 147 0
118 151 0
118 152 0
117 152 0
118 149 0
117 148 0
118 153 0
117 149 0
122 153 0
117 147 0
119 151 0
119 152 0
118 150 0
116 151 0
119 146 0
114 143 0
114 145 0
117 152 0
120 152 0
118 151 0
120 150 0
120 148 0
116 150 0
116 148 0
113 136 0
115 146 0
117 150 0
118 151 0
117 148 0
118 151 0
115 140 0
114 145 0
119 151 0
120 152 0
115 143 0
120 154 0
117 150 0
114 143 0
115 144 0
119 148 0
122 155 0
112 137 0
114 147 0
115 147 0
115 140 0
115 142 0
113 142 0
115 145 0
115 146 0
114 143 0
119 144 0
121 152 0
115 145 0
119 151 0
116 148 0
115 140 0
114 145 0
114 140 0
99 74 21
89 44 24
93 49 26
86 44 15
95 49 29
93 48 24
94 48 30
97 51 30
91 46 23
93 49 26
95 48 26
87 43 24
95 48 29
91 45 23
94 49 30
91 46 21
97 49 30
97 51 32
97 52 29
93 49 27
91 46 21
94 48 27
91 46 23
97 51 29
92 47 24
93 48 29
94 48 30
92 48 26
95 50 29
93 49 27
94 49 26
97 50 30
97 49 30
93 48 32
97 50 26
100 51 38
95 49 27
94 48 26
96 49 30
100 50 41
96 50 33
93 48 27
94 49 26
99 51 33
93 47 26
99 52 32
86 42 15
95 48 33
94 49 27
94 48 26
96 49 27
98 50 32
90 47 26
97 49 35
94 47 26
95 49 29
100 52 33
96 50 30
90 47 23
92 48 26
91 47 27
90 47 24
93 46 32
93 47 24
94 50 27
101 52 38
97 50 29
94 49 27
90 46 23
104 54 36
94 48 29
95 50 24
94 49 27
94 47 29
92 48 19
101 51 38
94 48 24
97 51 30
96 50 33
95 49 32
100 50 43
92 47 24
94 49 35
99 51 27
92 48 27
92 47 30
100 50 33
93 48 23
97 49 32
102 53 43
96 50 26
86 45 10
99 51 33
90 45 18
90 46 24
98 51 27
89 45 21
94 48 24
91 45 26
93 47 26
93 48 30
85 44 21
86 44 18
98 50 36
89 46 19
89 45 19
88 45 24
92 47 27
106 93 16
114 147 0
114 145 0
117 149 0
108 138 0
117 150 0
113 142 0
116 150 0
116 143 0
119 148 0
116 146 0
112 143 0
112 140 0
116 146 0
115 144 0
120 152 0
119 151 0
114 147 0
117 150 0
113 141 0
115 148 0
119 151 0
114 147 0
114 145 0
118 151 0
114 146 0
117 148 0
116 147 0
121 152 0
117 149 0
120 152 0
117 146 0
117 149 0
114 145 0
119 151 0
117 147 0
120 152 0
122 155 0
117 150 0
114 147 0
120 148 0
115 147 0
115 144 0
119 151 0
115 145 0
115 140 0
116 151 0
118 151 0
118 151 0
120 152 0
120 154 0
120 150 0
117 149 0
117 152 0
117 150 0
121 154 0
116 148 0
118 152 0
119 151 0
117 148 0
117 148 0
119 153 0
116 148 0
119 153 0
121 154 0
118 153 0
117 152 0
115 147 0
117 152 0
121 154 0
115 149 0
120 152 0
117 150 0
120 154 0
117 150 0
119 151 0
118 151 0
118 151 0
118 152 0
120 154 0
118 147 0
120 154 0
119 153 0
119 153 0
115 151 0
118 153 0
119 153 0
118 151 0
118 149 0
121 154 0
120 154 0
118 149 0
120 154 0
116 148 0
120 151 0
117 151 0
118 152 0
117 150 0
116 152 0
116 148 0
117 152 0
118 153 0
121 155 0
118 153 0
119 151 0
119 153 0
121 152 0
117 148 0
115 149 0
117 152 0
118 152 0
121 154 0
120 154 0
118 152 0
117 152 0
118 151 0
118 152 0
119 153 0
116 152 0
118 153 0
118 152 0
122 155 0
119 153 0
120 154 0
117 152 0
115 149 0
122 155 0
119 153 0
118 153 0
119 153 0
119 153 0
119 153 0
117 152 0
116 151 0
118 152 0
119 153 0
118 152 0
123 156 0
116 151 0
117 148 0
121 154 0
120 153 0
117 150 0
117 152 0
116 149 0
116 151 0
120 154 0
117 152 0
117 152 0
122 155 0
119 153 0
118 152 0
120 154 0
117 149 0
117 152 0
117 152 0
116 148 0
119 153 0
121 155 0
119 153 0
116 151 0
117 152 0
119 153 0
120 154 0
121 154 0
120 154 0
119 153 0
117 152 0
117 150 0
118 152 0
119 153 0
116 150 0
119 153 0
118 151 0
119 151 0
120 154 0
118 151 0
118 153 0
117 150 0
121 154 0
121 155 0
119 153 0
117 152 0
117 150 0
115 147 0
120 152 0
120 154 0
119 153 0
119 153 0
121 154 0
118 151 0
119 151 0
114 148 0
118 151 0
116 150 0
121 153 0
119 153 0
120 153 0
119 153 0
120 154 0
115 147 0
118 152 0
118 151 0
122 155 0
120 153 0
118 153 0
121 154 0
120 154 0
118 152 0
119 152 0
119 153 0
117 150 0
116 152 0
118 151 0
119 153 0
122 155 0
119 153 0
118 153 0
119 153 0
118 151 0
115 151 0
120 153 0
118 151 0
118 149 0
117 152 0
121 154 0
118 153 0
118 151 0
119 153 0
116 150 0
116 150 0
115 147 0
117 148 0
119 148 0
116 146 0
117 147 0
116 146 0
115 149 0
116 148 0
119 149 0
118 151 0
119 149 0
119 152 0
117 148 0
120 148 0
115 147 0
117 150 0
120 154 0
118 149 0
118 151 0
116 148 0
116 146 0
117 152 0
118 151 0
116 148 0
118 151 0
118 153 0
113 139 0
116 148 0
119 149 0
118 151 0
121 154 0
116 146 0
117 152 0
117 147 0
110 138 0
116 148 0
117 146 0
118 149 0
114 143 0
114 136 0
114 141 0
115 146 0
114 143 0
116 146 0
114 141 0
115 147 0
116 146 0
115 144 0
115 146 0
116 146 0
114 143 0
114 147 0
116 148 0
114 143 0
112 142 0
114 145 0
118 147 0
114 138 0
114 143 0
115 139 0
111 134 0
111 130 4
88 52 15
92 47 21
88 44 19
92 48 26
94 49 26
89 45 24
94 47 26
98 51 33
96 50 33
96 50 26
97 50 27
98 50 32
100 50 35
94 48 26
93 47 24
94 49 26
91 46 19
92 48 27
90 45 27
93 48 26
97 50 27
99 49 35
94 48 26
93 48 24
96 51 27
94 49 26
90 45 26
95 49 26
95 49 32
96 49 29
100 52 35
94 48 29
88 45 19
96 50 32
96 49 29
100 50 36
99 51 33
95 47 29
96 50 33
88 45 19
99 51 32
101 52 41
96 51 27
97 49 35
95 49 27
97 51 35
96 49 24
97 50 35
96 50 30
93 47 26
100 53 38
94 48 24
98 51 29
99 51 38
96 49 30
93 47 27
95 49 27
93 48 26
89 45 23
95 47 35
96 50 33
98 50 29
88 45 24
96 50 32
86 44 15
96 51 26
100 51 38
95 49 29
91 45 29
94 48 29
94 47 26
93 48 29
96 51 30
98 51 33
93 47 26
89 45 24
96 49 27
91 47 26
97 50 27
96 50 27
92 46 23
96 49 29
93 47 26
94 49 30
98 50 30
97 50 32
92 47 26
89 46 24
94 48 24
94 48 33
95 49 32
90 48 19
94 49 23
94 48 23
98 49 33
97 49 35
90 46 26
90 45 27
91 48 24
87 45 23
88 46 16
96 48 30
87 44 18
89 45 23
94 49 26
83 43 12
91 61 13
111 127 6
115 143 0
111 141 0
116 144 0
114 138 0
119 144 0
114 136 0
117 144 0
114 141 0
114 143 0
111 139 0
112 137 0
114 146 0
116 142 0
115 145 0
114 145 0
116 146 0
116 146 0
118 150 0
114 145 0
115 146 0
117 148 0
118 149 0
116 148 0
115 143 0
116 144 0
113 144 0
117 150 0
116 146 0
118 151 0
115 140 0
118 149 0
116 146 0
116 147 0
115 145 0
117 152 0
121 153 0
119 151 0
119 151 0
117 150 0
120 150 0
119 152 0
116 150 0
118 151 0
116 146 0
119 148 0
117 147 0
116 152 0
116 151 0
118 152 0
119 151 0
116 143 0
115 149 0
117 152 0
116 146 0
116 150 0
120 152 0
118 151 0
116 150 0
119 153 0
118 149 0
114 141 0
117 152 0
116 150 0
115 148 0
120 153 0
117 148 0
119 151 0
118 151 0
121 154 0
120 154 0
120 150 0
117 152 0
120 152 0
117 152 0
117 152 0
120 154 0
120 153 0
118 151 0
118 151 0
117 152 0
118 151 0
117 150 0
122 155 0
121 154 0
119 152 0
119 153 0
119 153 0
118 149 0
117 150 0
121 153 0
117 152 0
119 151 0
117 152 0
122 155 0
118 149 0
119 153 0
121 154 0
118 151 0
118 151 0
124 156 0
118 153 0
119 153 0
118 151 0
116 152 0
119 151 0
120 153 0
117 150 0
116 149 0
121 155 0
121 154 0
117 152 0
117 152 0
121 154 0
118 153 0
119 153 0
115 149 0
119 151 0
115 147 0
120 154 0
121 154 0
118 153 0
117 152 0
118 152 0
119 153 0
118 153 0
119 151 0
120 152 0
120 154 0
118 153 0
120 154 0
117 152 0
117 152 0
121 154 0
121 154 0
120 154 0
119 153 0
120 154 0
117 152 0
118 152 0
119 153 0
117 150 0
121 154 0
120 154 0
118 152 0
117 150 0
121 154 0
120 154 0
118 152 0
119 153 0
117 152 0
116 152 0
117 152 0
117 150 0
123 155 0
118 151 0
121 154 0
118 153 0
120 154 0
119 153 0
118 153 0
118 153 0
124 156 0
120 154 0
119 153 0
119 153 0
116 151 0
120 154 0
121 153 0
121 154 0
118 153 0
116 150 0
118 153 0
119 153 0
121 154 0
115 149 0
117 152 0
122 155 0
117 149 0
119 153 0
120 152 0
115 149 0
118 153 0
120 154 0
120 154 0
117 150 0
120 154 0
119 153 0
118 152 0
120 152 0
119 151 0
120 152 0
118 153 0
117 152 0
120 154 0
121 154 0
119 153 0
120 154 0
116 149 0
122 155 0
119 151 0
119 152 0
116 148 0
120 153 0
119 152 0
121 154 0
123 155 0
117 150 0
118 152 0
119 153 0
120 154 0
119 152 0
116 152 0
120 154 0
117 152 0
118 152 0
116 150 0
120 154 0
120 152 0
116 150 0
117 152 0
119 153 0
118 151 0
116 151 0
119 153 0
116 150 0
117 150 0
117 150 0
116 148 0
119 153 0
120 154 0
117 148 0
118 151 0
115 147 0
120 154 0
119 151 0
120 150 0
119 151 0
121 151 0
115 147 0
117 150 0
118 147 0
117 150 0
120 152 0
120 152 0
119 150 0
118 149 0
113 141 0
118 149 0
116 143 0
119 153 0
117 148 0
118 147 0
118 149 0
115 147 0
113 144 0
118 147 0
114 143 0
116 146 0
119 151 0
115 144 0
121 152 0
115 145 0
118 149 0
118 151 0
117 148 0
115 144 0
118 151 0
118 152 0
118 147 0
116 146 0
113 142 0
116 146 0
117 148 0
116 146 0
111 133 0
116 142 0
116 146 0
118 147 0
114 149 0
116 144 0
113 143 0
113 139 0
117 150 0
111 131 0
115 142 0
113 137 0
109 134 0
116 141 0
113 139 0
115 142 0
117 144 0
112 142 0
106 107 9
86 42 21
84 42 21
92 46 21
98 51 32
90 45 19
94 49 24
95 49 24
95 48 30
99 50 33
91 45 24
95 48 27
88 44 26
95 49 27
93 48 19
95 48 30
89 45 24
90 47 27
95 49 26
92 47 30
95 49 30
88 44 23
93 48 23
92 46 24
94 48 24
98 50 36
93 48 21
95 48 32
95 49 29
94 48 29
96 49 29
87 45 19
100 51 36
99 51 35
91 46 21
93 47 30
90 46 26
92 46 26
94 48 30
98 50 32
99 51 35
93 47 29
95 48 29
93 48 21
92 45 29
97 51 32
92 48 24
98 51 32
91 48 19
99 51 33
92 47 21
93 47 24
98 50 32
92 47 26
88 46 19
91 48 24
97 49 29
97 51 35
93 47 23
91 47 24
92 45 27
94 47 29
96 49 30
99 50 35
97 50 33
90 47 19
101 52 38
92 48 21
99 51 35
94 47 29
95 46 35
92 46 29
92 49 24
97 50 27
98 50 32
95 48 32
95 50 26
87 44 19
91 47 21
91 47 23
90 45 23
97 50 30
94 48 26
90 46 27
92 45 27
90 45 24
99 50 35
91 46 21
86 44 23
91 46 23
91 48 18
95 49 26
93 48 26
98 51 38
96 49 30
96 49 30
97 49 29
94 48 24
98 50 36
90 46 23
93 47 23
92 47 27
91 47 27
96 49 29
90 46 23
94 50 23
112 127 7
114 140 0
117 152 0
110 135 0
112 142 0
113 143 0
113 141 0
114 141 0
113 143 0
116 143 0
111 138 0
113 140 0
115 142 0
110 135 0
115 145 0
115 145 0
114 140 0
117 149 0
114 145 0
113 141 0
116 148 0
114 141 0
118 145 0
114 141 0
113 139 0
114 145 0
116 150 0
116 146 0
116 146 0
114 143 0
115 145 0
111 140 0
118 150 0
121 151 0
117 144 0
117 150 0
116 148 0
112 144 0
114 143 0
118 147 0
116 150 0
113 141 0
120 152 0
120 150 0
121 154 0
118 145 0
121 154 0
116 148 0
116 150 0
118 147 0
118 149 0
115 145 0
117 150 0
118 152 0
119 151 0
113 148 0
122 155 0
117 152 0
117 149 0
118 150 0
114 145 0
118 149 0
117 149 0
119 151 0
118 152 0
119 150 0
119 153 0
118 151 0
119 151 0
117 150 0
116 149 0
119 152 0
116 148 0
116 151 0
122 154 0
116 151 0
122 155 0
119 150 0
119 153 0
118 151 0
122 153 0
121 153 0
117 152 0
116 147 0
119 152 0
118 153 0
118 153 0
119 151 0
117 152 0
117 152 0
115 149 0
119 151 0
121 154 0
117 148 0
118 151 0
120 154 0
119 151 0
119 153 0
121 154 0
117 152 0
118 153 0
118 152 0
119 153 0
120 154 0
120 152 0
119 153 0
120 154 0
118 152 0
119 153 0
119 153 0
120 154 0
116 152 0
120 154 0
118 152 0
119 151 0
118 152 0
119 153 0
120 154 0
120 154 0
120 154 0
119 152 0
120 154 0
116 151 0
118 153 0
119 151 0
118 153 0
121 154 0
121 154 0
120 152 0
118 153 0
118 152 0
124 156 0
119 153 0
119 153 0
122 155 0
123 155 0
121 154 0
118 152 0
117 152 0
120 154 0
118 153 0
118 152 0
118 153 0
117 152 0
118 153 0
121 154 0
119 151 0
116 151 0
121 154 0
118 152 0
118 152 0
115 151 0
119 153 0
120 154 0
118 151 0
118 153 0
117 152 0
120 152 0
119 151 0
118 152 0
121 154 0
117 152 0
118 153 0
119 153 0
119 153 0
117 152 0
119 151 0
119 153 0
120 152 0
118 151 0
117 150 0
118 151 0
119 153 0
121 154 0
120 154 0
120 154 0
118 152 0
119 153 0
119 153 0
121 155 0
118 152 0
118 153 0
118 153 0
120 152 0
115 149 0
120 154 0
117 152 0
117 150 0
118 151 0
120 152 0
119 153 0
117 152 0
118 151 0
120 154 0
118 153 0
119 151 0
119 153 0
117 152 0
118 151 0
119 149 0
118 152 0
118 151 0
117 150 0
118 151 0
116 151 0
119 150 0
118 151 0
118 153 0
118 150 0
121 154 0
118 152 0
118 151 0
116 148 0
120 154 0
114 148 0
118 151 0
119 151 0
120 152 0
117 146 0
120 152 0
119 153 0
120 152 0
120 152 0
118 150 0
115 148 0
120 152 0
118 153 0
117 146 0
120 154 0
120 154 0
117 145 0
118 151 0
117 149 0
121 153 0
114 145 0
113 144 0
118 151 0
116 151 0
117 149 0
115 144 0
116 146 0
119 153 0
121 149 0
115 145 0
120 150 0
113 146 0
118 151 0
117 150 0
116 144 0
117 148 0
115 140 0
117 149 0
118 149 0
117 147 0
118 149 0
117 152 0
114 145 0
118 151 0
115 142 0
120 150 0
117 146 0
117 150 0
113 141 0
115 147 0
118 153 0
117 150 0
112 138 0
114 141 0
115 144 0
116 144 0
116 142 0
116 146 0
116 146 0
117 148 0
114 143 0
115 146 0
114 141 0
115 147 0
118 151 0
112 142 0
115 142 0
115 147 0
117 145 0
117 146 0
118 149 0
115 140 0
115 142 0
113 136 0
114 143 0
111 132 0
116 146 0
111 136 0
113 146 0
116 146 0
115 144 0
97 88 6
89 46 19
91 47 21
91 46 19
83 42 13
94 48 29
96 48 29
87 42 27
91 46 24
94 48 26
99 52 32
96 49 30
92 48 29
90 46 21
94 48 26
92 48 26
93 46 30
88 45 15
91 46 21
91 47 29
94 49 30
99 49 35
96 49 32
97 51 29
97 50 33
92 47 27
99 51 30
95 48 30
97 50 33
94 48 27
98 51 33
97 50 30
90 47 23
94 48 29
90 46 24
93 49 21
96 49 29
90 45 23
93 48 24
91 47 19
94 49 24
96 48 33
85 43 18
98 50 35
96 50 29
99 50 27
94 49 29
93 47 26
94 48 30
91 45 27
95 49 32
87 45 18
101 52 36
93 48 26
91 46 21
96 50 26
101 52 32
92 47 21
104 52 44
98 50 33
96 50 29
92 46 29
94 48 26
99 50 35
89 45 26
89 45 23
91 46 21
95 49 32
91 47 21
97 50 30
100 51 30
94 48 27
93 49 24
99 51 29
91 47 27
94 48 26
95 49 27
90 47 16
98 50 27
91 47 23
105 53 39
95 49 36
94 49 29
97 48 27
98 50 32
94 49 27
92 47 27
94 49 21
88 46 23
91 45 21
93 45 32
94 49 24
98 50 32
93 49 24
97 50 32
91 46 23
95 48 29
100 51 36
83 42 16
90 45 21
86 45 18
88 45 19
89 45 23
90 45 21
100 88 10
113 139 0
111 136 0
116 146 0
113 137 0
116 140 0
113 134 0
112 142 0
108 129 0
115 143 0
110 134 0
114 136 0
113 138 0
109 132 0
116 144 0
119 151 0
113 146 0
122 148 0
118 145 0
115 144 0
116 139 0
114 143 0
119 148 0
112 138 0
116 148 0
116 146 0
118 149 0
113 141 0
112 138 0
118 151 0
115 147 0
118 151 0
117 145 0
114 145 0
112 142 0
116 144 0
119 151 0
114 145 0
121 153 0
116 146 0
117 148 0
115 149 0
120 154 0
117 148 0
114 143 0
114 145 0
117 152 0
119 153 0
114 145 0
114 140 0
114 149 0
115 149 0
117 150 0
121 152 0
116 148 0
117 149 0
118 149 0
115 149 0
113 143 0
118 151 0
116 148 0
119 153 0
118 149 0
116 151 0
117 152 0
116 148 0
116 148 0
118 150 0
117 150 0
114 145 0
117 150 0
119 152 0
119 151 0
117 152 0
119 153 0
119 149 0
119 153 0
117 150 0
120 152 0
116 148 0
116 150 0
122 155 0
115 149 0
119 153 0
116 150 0
117 152 0
120 154 0
117 150 0
116 151 0
119 153 0
117 150 0
121 154 0
118 153 0
119 149 0
114 146 0
115 143 0
116 151 0
115 149 0
116 150 0
119 153 0
120 154 0
122 155 0
117 152 0
118 153 0
119 153 0
122 155 0
120 154 0
119 153 0
119 151 0
118 152 0
119 153 0
115 147 0
121 153 0
117 150 0
119 153 0
115 147 0
118 152 0
118 149 0
117 150 0
119 153 0
119 153 0
113 146 0
115 147 0
121 154 0
119 153 0
118 152 0
120 153 0
120 154 0
118 152 0
118 153 0
117 150 0
122 155 0
117 152 0
118 151 0
113 146 0
118 152 0
116 150 0
118 153 0
120 153 0
118 153 0
117 152 0
119 153 0
119 153 0
118 149 0
118 151 0
119 153 0
119 153 0
115 151 0
117 152 0
118 152 0
118 152 0
119 153 0
116 150 0
116 151 0
119 153 0
120 154 0
118 153 0
118 152 0
118 153 0
119 152 0
121 154 0
115 151 0
120 154 0
118 152 0
120 152 0
119 153 0
118 151 0
119 153 0
115 147 0
118 152 0
120 153 0
119 153 0
117 150 0
116 151 0
119 152 0
122 155 0
118 151 0
118 152 0
120 152 0
122 155 0
121 154 0
118 152 0
121 152 0
115 150 0
121 154 0
120 154 0
119 153 0
117 152 0
119 152 0
120 152 0
118 151 0
116 150 0
121 154 0
120 154 0
116 150 0
115 149 0
116 151 0
118 149 0
119 150 0
118 152 0
117 152 0
118 151 0
121 155 0
117 146 0
117 152 0
118 151 0
120 153 0
118 149 0
118 151 0
117 150 0
118 151 0
118 152 0
117 151 0
121 154 0
115 151 0
118 152 0
118 151 0
117 150 0
116 148 0
120 154 0
118 151 0
117 148 0
119 152 0
119 153 0
120 152 0
119 153 0
113 145 0
119 148 0
118 151 0
116 150 0
116 148 0
119 153 0
117 148 0
111 141 0
119 153 0
115 151 0
119 151 0
120 152 0
118 145 0
114 143 0
118 153 0
116 148 0
113 138 0
118 151 0
119 150 0
119 153 0
116 146 0
117 150 0
121 154 0
117 145 0
118 149 0
117 150 0
116 148 0
115 147 0
116 146 0
117 149 0
116 144 0
116 144 0
117 148 0
117 147 0
114 144 0
116 146 0
110 139 0
112 141 0
115 145 0
109 139 0
117 146 0
116 148 0
115 144 0
119 152 0
117 148 0
113 139 0
113 141 0
116 145 0
113 139 0
115 147 0
110 135 0
115 142 0
116 148 0
116 144 0
111 133 0
111 141 0
113 146 0
109 128 0
113 143 0
121 149 0
113 135 0
115 140 0
114 141 0
116 142 0
110 134 0
115 140 0
110 133 0
114 142 0
116 137 0
112 138 0
113 136 0
95 65 21
91 45 19
92 46 26
89 43 23
94 47 30
88 45 18
92 46 23
89 46 19
92 47 24
100 49 33
92 46 26
99 51 33
91 46 21
89 44 24
96 48 33
92 47 23
91 45 27
90 47 24
88 47 21
95 48 30
93 47 35
96 49 33
95 47 29
96 49 29
90 46 21
95 49 35
96 50 29
89 46 18
95 49 27
92 47 24
89 45 24
88 44 23
93 48 23
92 45 26
95 48 32
93 48 26
90 47 21
90 48 23
92 45 26
89 45 19
90 45 21
90 47 19
94 49 27
94 48 27
94 49 19
93 48 30
94 50 29
96 49 24
99 51 36
91 47 26
93 48 26
97 50 30
90 46 24
96 50 26
89 47 19
97 50 26
98 51 36
94 48 26
90 46 27
94 48 29
94 47 27
96 50 29
88 44 27
96 49 33
95 49 29
98 50 36
87 42 23
90 47 24
93 49 23
99 51 30
91 47 26
88 45 24
88 44 21
89 45 23
91 45 26
94 49 27
96 50 26
98 49 36
91 46 24
92 47 27
90 45 26
97 51 32
94 49 24
92 47 23
90 46 23
90 46 24
89 45 24
90 45 23
91 47 21
91 46 23
95 49 24
95 49 27
89 46 16
89 46 16
89 46 23
91 46 26
91 46 29
88 46 16
88 45 23
91 48 27
91 47 21
89 45 26
103 65 27
111 132 0
113 135 0
110 136 0
119 146 0
109 128 0
110 132 0
115 141 0
114 141 0
115 142 0
112 136 0
103 117 0
113 142 0
116 146 0
114 143 0
113 139 0
114 136 0
115 144 0
116 146 0
117 147 0
113 144 0
117 145 0
114 145 0
116 144 0
116 146 0
118 149 0
115 149 0
116 143 0
111 136 0
112 140 0
114 142 0
118 151 0
114 139 0
117 146 0
117 148 0
116 148 0
116 148 0
116 144 0
120 152 0
116 148 0
114 141 0
120 154 0
113 139 0
120 152 0
116 150 0
114 145 0
116 150 0
119 149 0
119 151 0
114 141 0
119 151 0
116 146 0
116 148 0
114 143 0
118 150 0
118 147 0
118 151 0
121 155 0
117 149 0
118 149 0
117 150 0
120 150 0
117 150 0
118 151 0
120 154 0
119 151 0
116 150 0
116 151 0
116 143 0
120 152 0
115 151 0
116 146 0
117 150 0
120 152 0
115 151 0
117 152 0
115 147 0
119 149 0
112 145 0
118 152 0
118 151 0
116 148 0
115 147 0
117 150 0
117 152 0
119 151 0
115 147 0
118 151 0
119 151 0
114 147 0
121 153 0
119 149 0
116 150 0
118 153 0
117 152 0
120 154 0
120 154 0
119 151 0
116 150 0
117 152 0
118 152 0
118 152 0
117 149 0
115 149 0
122 155 0
118 151 0
115 147 0
121 152 0
118 153 0
116 149 0
120 152 0
118 149 0
117 149 0
115 149 0
115 151 0
119 153 0
117 152 0
118 151 0
117 150 0
118 152 0
117 152 0
120 154 0
116 148 0
119 153 0
119 153 0
117 150 0
119 151 0
120 152 0
117 152 0
117 152 0
118 151 0
118 152 0
117 152 0
116 150 0
119 153 0
120 154 0
116 151 0
119 151 0
115 149 0
121 153 0
115 149 0
116 150 0
117 148 0
118 152 0
118 152 0
119 153 0
119 153 0
115 149 0
118 153 0
119 153 0
120 154 0
119 151 0
117 152 0
122 155 0
120 154 0
119 153 0
117 152 0
117 152 0
122 155 0
118 152 0
121 154 0
116 148 0
119 151 0
117 150 0
118 151 0
118 152 0
116 150 0
116 149 0
121 154 0
119 151 0
122 155 0
120 154 0
119 149 0
121 154 0
119 151 0
122 153 0
116 150 0
120 154 0
118 153 0
115 149 0
118 150 0
118 153 0
121 154 0
117 152 0
119 153 0
121 153 0
118 149 0
119 153 0
118 152 0
116 150 0
119 152 0
118 153 0
117 150 0
118 152 0
117 152 0
117 150 0
120 154 0
118 153 0
120 154 0
120 151 0
118 153 0
118 151 0
119 153 0
117 150 0
119 153 0
121 154 0
119 151 0
115 145 0
115 149 0
116 148 0
122 155 0
120 154 0
117 151 0
119 152 0
120 154 0
114 143 0
118 151 0
118 147 0
118 152 0
118 150 0
119 153 0
114 149 0
119 151 0
118 151 0
115 145 0
115 147 0
115 151 0
116 148 0
118 153 0
118 151 0
119 149 0
117 150 0
117 147 0
118 151 0
116 148 0
119 151 0
119 150 0
118 149 0
117 147 0
118 149 0
117 150 0
113 144 0
115 148 0
119 153 0
116 143 0
116 146 0
121 151 0
116 146 0
114 147 0
116 147 0
117 149 0
117 150 0
118 149 0
114 145 0
117 148 0
114 147 0
114 141 0
119 153 0
117 143 0
118 151 0
111 140 0
112 142 0
117 147 0
115 144 0
116 150 0
115 138 0
115 147 0
113 141 0
119 151 0
113 139 0
117 149 0
119 144 0
116 148 0
117 145 0
116 144 0
112 142 0
112 139 0
115 144 0
116 141 0
116 148 0
117 144 0
112 142 0
112 137 0
118 146 0
114 136 0
109 135 0
115 143 0
112 141 0
112 135 0
114 141 0
110 139 0
113 139 0
110 135 0
114 138 0
112 135 0
115 137 0
110 129 0
119 146 0
112 133 1
94 50 23
93 49 21
83 42 12
90 45 27
94 47 27
91 46 21
90 46 19
88 45 18
91 46 29
98 50 33
93 48 27
92 46 27
95 49 30
96 50 29
89 46 19
90 45 26
93 47 29
92 47 24
88 46 13
87 45 18
94 47 27
89 42 23
92 48 27
88 46 16
90 46 21
93 46 26
93 48 19
96 50 30
86 44 27
101 53 38
88 45 15
91 44 19
88 45 24
92 47 29
92 47 26
95 47 24
94 49 26
97 51 29
92 47 27
94 48 27
92 48 27
93 48 30
86 42 23
92 47 29
96 50 29
90 46 27
93 48 30
91 47 23
85 42 23
96 49 30
98 51 29
97 50 29
99 50 35
96 49 27
88 45 21
93 44 30
95 49 33
97 50 32
91 47 19
100 50 35
90 46 30
95 50 24
90 45 16
100 52 30
101 51 41
90 47 26
89 47 21
89 46 18
90 46 19
98 49 32
91 47 27
101 51 35
92 46 26
91 46 23
92 47 23
93 46 29
92 47 24
95 50 26
96 49 26
94 48 23
92 48 23
87 45 19
95 48 29
88 46 21
91 46 24
90 46 24
93 49 23
94 47 23
89 44 23
89 44 19
95 49 32
91 46 19
93 46 27
93 47 26
93 47 30
98 49 36
94 48 30
90 44 23
89 45 27
90 44 21
88 48 15
106 117 3
111 139 0
114 142 0
110 130 0
115 140 0
115 138 0
108 130 0
120 148 0
113 135 0
111 132 0
110 132 0
115 145 0
116 143 0
116 142 0
108 132 0
117 149 0
113 141 0
115 145 0
116 141 0
113 139 0
117 145 0
114 147 0
113 142 0
117 145 0
110 135 0
116 148 0
114 143 0
115 135 0
116 146 0
113 144 0
114 145 0
113 137 0
116 150 0
117 147 0
116 146 0
117 148 0
113 143 0
116 148 0
111 143 0
112 142 0
111 138 0
114 145 0
112 140 0
115 140 0
113 143 0
118 152 0
118 147 0
116 148 0
118 153 0
117 149 0
117 145 0
118 149 0
116 146 0
119 151 0
116 144 0
117 145 0
115 149 0
116 150 0
119 153 0
119 150 0
118 152 0
115 147 0
119 149 0
116 149 0
116 148 0
117 150 0
120 154 0
116 146 0
118 153 0
117 150 0
119 151 0
117 152 0
119 153 0
121 154 0
116 150 0
117 152 0
116 148 0
118 151 0
117 150 0
119 153 0
121 149 0
119 151 0
119 153 0
118 151 0
120 152 0
113 144 0
117 152 0
120 151 0
117 152 0
116 151 0
117 152 0
120 154 0
117 150 0
114 146 0
119 152 0
115 151 0
120 152 0
121 152 0
119 153 0
116 150 0
116 151 0
118 151 0
118 151 0
119 153 0
115 149 0
118 149 0
118 151 0
118 153 0
120 152 0
120 152 0
121 153 0
118 153 0
119 153 0
118 151 0
118 151 0
120 153 0
117 152 0
118 153 0
115 149 0
118 150 0
118 149 0
120 154 0
118 153 0
117 150 0
119 153 0
118 153 0
119 152 0
120 154 0
118 153 0
121 154 0
117 148 0
119 151 0
119 153 0
119 153 0
117 152 0
119 151 0
118 151 0
118 151 0
123 155 0
121 154 0
117 150 0
119 153 0
120 154 0
118 153 0
118 151 0
120 154 0
118 152 0
116 150 0
118 151 0
120 154 0
119 153 0
121 154 0
119 151 0
120 154 0
119 151 0
119 153 0
121 152 0
120 152 0
118 151 0
117 152 0
119 153 0
119 153 0
117 150 0
120 154 0
120 154 0
121 154 0
118 152 0
122 155 0
118 149 0
121 154 0
117 149 0
122 155 0
117 152 0
118 152 0
117 150 0
118 153 0
117 148 0
122 153 0
118 153 0
121 153 0
116 150 0
116 150 0
120 154 0
120 154 0
124 156 0
119 153 0
118 152 0
114 147 0
121 154 0
120 154 0
119 149 0
116 151 0
120 153 0
119 151 0
117 150 0
116 148 0
118 151 0
122 155 0
120 154 0
120 154 0
116 150 0
119 149 0
119 148 0
120 154 0
119 148 0
120 154 0
119 153 0
122 155 0
117 150 0
120 154 0
117 150 0
118 153 0
119 153 0
119 153 0
117 152 0
118 149 0
119 150 0
119 153 0
112 142 0
115 151 0
114 145 0
117 150 0
117 150 0
117 148 0
117 149 0
118 149 0
116 146 0
118 149 0
117 147 0
115 146 0
122 155 0
119 151 0
118 151 0
117 147 0
119 153 0
117 148 0
116 148 0
112 141 0
120 152 0
118 149 0
118 151 0
118 151 0
117 148 0
113 137 0
116 151 0
116 144 0
114 141 0
120 154 0
114 148 0
112 139 0
116 146 0
118 151 0
115 149 0
114 149 0
117 145 0
116 146 0
118 144 0
117 150 0
118 149 0
116 146 0
119 150 0
118 151 0
115 147 0
113 143 0
111 138 0
112 133 0
114 148 0
116 144 0
113 145 0
117 147 0
114 143 0
115 148 0
113 144 0
114 139 0
118 147 0
111 142 0
114 145 0
115 144 0
113 139 0
114 140 0
112 134 0
113 141 0
114 143 0
118 146 0
111 136 0
112 130 0
116 143 0
115 142 0
112 137 0
116 145 0
107 125 0
118 147 0
113 135 0
116 143 0
111 134 0
111 134 0
113 137 0
107 124 0
109 131 0
104 105 7
88 45 24
83 40 15
92 46 26
82 41 12
84 42 15
89 46 19
87 44 23
97 49 29
92 47 26
89 46 19
87 43 21
90 46 23
94 49 24
81 41 19
98 49 30
92 48 21
87 44 19
93 48 29
86 43 18
94 47 21
93 48 27
95 49 29
92 46 24
93 48 23
100 51 36
89 46 19
95 49 32
91 46 24
85 45 16
94 47 29
94 48 29
89 45 23
91 47 27
97 50 30
96 50 29
96 49 26
92 47 30
89 46 18
98 51 29
94 47 27
95 48 33
90 46 27
94 48 27
93 48 21
93 48 32
83 42 13
92 48 23
91 47 24
94 47 27
91 46 27
100 51 38
96 48 29
94 49 29
98 51 30
88 46 16
100 50 39
89 45 21
94 48 27
90 45 23
91 47 21
96 49 32
90 46 26
86 44 15
92 47 21
93 49 24
94 47 32
88 43 24
98 50 30
95 49 30
96 48 32
91 47 26
93 47 23
93 48 27
101 53 36
96 48 29
87 44 19
96 50 32
100 52 33
89 46 23
89 46 21
90 46 23
87 45 18
95 50 32
89 44 23
95 49 30
98 50 33
94 48 27
92 47 26
86 43 16
94 48 24
93 47 26
91 47 21
87 44 21
90 46 21
88 43 18
90 45 24
92 49 23
88 45 16
90 49 19
106 117 3
106 128 0
112 135 0
113 137 0
112 137 0
112 131 0
108 134 0
108 125 0
114 139 0
114 138 0
113 141 0
110 135 0
109 128 0
113 137 0
108 129 0
112 140 0
111 134 0
113 135 0
114 144 0
117 146 0
114 141 0
113 142 0
117 143 0
116 146 0
112 136 0
113 137 0
115 144 0
117 147 0
111 143 0
114 143 0
118 145 0
110 137 0
116 146 0
114 147 0
119 152 0
113 146 0
116 145 0
116 146 0
117 147 0
116 150 0
117 145 0
116 148 0
117 145 0
118 150 0
119 150 0
120 148 0
118 147 0
118 149 0
116 147 0
116 146 0
115 146 0
115 144 0
117 148 0
112 138 0
119 148 0
120 152 0
114 143 0
117 148 0
114 139 0
116 145 0
117 151 0
118 153 0
115 143 0
119 151 0
113 144 0
116 146 0
114 150 0
119 151 0
115 149 0
115 146 0
118 153 0
117 148 0
119 151 0
119 153 0
118 151 0
121 152 0
117 149 0
117 152 0
116 150 0
116 151 0
117 152 0
117 148 0
118 151 0
120 154 0
118 151 0
118 149 0
117 150 0
118 153 0
120 154 0
117 150 0
116 149 0
116 150 0
118 151 0
119 153 0
119 152 0
118 153 0
117 152 0
118 152 0
119 153 0
116 151 0
119 151 0
117 150 0
119 153 0
114 150 0
122 155 0
120 153 0
117 148 0
119 153 0
118 152 0
117 152 0
117 148 0
119 151 0
117 152 0
118 151 0
121 152 0
119 151 0
118 151 0
119 153 0
117 152 0
120 153 0
115 149 0
115 151 0
121 155 0
118 153 0
121 154 0
117 150 0
119 150 0
113 148 0
119 153 0
123 155 0
118 151 0
121 154 0
120 152 0
122 153 0
116 152 0
119 151 0
117 152 0
121 154 0
120 154 0
119 153 0
115 149 0
119 151 0
116 149 0
117 152 0
121 154 0
119 153 0
120 152 0
119 153 0
115 151 0
120 152 0
117 150 0
122 153 0
117 152 0
119 153 0
116 152 0
115 147 0
118 152 0
117 152 0
118 151 0
119 153 0
121 154 0
118 152 0
120 154 0
119 153 0
120 152 0
116 151 0
119 153 0
119 151 0
118 152 0
117 150 0
119 153 0
117 150 0
119 153 0
120 154 0
120 153 0
119 153 0
116 151 0
122 153 0
118 152 0
118 151 0
119 153 0
118 151 0
118 153 0
116 149 0
117 152 0
119 153 0
117 152 0
124 156 0
119 153 0
118 152 0
116 151 0
119 153 0
118 151 0
117 150 0
118 153 0
119 153 0
118 151 0
118 151 0
115 149 0
117 147 0
116 150 0
120 154 0
117 152 0
118 153 0
116 151 0
118 147 0
120 152 0
116 146 0
117 149 0
116 148 0
117 150 0
115 148 0
121 152 0
117 150 0
121 153 0
119 151 0
121 152 0
116 150 0
117 150 0
118 150 0
119 153 0
120 150 0
119 151 0
113 144 0
118 149 0
117 152 0
118 149 0
118 151 0
113 148 0
114 146 0
121 153 0
119 153 0
120 154 0
116 150 0
119 151 0
113 144 0
118 151 0
120 152 0
120 152 0
118 148 0
116 148 0
119 149 0
116 146 0
117 148 0
118 147 0
116 150 0
116 148 0
114 145 0
115 138 0
118 151 0
113 143 0
116 151 0
113 141 0
117 149 0
119 147 0
115 147 0
119 153 0
115 147 0
120 150 0
118 147 0
113 139 0
114 145 0
113 144 0
115 147 0
113 142 0
115 146 0
118 149 0
114 143 0
117 145 0
117 147 0
110 139 0
114 140 0
114 141 0
112 137 0
114 143 0
114 141 0
117 147 0
111 138 0
119 149 0
110 130 0
112 142 0
117 147 0
113 140 0
109 133 0
111 136 0
108 131 0
109 135 0
112 142 0
113 131 0
112 138 0
115 142 0
111 131 0
111 136 0
116 146 0
104 126 0
111 131 0
110 122 0
115 138 0
106 126 0
112 133 0
108 120 0
107 106 6
88 45 16
91 47 21
92 47 26
85 43 13
88 45 23
90 45 23
89 46 21
91 46 23
94 46 27
92 47 19
85 43 18
84 42 19
94 49 23
94 49 27
90 44 19
84 41 13
96 48 26
94 47 24
88 45 16
93 48 26
90 46 18
92 47 26
96 48 29
93 45 27
90 46 24
100 52 35
90 46 27
87 46 21
91 45 26
90 45 26
91 47 19
86 43 19
95 49 32
95 49 29
90 46 23
86 44 19
96 51 32
97 49 30
89 43 21
96 50 30
100 52 35
92 46 30
91 46 26
102 52 38
93 48 27
93 48 26
88 46 19
92 47 26
92 46 26
94 48 33
94 48 27
92 46 29
90 44 27
94 48 24
94 48 29
95 48 26
92 45 26
90 48 19
92 48 21
84 42 18
90 46 26
94 47 23
89 44 24
93 48 30
92 48 21
94 49 27
93 48 21
96 50 32
93 48 23
87 45 16
94 48 26
91 49 19
97 50 30
88 44 21
98 50 32
89 45 19
89 46 19
96 49 29
97 48 33
91 46 21
100 51 29
98 51 32
93 49 23
94 48 23
93 47 23
96 48 27
88 44 21
89 47 24
88 43 26
86 41 18
95 49 26
92 47 23
90 46 21
87 44 23
93 46 27
91 44 23
92 48 16
94 87 7
114 136 0
114 142 0
107 127 0
108 121 0
110 129 0
108 132 0
110 130 0
112 138 0
107 125 0
111 133 0
112 133 0
109 129 0
112 133 0
117 150 0
118 152 0
111 135 0
116 135 0
117 141 0
113 137 0
117 143 0
111 138 0
114 136 0
116 142 0
113 143 0
109 131 0
112 138 0
114 136 0
116 144 0
113 140 0
114 140 0
110 133 0
112 136 0
113 137 0
120 152 0
115 146 0
114 146 0
115 143 0
115 147 0
114 141 0
116 145 0
119 149 0
113 140 0
116 150 0
118 149 0
118 149 0
113 141 0
114 143 0
116 148 0
115 149 0
118 147 0
114 145 0
117 150 0
114 144 0
115 144 0
114 145 0
113 146 0
117 145 0
115 147 0
120 150 0
115 142 0
116 148 0
118 147 0
114 143 0
119 149 0
116 146 0
116 151 0
115 149 0
117 150 0
117 150 0
120 154 0
118 151 0
111 143 0
116 148 0
118 153 0
114 150 0
118 149 0
115 143 0
120 154 0
115 149 0
119 153 0
120 152 0
116 146 0
116 144 0
120 153 0
114 147 0
116 146 0
120 152 0
118 151 0
118 149 0
120 154 0
116 150 0
117 150 0
119 153 0
119 151 0
120 154 0
118 151 0
120 154 0
116 148 0
119 151 0
116 149 0
121 151 0
114 145 0
119 151 0
118 152 0
118 152 0
116 150 0
119 153 0
117 150 0
115 149 0
118 149 0
119 151 0
120 154 0
117 152 0
119 153 0
121 154 0
118 153 0
123 156 0
117 148 0
118 151 0
118 151 0
119 153 0
120 154 0
116 149 0
119 149 0
118 153 0
120 152 0
117 149 0
119 153 0
113 150 0
117 150 0
117 150 0
119 153 0
122 155 0
117 150 0
120 154 0
121 154 0
118 153 0
121 154 0
121 154 0
116 150 0
117 152 0
119 153 0
117 152 0
119 153 0
119 153 0
118 151 0
115 151 0
118 151 0
118 152 0
116 151 0
119 153 0
120 154 0
119 153 0
119 153 0
118 151 0
118 151 0
121 155 0
119 151 0
118 151 0
116 148 0
118 152 0
118 149 0
117 152 0
117 150 0
114 147 0
119 153 0
120 154 0
119 153 0
118 151 0
121 154 0
114 148 0
117 150 0
117 150 0
119 152 0
117 149 0
119 153 0
116 150 0
116 148 0
116 148 0
119 151 0
117 148 0
116 150 0
119 151 0
120 154 0
120 153 0
122 155 0
120 154 0
119 153 0
117 152 0
118 153 0
119 153 0
117 152 0
119 151 0
117 148 0
119 150 0
115 147 0
118 151 0
115 149 0
118 152 0
117 152 0
116 146 0
120 154 0
117 150 0
121 154 0
118 151 0
120 154 0
117 150 0
121 152 0
119 153 0
114 145 0
119 153 0
119 151 0
120 154 0
121 149 0
118 153 0
116 149 0
119 153 0
119 151 0
117 146 0
117 148 0
116 146 0
114 147 0
117 148 0
120 150 0
119 153 0
117 148 0
114 143 0
116 150 0
115 147 0
116 151 0
115 147 0
116 148 0
119 151 0
121 154 0
115 147 0
118 153 0
118 151 0
117 148 0
119 150 0
115 144 0
117 147 0
113 142 0
116 148 0
117 148 0
115 146 0
111 138 0
119 151 0
115 145 0
117 148 0
116 152 0
113 144 0
117 147 0
117 150 0
115 145 0
114 141 0
116 144 0
114 143 0
114 143 0
112 140 0
117 147 0
114 147 0
115 147 0
117 148 0
111 140 0
114 147 0
116 146 0
118 147 0
113 143 0
112 137 0
114 141 0
117 152 0
115 146 0
114 134 0
112 138 0
111 129 0
113 140 0
115 140 0
112 144 0
106 123 0
115 145 0
110 138 0
111 131 0
107 128 0
111 136 0
112 137 0
111 138 0
107 127 0
112 138 0
117 146 0
112 137 0
110 138 0
111 130 0
112 133 0
108 130 0
110 131 0
109 128 0
110 138 0
103 119 0
107 129 0
107 126 0
112 129 0
110 123 0
103 99 6
79 38 10
83 42 18
80 39 15
84 42 19
86 43 18
90 46 24
93 46 27
86 43 23
91 46 21
90 45 26
89 45 24
93 45 29
88 44 21
89 44 23
86 43 15
85 43 18
92 45 29
92 46 23
93 49 27
94 48 27
92 48 26
89 45 19
88 45 13
88 46 16
93 49 18
90 45 21
94 48 23
91 46 26
89 44 23
94 49 24
94 49 29
98 51 32
94 48 27
94 47 26
92 45 21
86 42 13
96 49 27
93 46 32
90 46 23
94 49 26
99 50 35
92 47 23
92 48 23
92 47 27
88 45 19
90 46 30
85 42 19
94 47 29
85 44 15
90 45 24
92 48 23
95 48 30
92 47 26
89 44 23
95 49 27
91 47 23
91 47 19
84 43 18
90 45 19
87 45 19
93 47 27
91 45 23
94 48 29
91 45 23
94 47 21
93 49 21
90 44 26
93 48 24
98 50 35
91 47 23
88 46 16
96 50 29
95 48 30
86 45 19
91 48 16
88 46 18
85 41 19
90 45 24
96 48 27
98 50 30
96 50 26
95 48 29
88 45 18
96 48 33
93 48 27
97 50 32
86 42 24
92 48 21
91 45 23
89 45 23
87 45 19
91 46 24
95 48 30
87 44 18
87 42 21
97 90 4
113 135 0
111 130 0
107 127 0
105 122 0
105 120 0
115 143 0
111 132 0
106 121 0
111 127 0
118 145 0
113 138 0
112 133 0
107 129 0
111 134 0
112 137 0
107 128 0
107 122 0
113 135 0
111 138 0
111 130 0
110 134 0
113 136 0
110 128 0
115 140 0
111 134 0
118 151 0
111 138 0
114 139 0
115 143 0
112 142 0
112 135 0
114 143 0
113 142 0
114 141 0
115 144 0
114 145 0
115 142 0
117 139 0
116 146 0
113 142 0
116 144 0
118 151 0
112 140 0
116 146 0
116 149 0
117 143 0
116 148 0
118 149 0
116 148 0
114 146 0
119 150 0
116 145 0
115 146 0
121 151 0
117 147 0
117 148 0
114 143 0
115 145 0
116 144 0
115 147 0
115 147 0
113 146 0
119 153 0
113 143 0
120 152 0
119 149 0
117 150 0
116 152 0
115 149 0
116 148 0
115 144 0
118 149 0
117 148 0
116 149 0
118 153 0
115 149 0
115 145 0
119 150 0
118 152 0
117 148 0
117 148 0
117 150 0
116 147 0
123 155 0
119 153 0
117 150 0
115 148 0
119 153 0
117 150 0
118 151 0
120 150 0
118 148 0
117 150 0
120 154 0
120 148 0
120 150 0
116 146 0
119 153 0
120 154 0
118 151 0
117 152 0
119 153 0
117 150 0
117 152 0
116 151 0
118 151 0
118 153 0
119 153 0
122 155 0
117 147 0
118 149 0
116 151 0
121 154 0
117 146 0
120 152 0
120 152 0
119 153 0
120 154 0
118 151 0
117 152 0
119 151 0
117 152 0
117 152 0
117 150 0
117 152 0
119 153 0
116 149 0
120 154 0
114 147 0
117 152 0
115 145 0
121 152 0
117 152 0
117 150 0
116 151 0
117 150 0
122 155 0
115 147 0
119 153 0
115 149 0
119 153 0
117 152 0
117 152 0
115 151 0
118 153 0
119 153 0
119 153 0
118 151 0
120 152 0
117 152 0
118 151 0
119 153 0
117 152 0
122 155 0
120 154 0
118 149 0
117 150 0
118 152 0
121 155 0
118 152 0
120 154 0
117 152 0
114 150 0
113 148 0
118 151 0
117 150 0
118 152 0
115 149 0
119 153 0
119 153 0
119 153 0
121 154 0
117 152 0
118 151 0
120 152 0
118 153 0
117 150 0
115 145 0
119 153 0
119 153 0
117 149 0
120 152 0
120 154 0
120 154 0
120 154 0
115 147 0
121 154 0
119 151 0
116 150 0
115 151 0
122 155 0
116 151 0
120 152 0
120 152 0
119 153 0
117 150 0
116 150 0
118 153 0
118 153 0
118 151 0
117 152 0
117 150 0
116 149 0
113 144 0
121 154 0
115 147 0
118 150 0
119 151 0
119 153 0
120 154 0
116 148 0
117 146 0
115 145 0
118 149 0
118 149 0
117 149 0
115 151 0
116 149 0
117 148 0
117 148 0
122 155 0
116 148 0
118 149 0
118 151 0
117 144 0
116 148 0
118 152 0
120 152 0
112 141 0
118 149 0
118 151 0
115 145 0
118 153 0
113 141 0
114 143 0
117 150 0
117 149 0
115 147 0
119 151 0
114 145 0
117 150 0
118 153 0
118 149 0
113 143 0
116 147 0
114 147 0
118 151 0
117 145 0
117 146 0
115 146 0
119 151 0
115 144 0
113 139 0
119 150 0
115 145 0
115 145 0
114 139 0
113 139 0
111 138 0
113 143 0
115 140 0
116 143 0
110 136 0
115 144 0
109 133 0
117 146 0
115 144 0
117 146 0
116 144 0
116 148 0
114 147 0
112 142 0
114 142 0
113 141 0
117 143 0
112 138 0
113 136 0
113 132 0
116 142 0
113 143 0
112 137 0
114 138 0
116 144 0
112 142 0
109 129 0
110 134 0
113 141 0
116 141 0
109 133 0
109 134 0
111 138 0
107 123 0
112 132 0
113 135 0
115 140 0
105 125 0
110 130 0
98 107 0
111 130 0
112 132 0
112 133 0
103 113 0
108 121 0
102 113 0
93 63 12
85 43 19
88 45 24
94 49 29
86 43 18
92 46 26
79 38 13
87 44 16
87 44 24
80 40 13
88 44 23
93 47 23
90 47 19
88 45 18
92 46 26
90 47 18
89 46 15
89 43 16
96 49 24
87 43 23
90 47 24
92 48 18
93 48 26
89 45 19
87 44 24
98 49 29
93 48 27
89 45 23
87 44 19
98 49 29
99 51 29
92 46 26
99 51 32
88 45 13
87 45 19
85 43 16
92 47 21
92 46 27
86 43 23
95 48 26
95 48 29
86 44 18
88 46 15
95 47 26
95 50 24
89 46 23
89 45 21
87 46 16
91 47 24
92 47 19
92 46 26
98 51 35
92 47 23
88 45 26
98 49 33
97 49 32
94 47 29
95 49 26
96 49 30
90 46 15
87 46 21
93 48 29
94 48 30
97 50 33
92 47 26
95 48 29
96 49 29
92 47 24
87 45 19
91 45 23
88 44 21
85 43 18
92 47 26
94 49 24
91 46 24
91 46 24
93 47 23
90 47 23
96 48 29
96 48 30
92 47 24
91 46 27
92 47 26
93 47 29
87 44 23
90 45 24
91 46 26
90 47 19
84 44 13
89 45 13
92 46 23
90 44 24
85 44 15
83 42 16
99 88 9
107 121 0
105 114 0
111 134 0
101 120 0
115 138 0
109 128 0
112 137 0
103 119 0
107 131 0
114 136 0
112 133 0
111 136 0
108 127 0
115 138 0
108 121 0
103 121 0
114 143 0
111 138 0
113 134 0
110 131 0
116 139 0
115 144 0
111 132 0
115 143 0
112 140 0
109 128 0
111 134 0
112 137 0
110 132 0
115 143 0
113 137 0
112 138 0
112 146 0
117 145 0
117 145 0
113 143 0
113 138 0
115 140 0
117 147 0
113 141 0
114 138 0
115 140 0
118 151 0
112 144 0
110 137 0
113 140 0
121 153 0
118 149 0
116 142 0
114 141 0
118 151 0
118 153 0
119 153 0
116 143 0
120 152 0
120 154 0
115 143 0
114 145 0
117 150 0
111 130 0
113 141 0
117 146 0
116 146 0
117 147 0
118 149 0
115 146 0
118 149 0
117 150 0
115 147 0
118 145 0
119 149 0
116 146 0
118 151 0
115 146 0
116 144 0
121 152 0
116 146 0
117 148 0
118 145 0
118 153 0
118 149 0
121 154 0
118 149 0
120 152 0
118 153 0
120 154 0
119 149 0
116 144 0
116 148 0
115 146 0
115 149 0
120 154 0
115 151 0
118 151 0
118 152 0
117 150 0
120 154 0
117 152 0
116 148 0
117 152 0
122 155 0
118 150 0
116 150 0
116 146 0
117 149 0
119 153 0
119 151 0
118 144 0
122 155 0
117 150 0
120 152 0
119 153 0
122 153 0
122 155 0
118 151 0
121 155 0
119 146 0
119 153 0
116 150 0
121 154 0
119 151 0
115 149 0
116 152 0
118 151 0
120 154 0
119 153 0
115 149 0
118 152 0
118 152 0
121 154 0
118 152 0
119 153 0
118 149 0
121 153 0
119 153 0
118 151 0
119 153 0
119 153 0
118 153 0
118 151 0
117 150 0
119 153 0
116 150 0
117 150 0
117 152 0
122 155 0
120 152 0
118 151 0
119 151 0
117 152 0
117 150 0
118 151 0
121 154 0
115 149 0
119 153 0
119 153 0
117 150 0
121 154 0
119 153 0
116 149 0
118 151 0
119 153 0
120 152 0
117 152 0
115 145 0
115 149 0
119 153 0
116 148 0
120 154 0
118 151 0
118 149 0
117 152 0
117 148 0
121 153 0
120 153 0
116 149 0
120 152 0
118 152 0
121 154 0
122 155 0
121 154 0
118 153 0
118 150 0
119 153 0
119 153 0
116 148 0
121 153 0
120 152 0
118 151 0
119 153 0
119 153 0
117 152 0
122 153 0
118 151 0
120 153 0
117 152 0
119 151 0
115 147 0
117 152 0
117 150 0
118 152 0
123 154 0
119 149 0
118 150 0
119 149 0
118 149 0
118 145 0
118 152 0
120 150 0
119 153 0
118 151 0
119 149 0
120 152 0
117 152 0
116 146 0
121 154 0
117 147 0
115 147 0
114 143 0
115 142 0
117 152 0
119 153 0
113 144 0
118 152 0
115 143 0
117 149 0
116 146 0
117 148 0
119 150 0
118 151 0
117 148 0
118 149 0
117 146 0
120 150 0
113 144 0
116 146 0
119 152 0
119 150 0
114 147 0
115 145 0
118 149 0
118 149 0
116 147 0
113 141 0
117 147 0
120 152 0
118 149 0
115 147 0
117 146 0
110 141 0
115 145 0
115 142 0
116 146 0
114 141 0
114 143 0
113 141 0
115 142 0
115 144 0
115 142 0
115 149 0
117 145 0
113 142 0
116 146 0
115 143 0
113 139 0
117 148 0
112 139 0
112 137 0
113 141 0
119 142 0
118 149 0
115 143 0
109 129 0
115 144 0
114 141 0
113 142 0
112 138 0
109 129 0
116 141 0
111 136 0
111 138 0
115 140 0
111 134 0
111 137 0
109 129 0
100 117 0
113 141 0
111 136 0
111 132 0
109 135 0
110 129 0
111 134 0
111 131 0
105 124 0
109 127 0
109 128 0
110 133 0
108 129 0
109 128 0
103 120 0
111 128 0
109 128 0
101 106 0
108 127 0
105 122 0
105 111 1
89 73 4
83 42 12
87 45 18
92 45 27
85 44 15
91 47 23
89 44 19
86 43 21
91 47 24
91 46 27
93 47 29
89 45 24
88 45 21
89 45 24
95 48 27
89 46 16
92 46 29
88 44 21
91 46 27
95 49 26
91 46 23
96 48 26
91 47 21
90 44 26
92 48 21
90 45 24
99 51 30
87 45 18
89 45 19
97 51 27
101 50 35
95 48 29
86 44 19
94 48 27
94 48 32
95 49 29
92 45 24
91 46 27
91 46 26
90 43 30
95 49 27
86 44 18
95 48 26
88 46 13
96 49 30
96 49 29
89 45 21
95 50 23
105 54 41
88 46 13
97 51 32
93 47 24
90 46 19
93 49 26
92 46 23
91 47 19
91 46 19
93 48 24
91 45 26
91 46 30
90 46 21
88 44 23
90 45 19
97 50 33
95 48 29
87 44 18
98 50 30
97 49 33
91 47 24
93 47 23
95 48 30
96 50 29
86 44 18
96 48 35
92 47 24
93 47 24
88 45 18
87 44 21
91 46 24
85 41 18
90 46 24
90 46 16
97 50 33
83 42 15
91 46 26
90 46 21
93 48 21
92 47 23
91 45 29
87 44 16
92 46 26
82 41 13
91 75 9
108 125 0
105 120 0
109 127 0
102 112 0
108 130 0
106 120 0
108 126 0
106 122 0
108 124 0
113 137 0
112 132 0
110 130 0
106 124 0
104 120 0
112 137 0
113 139 0
107 128 0
105 124 0
111 134 0
115 142 0
110 130 0
111 139 0
112 140 0
114 145 0
112 135 0
114 138 0
109 126 0
111 136 0
116 146 0
114 141 0
113 135 0
119 150 0
108 134 0
116 144 0
115 142 0
114 145 0
117 149 0
118 147 0
110 137 0
113 137 0
116 143 0
118 153 0
116 146 0
113 141 0
112 146 0
113 140 0
114 145 0
115 146 0
113 144 0
115 147 0
114 143 0
115 142 0
120 154 0
119 149 0
113 142 0
116 144 0
114 143 0
117 148 0
115 146 0
118 152 0
112 138 0
114 144 0
115 142 0
117 152 0
115 142 0
114 143 0
115 142 0
116 146 0
113 146 0
117 148 0
118 148 0
114 139 0
115 147 0
115 147 0
117 148 0
119 150 0
117 150 0
120 150 0
115 146 0
119 153 0
121 151 0
115 149 0
118 151 0
119 153 0
117 152 0
118 153 0
116 148 0
120 150 0
121 154 0
117 148 0
114 143 0
118 153 0
119 152 0
119 153 0
120 154 0
121 152 0
119 153 0
119 152 0
119 152 0
120 154 0
120 150 0
119 153 0
117 148 0
121 154 0
119 153 0
117 148 0
119 153 0
120 154 0
119 151 0
118 152 0
118 152 0
119 153 0
117 152 0
118 153 0
120 154 0
115 147 0
118 153 0
116 151 0
115 149 0
120 154 0
118 149 0
116 149 0
118 153 0
116 150 0
114 148 0
120 154 0
115 149 0
119 153 0
119 153 0
119 147 0
118 152 0
118 153 0
115 151 0
116 148 0
120 154 0
122 155 0
119 153 0
119 153 0
116 148 0
119 153 0
118 153 0
121 154 0
118 151 0
119 153 0
119 153 0
121 155 0
118 150 0
121 155 0
116 146 0
119 153 0
117 152 0
119 153 0
116 149 0
119 151 0
120 154 0
116 151 0
120 152 0
118 151 0
119 150 0
118 152 0
117 150 0
117 152 0
122 155 0
118 153 0
118 151 0
118 151 0
119 153 0
116 150 0
119 153 0
119 151 0
120 154 0
111 143 0
121 154 0
115 146 0
119 152 0
120 152 0
119 149 0
118 152 0
116 149 0
120 152 0
117 148 0
116 146 0
118 152 0
118 152 0
118 151 0
118 152 0
122 155 0
120 154 0
119 151 0
117 152 0
116 150 0
117 148 0
121 152 0
120 152 0
118 149 0
116 150 0
119 148 0
116 148 0
118 151 0
118 149 0
115 151 0
116 148 0
118 149 0
117 150 0
121 154 0
117 150 0
120 154 0
121 153 0
120 154 0
120 150 0
119 151 0
117 150 0
116 148 0
118 151 0
119 152 0
122 155 0
115 147 0
114 145 0
117 152 0
119 153 0
120 152 0
116 152 0
116 141 0
114 145 0
120 152 0
115 146 0
115 145 0
116 148 0
118 151 0
116 150 0
115 149 0
117 152 0
118 151 0
115 149 0
116 148 0
117 148 0
115 144 0
118 147 0
115 147 0
117 152 0
114 140 0
117 149 0
109 134 0
118 151 0
117 146 0
112 136 0
117 148 0
116 148 0
113 144 0
117 143 0
114 142 0
117 150 0
114 140 0
115 147 0
115 143 0
117 146 0
116 146 0
117 145 0
114 146 0
113 137 0
115 141 0
112 140 0
116 146 0
111 134 0
113 140 0
112 138 0
116 146 0
117 147 0
115 143 0
111 136 0
113 141 0
115 136 0
114 141 0
113 141 0
112 137 0
111 138 0
117 147 0
115 142 0
111 134 0
108 128 0
107 124 0
113 135 0
114 142 0
112 130 0
113 137 0
118 145 0
111 140 0
112 138 0
108 120 0
112 135 0
106 122 0
114 140 0
107 132 0
111 131 0
106 117 0
113 136 0
105 122 0
112 132 0
108 125 0
106 131 0
102 117 0
104 113 0
113 136 0
112 129 0
103 123 0
109 128 0
107 121 0
108 127 0
94 90 6
88 44 18
90 46 18
86 44 18
92 47 19
86 42 18
92 48 18
86 44 18
94 46 32
87 44 18
91 46 26
96 50 27
88 43 24
85 42 19
94 46 30
94 48 27
91 46 23
87 44 23
90 45 23
91 46 26
94 47 29
95 46 32
93 46 29
90 46 21
89 45 26
85 43 13
92 45 21
88 46 21
83 41 18
94 49 23
98 50 36
94 48 30
94 48 29
92 48 18
93 48 32
91 46 26
87 43 21
91 46 27
89 44 26
86 44 18
87 44 24
88 44 19
91 45 24
94 47 23
88 45 21
84 43 18
96 49 29
90 45 27
98 49 33
92 46 26
90 45 21
99 50 35
97 49 32
91 47 21
81 40 15
97 51 32
84 41 15
89 44 18
92 47 27
86 44 18
91 48 18
90 46 23
98 51 35
89 45 16
91 46 30
98 50 33
94 48 29
94 47 24
89 45 21
88 43 21
90 46 23
97 50 32
87 44 13
87 42 19
90 45 26
91 48 24
85 42 21
90 47 23
98 50 32
90 45 23
87 43 23
90 45 23
82 40 15
85 43 16
90 45 21
90 44 19
87 45 12
81 40 13
89 45 24
85 43 16
92 76 6
102 118 0
105 112 0
106 120 0
108 122 0
100 115 0
109 129 0
107 122 0
106 117 0
109 124 0
105 117 0
105 120 0
109 124 0
110 134 0
111 131 0
108 121 0
105 124 0
113 141 0
106 123 0
111 138 0
109 128 0
109 131 0
111 132 0
108 129 0
110 133 0
111 132 0
109 127 0
107 127 0
111 138 0
109 135 0
107 125 0
112 138 0
109 135 0
112 139 0
116 145 0
113 141 0
105 122 0
108 135 0
113 142 0
113 139 0
115 145 0
113 139 0
113 139 0
113 140 0
113 137 0
115 140 0
115 142 0
115 140 0
115 144 0
115 138 0
117 145 0
113 140 0
112 137 0
113 137 0
114 147 0
113 144 0
115 147 0
116 146 0
119 146 0
116 148 0
115 149 0
117 151 0
118 150 0
118 151 0
117 148 0
114 145 0
115 147 0
119 152 0
113 143 0
113 148 0
117 143 0
116 144 0
119 151 0
119 153 0
115 147 0
118 152 0
118 149 0
116 142 0
115 144 0
119 151 0
116 149 0
119 152 0
117 150 0
116 148 0
119 151 0
118 152 0
117 150 0
119 151 0
119 151 0
118 150 0
116 146 0
118 149 0
116 149 0
116 148 0
119 153 0
118 151 0
117 152 0
120 153 0
117 152 0
120 154 0
118 147 0
118 151 0
118 151 0
118 152 0
116 151 0
119 153 0
117 149 0
117 145 0
119 153 0
120 154 0
119 151 0
118 153 0
119 151 0
120 152 0
118 149 0
117 152 0
117 152 0
118 151 0
118 153 0
121 153 0
119 151 0
121 154 0
117 150 0
121 152 0
116 150 0
116 149 0
119 148 0
118 149 0
120 150 0
121 155 0
118 152 0
116 146 0
116 149 0
119 152 0
118 151 0
119 149 0
114 148 0
118 153 0
120 152 0
118 152 0
116 151 0
117 152 0
118 151 0
119 153 0
121 154 0
118 152 0
119 153 0
121 154 0
118 152 0
120 154 0
121 153 0
120 154 0
116 151 0
120 154 0
121 154 0
120 153 0
118 153 0
118 151 0
117 150 0
120 154 0
119 151 0
119 151 0
117 150 0
119 153 0
117 150 0
117 152 0
123 155 0
117 152 0
116 151 0
119 153 0
117 150 0
119 153 0
117 150 0
117 150 0
120 152 0
120 154 0
120 154 0
121 152 0
117 152 0
118 149 0
117 147 0
116 148 0
117 150 0
120 154 0
118 149 0
119 153 0
118 151 0
116 151 0
120 152 0
118 152 0
119 153 0
117 146 0
116 149 0
118 151 0
119 153 0
116 145 0
119 149 0
119 149 0
116 148 0
118 147 0
116 149 0
118 152 0
118 151 0
117 150 0
118 151 0
117 150 0
117 152 0
122 155 0
122 153 0
114 148 0
118 153 0
117 148 0
116 144 0
117 148 0
116 148 0
117 150 0
119 153 0
120 154 0
116 151 0
119 148 0
118 149 0
117 150 0
116 150 0
121 154 0
119 153 0
118 149 0
116 150 0
120 150 0
118 147 0
113 143 0
116 150 0
118 151 0
118 151 0
116 144 0
117 152 0
115 144 0
115 149 0
116 146 0
118 149 0
119 152 0
115 145 0
117 144 0
112 140 0
117 149 0
118 149 0
112 144 0
121 151 0
117 148 0
119 149 0
111 136 0
115 141 0
120 152 0
113 146 0
118 142 0
117 148 0
115 140 0
118 147 0
110 132 0
114 143 0
109 136 0
113 143 0
119 148 0
112 138 0
112 138 0
113 137 0
110 132 0
113 137 0
114 147 0
116 150 0
112 137 0
111 139 0
108 123 0
115 145 0
115 140 0
115 145 0
115 142 0
115 142 0
113 141 0
111 129 0
110 135 0
113 135 0
111 137 0
116 142 0
108 127 0
106 124 0
111 135 0
110 132 0
111 132 0
107 127 0
110 128 0
109 132 0
110 133 0
108 122 0
108 125 0
112 134 0
115 140 0
111 131 0
103 115 0
110 131 0
114 136 0
108 122 0
105 117 0
105 122 0
108 120 0
109 128 0
105 120 0
98 109 0
101 111 0
108 121 0
111 131 0
102 114 0
92 79 6
78 37 10
92 46 21
90 46 18
86 44 16
82 40 15
93 46 26
88 42 21
93 46 23
96 48 21
91 46 24
96 47 35
89 44 24
80 38 12
86 43 19
89 45 18
91 46 26
93 46 29
90 47 18
85 42 16
92 46 23
92 47 24
95 49 27
91 44 23
89 45 21
94 46 27
92 47 24
99 50 30
91 46 27
92 48 29
87 44 23
89 45 18
93 48 21
81 40 13
93 47 27
87 44 18
88 46 19
93 47 26
95 50 29
93 47 30
94 47 30
81 40 15
91 46 24
93 47 27
94 48 29
90 45 24
92 46 23
92 47 24
84 43 18
86 43 21
87 44 16
88 45 23
95 48 36
89 45 23
95 48 30
83 42 18
88 44 21
95 49 21
96 49 30
96 48 29
90 45 23
90 46 21
88 44 23
87 43 18
89 45 21
87 44 18
86 44 19
91 45 30
90 44 26
86 41 18
85 43 12
84 42 15
81 40 16
94 47 26
91 46 21
88 45 18
89 43 23
89 45 23
94 48 27
92 47 26
93 48 21
88 44 15
87 44 19
91 44 26
91 46 21
80 38 13
83 42 12
89 44 26
95 83 1
103 111 0
97 106 0
101 112 0
111 128 0
111 131 0
106 120 0
105 119 0
104 119 0
115 137 0
103 120 0
111 134 0
106 123 0
111 129 0
118 145 0
108 119 0
111 138 0
108 126 0
106 116 0
106 122 0
112 138 0
110 132 0
108 127 0
113 131 0
111 132 0
116 143 0
111 132 0
115 137 0
114 142 0
109 133 0
110 137 0
109 133 0
109 131 0
114 141 0
115 140 0
114 141 0
117 143 0
116 144 0
120 148 0
112 142 0
111 136 0
114 142 0
111 136 0
116 142 0
108 131 0
113 138 0
111 134 0
114 149 0
114 149 0
115 142 0
116 146 0
116 146 0
114 145 0
115 140 0
119 148 0
115 144 0
113 141 0
117 145 0
113 137 0
116 146 0
116 148 0
115 142 0
117 148 0
115 147 0
115 147 0
113 139 0
117 145 0
114 139 0
116 148 0
115 147 0
114 145 0
117 150 0
112 140 0
115 145 0
116 144 0
120 150 0
113 139 0
114 142 0
120 152 0
116 148 0
117 152 0
116 146 0
115 144 0
119 152 0
114 145 0
112 140 0
115 148 0
117 150 0
118 151 0
116 151 0
114 145 0
116 148 0
119 151 0
120 152 0
121 153 0
119 153 0
119 151 0
115 147 0
115 147 0
118 151 0
118 152 0
116 150 0
120 152 0
117 150 0
120 154 0
120 154 0
115 147 0
118 151 0
118 151 0
118 152 0
119 152 0
119 153 0
119 151 0
121 153 0
119 153 0
116 146 0
120 154 0
121 154 0
117 150 0
120 152 0
119 153 0
119 152 0
115 151 0
118 152 0
120 154 0
118 152 0
117 152 0
118 153 0
119 151 0
117 152 0
116 148 0
117 150 0
119 153 0
117 152 0
114 150 0
118 153 0
119 153 0
119 153 0
118 151 0
119 153 0
115 151 0
118 149 0
119 153 0
116 150 0
119 153 0
120 152 0
120 154 0
118 151 0
119 153 0
119 151 0
117 150 0
117 150 0
117 152 0
116 151 0
118 153 0
117 152 0
118 151 0
119 153 0
118 152 0
119 153 0
119 151 0
121 154 0
120 154 0
117 152 0
119 152 0
115 149 0
118 153 0
117 148 0
117 149 0
116 146 0
118 150 0
117 152 0
120 152 0
122 155 0
119 149 0
122 155 0
113 150 0
119 153 0
119 149 0
118 153 0
115 149 0
117 148 0
119 151 0
120 148 0
118 149 0
116 150 0
117 148 0
119 153 0
117 150 0
121 152 0
114 147 0
114 145 0
118 149 0
115 149 0
119 151 0
116 151 0
119 152 0
117 152 0
116 148 0
115 145 0
118 151 0
114 147 0
118 153 0
119 149 0
116 144 0
119 151 0
116 151 0
115 149 0
116 150 0
115 149 0
120 154 0
119 152 0
116 151 0
118 151 0
116 150 0
118 153 0
116 146 0
117 150 0
114 150 0
119 152 0
117 150 0
117 152 0
118 151 0
118 149 0
116 148 0
112 144 0
117 150 0
118 147 0
115 146 0
115 149 0
119 150 0
116 150 0
119 151 0
117 137 0
116 148 0
116 150 0
117 148 0
116 150 0
119 153 0
116 142 0
119 150 0
113 141 0
115 144 0
113 143 0
117 145 0
118 147 0
117 148 0
121 154 0
121 151 0
116 143 0
116 148 0
117 147 0
117 147 0
118 149 0
120 147 0
115 145 0
114 143 0
110 137 0
117 150 0
112 139 0
113 144 0
117 148 0
115 146 0
120 147 0
112 142 0
117 147 0
111 136 0
112 142 0
117 148 0
117 149 0
111 138 0
107 129 0
114 138 0
108 128 0
115 140 0
111 139 0
113 141 0
114 140 0
106 126 0
112 142 0
117 144 0
111 134 0
113 136 0
111 132 0
112 133 0
113 136 0
110 135 0
112 134 0
113 137 0
114 136 0
108 123 0
111 133 0
107 125 0
104 125 0
100 112 0
109 131 0
104 115 0
106 123 0
110 129 0
107 124 0
110 126 0
108 126 0
100 116 0
109 119 0
101 106 0
104 119 0
105 113 0
106 117 0
100 108 0
111 131 0
104 114 0
102 111 0
101 110 0
87 73 7
81 39 10
76 38 4
91 45 18
84 41 16
89 45 21
91 45 30
91 45 23
85 43 16
84 42 19
96 49 30
86 43 16
84 42 21
97 49 27
90 44 16
86 43 16
86 43 16
95 47 32
85 41 19
89 46 26
92 46 24
95 46 26
92 47 18
91 47 18
90 45 21
90 46 21
84 42 21
90 45 24
97 50 30
91 46 23
88 44 19
94 48 29
92 47 19
89 44 23
90 46 18
91 46 26
88 45 19
84 40 23
91 45 30
94 48 26
94 48 26
95 48 27
94 48 24
95 49 32
92 46 24
94 48 27
89 45 23
87 42 19
88 45 18
90 46 26
90 44 23
91 45 24
88 43 23
93 47 24
93 47 24
94 48 24
89 44 23
89 46 21
91 46 24
86 43 19
97 50 33
88 44 23
92 47 26
86 44 16
90 46 24
91 47 19
89 45 18
84 42 16
87 42 19
85 43 18
91 45 21
96 50 27
85 42 16
95 49 23
88 42 24
86 42 16
92 45 26
90 46 24
89 43 27
83 42 16
89 45 21
90 45 24
87 43 21
85 43 18
80 40 12
87 43 19
99 88 4
104 116 0
93 99 0
97 103 0
107 126 0
99 103 0
108 123 0
105 123 0
110 126 0
107 118 0
105 117 0
104 119 0
102 120 0
99 107 0
100 115 0
106 122 0
106 119 0
105 121 0
107 121 0
108 129 0
107 128 0
112 125 0
109 131 0
112 132 0
113 135 0
107 124 0
112 136 0
116 139 0
110 127 0
113 137 0
108 129 0
108 129 0
111 134 0
116 141 0
108 131 0
109 133 0
115 144 0
111 136 0
114 137 0
115 147 0
112 140 0
111 135 0
112 131 0
117 145 0
114 143 0
109 133 0
114 141 0
113 139 0
117 143 0
118 151 0
112 135 0
118 149 0
118 147 0
117 145 0
114 141 0
115 142 0
114 143 0
116 146 0
123 154 0
116 142 0
110 135 0
115 143 0
113 145 0
115 138 0
111 140 0
112 140 0
117 149 0
111 138 0
115 149 0
121 153 0
116 146 0
116 148 0
114 142 0
118 151 0
118 152 0
116 151 0
115 144 0
116 149 0
114 147 0
112 139 0
121 154 0
116 144 0
116 148 0
115 149 0
114 147 0
116 145 0
117 150 0
111 138 0
114 150 0
120 152 0
119 149 0
117 149 0
116 151 0
115 149 0
112 140 0
115 149 0
121 153 0
115 147 0
119 153 0
116 143 0
118 152 0
119 151 0
118 153 0
116 148 0
117 150 0
114 143 0
122 153 0
118 151 0
114 145 0
115 149 0
114 148 0
115 147 0
121 153 0
117 148 0
114 147 0
120 154 0
116 146 0
120 152 0
118 147 0
118 147 0
119 152 0
119 149 0
118 153 0
116 152 0
120 154 0
117 152 0
115 149 0
120 154 0
119 151 0
119 153 0
115 149 0
120 150 0
116 150 0
117 149 0
119 151 0
117 148 0
122 153 0
120 152 0
118 151 0
118 153 0
118 149 0
118 153 0
117 152 0
120 154 0
117 150 0
120 152 0
121 152 0
120 154 0
119 153 0
118 153 0
119 153 0
121 152 0
117 152 0
118 151 0
121 154 0
116 150 0
114 148 0
118 153 0
118 152 0
115 147 0
118 151 0
117 152 0
116 148 0
122 155 0
117 150 0
115 149 0
118 151 0
120 154 0
120 152 0
119 153 0
116 152 0
118 151 0
120 152 0
119 153 0
119 153 0
118 153 0
122 155 0
118 153 0
117 150 0
120 152 0
113 148 0
119 153 0
117 148 0
116 150 0
116 150 0
118 151 0
119 153 0
119 153 0
119 153 0
120 154 0
117 152 0
117 150 0
118 150 0
122 155 0
117 150 0
117 150 0
123 154 0
120 152 0
116 145 0
119 152 0
121 154 0
121 154 0
114 147 0
119 151 0
116 146 0
117 146 0
119 153 0
118 151 0
117 150 0
118 149 0
118 147 0
116 146 0
117 149 0
120 154 0
120 152 0
121 153 0
114 141 0
117 148 0
116 148 0
118 149 0
118 149 0
119 151 0
116 148 0
116 147 0
117 148 0
118 151 0
119 153 0
115 147 0
117 146 0
113 144 0
117 146 0
116 152 0
114 147 0
117 152 0
114 143 0
115 144 0
120 152 0
114 143 0
115 145 0
118 147 0
115 144 0
115 146 0
117 150 0
117 148 0
116 146 0
114 143 0
119 152 0
116 146 0
117 147 0
115 146 0
111 139 0
116 150 0
113 137 0
117 145 0
114 137 0
116 142 0
117 145 0
119 148 0
113 138 0
117 149 0
113 139 0
113 146 0
114 144 0
115 144 0
116 141 0
110 132 0
112 140 0
114 136 0
114 137 0
113 139 0
111 138 0
112 138 0
113 132 0
117 142 0
108 134 0
115 142 0
110 134 0
108 133 0
109 135 0
113 140 0
107 125 0
111 132 0
105 123 0
112 135 0
111 134 0
110 132 0
110 126 0
110 135 0
104 124 0
108 128 0
108 126 0
108 130 0
111 127 0
112 137 0
109 131 0
111 133 0
109 126 0
106 129 0
111 133 0
106 122 0
101 109 0
105 118 0
107 119 0
108 127 0
112 131 0
98 103 0
103 109 0
108 127 0
101 109 0
94 99 0
107 119 0
100 104 0
97 99 0
95 101 0
99 106 0
98 95 6
81 39 18
87 43 23
87 42 21
81 39 13
88 43 19
92 45 26
88 44 21
91 47 24
97 50 30
89 45 24
89 44 23
94 48 29
91 45 29
88 44 23
93 46 27
88 43 19
89 45 19
85 41 16
93 46 24
88 44 16
87 42 21
92 47 24
80 38 15
84 42 19
86 44 15
97 49 30
96 48 32
91 47 24
93 46 23
84 40 18
81 40 12
87 46 18
86 44 19
94 48 23
91 46 18
94 49 27
88 44 18
87 43 19
91 45 24
90 46 19
88 45 21
94 48 32
91 45 24
94 47 27
88 47 18
92 45 26
87 44 18
91 46 24
92 47 27
88 43 16
86 41 21
93 46 26
93 48 26
92 46 26
89 45 23
92 46 30
95 47 27
97 49 30
86 41 18
83 41 12
97 50 27
97 49 24
85 42 15
86 43 21
93 47 24
94 47 27
87 44 18
86 44 23
89 44 23
88 44 19
94 47 26
85 41 19
90 46 18
79 38 12
87 44 18
95 48 24
88 44 16
86 44 13
84 41 12
86 42 21
84 41 15
87 43 15
89 50 18
95 90 4
106 117 0
96 104 0
105 117 0
94 99 0
103 113 0
101 110 0
103 114 0
99 101 0
108 121 0
106 120 0
102 113 0
101 110 0
110 126 0
111 121 0
105 120 0
104 115 0
111 133 0
104 120 0
106 124 0
110 130 0
100 107 0
101 112 0
108 127 0
108 122 0
111 132 0
106 122 0
108 127 0
110 132 0
108 129 0
116 146 0
106 121 0
115 147 0
118 145 0
112 135 0
114 141 0
114 141 0
111 134 0
116 133 0
110 133 0
114 143 0
113 139 0
115 140 0
116 141 0
115 143 0
113 144 0
113 146 0
116 146 0
113 139 0
114 141 0
110 130 0
115 147 0
118 147 0
113 143 0
117 148 0
118 147 0
115 138 0
117 141 0
113 139 0
119 151 0
120 154 0
115 146 0
114 145 0
117 147 0
112 144 0
115 143 0
116 142 0
111 138 0
118 153 0
119 153 0
114 141 0
114 143 0
116 144 0
116 148 0
116 148 0
116 146 0
117 148 0
116 143 0
116 146 0
119 147 0
118 145 0
115 147 0
117 148 0
115 146 0
118 151 0
118 147 0
119 153 0
117 149 0
121 154 0
117 150 0
116 147 0
118 145 0
117 146 0
120 154 0
119 150 0
116 146 0
118 153 0
114 143 0
120 152 0
117 152 0
120 150 0
122 155 0
118 153 0
114 146 0
117 149 0
118 153 0
119 153 0
116 146 0
116 152 0
119 153 0
116 148 0
121 151 0
119 153 0
117 152 0
122 155 0
119 153 0
119 151 0
118 147 0
118 151 0
117 150 0
118 149 0
118 150 0
120 152 0
120 152 0
118 151 0
121 154 0
120 154 0
121 154 0
119 153 0
119 151 0
118 149 0
116 149 0
115 147 0
117 152 0
115 147 0
122 155 0
117 148 0
117 151 0
118 151 0
119 153 0
115 145 0
121 154 0
118 152 0
119 151 0
119 152 0
118 153 0
119 151 0
116 150 0
114 146 0
119 152 0
120 154 0
119 150 0
117 150 0
117 150 0
116 148 0
117 152 0
121 154 0
119 153 0
117 150 0
116 150 0
118 152 0
117 152 0
117 150 0
120 152 0
119 153 0
119 151 0
117 150 0
115 149 0
117 152 0
120 154 0
117 152 0
117 150 0
121 154 0
116 149 0
120 154 0
117 149 0
115 151 0
116 148 0
117 152 0
116 148 0
114 150 0
119 153 0
117 149 0
117 150 0
119 153 0
120 154 0
112 145 0
116 146 0
119 153 0
118 151 0
116 150 0
120 154 0
116 146 0
119 153 0
118 145 0
118 151 0
119 151 0
116 150 0
117 147 0
117 150 0
119 148 0
113 142 0
121 153 0
117 150 0
115 143 0
116 149 0
116 144 0
119 153 0
115 145 0
116 151 0
118 151 0
115 149 0
114 145 0
118 151 0
115 151 0
116 149 0
119 151 0
116 148 0
116 146 0
115 149 0
118 151 0
111 138 0
116 150 0
113 146 0
117 152 0
116 147 0
119 153 0
116 146 0
116 146 0
119 151 0
114 148 0
117 150 0
116 150 0
115 145 0
116 150 0
116 143 0
119 153 0
119 152 0
112 137 0
116 146 0
116 146 0
121 149 0
116 146 0
118 149 0
115 147 0
112 142 0
118 146 0
116 146 0
120 146 0
114 142 0
118 152 0
113 141 0
114 145 0
112 139 0
114 141 0
118 151 0
117 145 0
113 141 0
114 145 0
116 142 0
114 141 0
113 144 0
111 138 0
118 149 0
116 142 0
116 143 0
115 146 0
111 134 0
115 140 0
112 140 0
109 133 0
108 129 0
114 143 0
111 131 0
109 133 0
115 142 0
116 144 0
111 138 0
118 145 0
115 136 0
113 137 0
111 138 0
107 127 0
109 131 0
109 129 0
114 136 0
109 129 0
111 131 0
112 136 0
107 125 0
110 128 0
112 135 0
116 141 0
107 124 0
106 121 0
109 128 0
109 130 0
108 127 0
105 114 0
109 126 0
109 128 0
105 116 0
108 125 0
106 116 0
106 124 0
107 114 0
94 99 0
100 111 0
110 128 0
107 126 0
100 103 0
99 97 0
101 106 0
105 107 0
100 103 0
95 98 0
101 106 0
99 98 3
80 43 9
81 39 10
78 39 10
86 43 16
92 43 26
84 41 15
93 48 21
92 46 18
85 41 23
86 44 12
87 43 18
88 45 15
89 44 19
88 45 16
90 46 16
88 43 18
88 44 19
86 44 18
91 46 21
90 46 19
93 47 24
86 43 23
91 44 26
95 49 32
94 48 24
95 48 29
90 45 21
89 46 21
85 42 21
91 46 23
90 46 24
86 44 19
93 47 23
87 44 18
91 46 23
90 45 29
99 48 33
94 47 27
86 44 18
89 45 19
89 45 19
92 46 21
87 45 18
90 45 18
88 45 16
91 46 18
92 47 21
91 46 23
92 47 18
87 43 18
87 43 19
90 47 16
90 45 23
84 42 16
89 45 15
87 43 18
96 50 24
92 46 24
90 45 21
96 48 32
91 46 23
88 44 15
90 47 23
90 45 21
89 45 19
96 49 32
88 45 19
95 49 30
84 42 16
81 41 12
84 42 16
89 44 18
81 41 10
88 45 21
82 39 13
85 44 15
91 46 23
83 41 9
86 42 16
87 44 18
91 58 15
100 102 4
98 103 0
93 91 0
104 118 0
98 100 0
110 123 0
102 104 0
99 113 0
99 107 0
104 112 0
98 107 0
100 102 0
95 96 0
97 104 0
105 120 0
101 111 0
110 130 0
105 115 0
109 129 0
108 126 0
107 125 0
113 130 0
107 121 0
109 126 0
102 117 0
110 124 0
104 121 0
108 125 0
113 139 0
117 147 0
110 123 0
105 125 0
109 133 0
113 141 0
111 134 0
109 133 0
107 123 0
109 131 0
114 139 0
114 139 0
113 140 0
109 130 0
118 145 0
113 136 0
114 142 0
108 130 0
113 143 0
111 140 0
110 138 0
116 142 0
112 135 0
112 137 0
117 148 0
114 140 0
116 143 0
110 139 0
114 144 0
115 138 0
116 144 0
120 152 0
117 145 0
110 139 0
117 147 0
110 137 0
117 149 0
118 151 0
113 139 0
118 152 0
117 143 0
118 152 0
112 138 0
114 145 0
114 145 0
115 144 0
117 147 0
118 151 0
116 146 0
118 151 0
117 150 0
118 151 0
119 153 0
113 144 0
120 152 0
115 147 0
121 154 0
119 151 0
118 152 0
117 148 0
118 146 0
115 147 0
116 148 0
116 146 0
119 153 0
114 149 0
118 145 0
116 144 0
112 137 0
116 149 0
120 154 0
118 153 0
117 147 0
116 148 0
117 150 0
119 153 0
116 147 0
117 150 0
118 149 0
112 140 0
120 152 0
115 147 0
117 150 0
114 143 0
115 147 0
117 148 0
115 146 0
118 149 0
115 147 0
117 148 0
116 150 0
119 149 0
120 154 0
115 145 0
116 146 0
118 152 0
116 150 0
119 153 0
116 151 0
118 153 0
116 148 0
115 151 0
120 152 0
119 153 0
122 153 0
120 154 0
117 152 0
118 149 0
119 153 0
117 152 0
116 148 0
116 151 0
123 154 0
122 155 0
115 147 0
120 152 0
116 148 0
120 152 0
117 152 0
117 150 0
118 153 0
115 147 0
121 154 0
119 151 0
116 149 0
120 150 0
118 151 0
119 153 0
120 153 0
118 151 0
119 153 0
118 149 0
118 150 0
119 152 0
120 154 0
120 154 0
118 152 0
116 151 0
119 153 0
118 150 0
119 153 0
117 150 0
119 152 0
118 151 0
117 152 0
116 151 0
117 152 0
115 149 0
119 149 0
116 151 0
122 155 0
118 150 0
120 154 0
119 153 0
119 151 0
115 147 0
114 146 0
115 151 0
118 153 0
117 152 0
116 150 0
118 152 0
120 152 0
118 152 0
118 152 0
118 150 0
117 150 0
114 143 0
116 148 0
116 150 0
116 148 0
120 152 0
119 149 0
117 150 0
116 150 0
116 148 0
116 148 0
115 147 0
117 150 0
117 148 0
117 149 0
116 150 0
118 151 0
118 151 0
119 151 0
114 140 0
118 151 0
118 151 0
116 150 0
116 148 0
115 143 0
115 143 0
112 144 0
117 148 0
114 145 0
116 147 0
115 144 0
118 151 0
112 144 0
122 151 0
115 142 0
116 146 0
120 152 0
117 149 0
118 147 0
115 147 0
117 149 0
115 144 0
114 147 0
116 150 0
114 145 0
111 141 0
116 149 0
119 151 0
115 148 0
120 148 0
116 148 0
116 144 0
120 148 0
114 141 0
115 144 0
117 147 0
115 143 0
116 146 0
112 135 0
117 148 0
115 140 0
118 143 0
113 137 0
112 142 0
112 138 0
110 135 0
114 140 0
111 134 0
109 137 0
112 142 0
114 142 0
112 138 0
117 148 0
116 145 0
110 137 0
112 142 0
115 138 0
113 142 0
112 135 0
112 138 0
113 141 0
111 140 0
116 142 0
111 136 0
115 136 0
114 136 0
114 139 0
112 139 0
113 135 0
113 134 0
114 142 0
113 137 0
117 142 0
112 137 0
112 125 0
104 122 0
102 117 0
104 117 0
107 125 0
106 125 0
104 120 0
103 116 0
104 119 0
103 115 0
101 115 0
101 114 0
102 112 0
104 117 0
109 124 0
108 122 0
102 116 0
98 106 0
101 112 0
99 108 0
102 110 0
103 111 0
100 107 0
104 116 0
103 115 0
91 98 0
91 95 0
100 109 0
104 113 0
97 103 0
89 94 0
93 97 0
84 58 6
82 40 10
80 38 16
94 48 27
81 39 15
87 43 15
81 40 10
83 39 16
82 40 16
92 48 24
87 44 23
91 45 19
86 41 16
85 43 18
91 45 23
90 44 26
82 40 19
84 42 16
81 41 15
87 43 18
91 46 24
88 44 24
87 45 13
83 41 15
99 50 29
82 40 12
89 45 15
91 46 19
90 46 24
85 43 13
86 42 19
89 43 18
89 44 19
87 42 19
80 38 10
89 44 18
88 45 18
86 43 16
87 43 21
89 44 21
94 47 29
90 45 26
94 48 30
92 46 26
89 46 21
84 42 15
85 41 21
88 43 21
89 43 21
85 41 19
93 46 29
91 45 21
84 41 18
89 46 16
88 44 19
91 46 23
82 39 13
87 43 26
91 46 21
86 42 21
92 47 19
89 46 19
86 42 18
90 45 21
90 45 23
92 47 23
86 43 19
83 40 16
82 40 13
89 45 21
88 43 18
85 42 19
93 47 26
88 42 19
80 38 15
91 46 23
80 39 15
93 47 21
87 55 7
90 85 1
88 87 0
89 87 0
91 88 0
105 121 0
95 95 0
91 88 0
97 102 0
101 111 0
102 112 0
103 118 0
104 117 0
96 99 0
102 116 0
101 119 0
105 116 0
105 117 0
102 106 0
107 123 0
105 120 0
107 118 0
107 123 0
108 125 0
104 121 0
104 122 0
102 120 0
106 122 0
105 117 0
107 121 0
112 133 0
113 129 0
107 123 0
113 135 0
111 134 0
114 142 0
106 126 0
115 138 0
112 136 0
110 134 0
108 127 0
116 144 0
112 138 0
113 137 0
109 132 0
111 134 0
117 145 0
116 146 0
112 137 0
116 142 0
113 139 0
113 137 0
112 137 0
111 140 0
109 132 0
115 138 0
113 142 0
117 148 0
117 145 0
116 139 0
118 145 0
113 143 0
111 136 0
115 141 0
117 148 0
116 142 0
110 137 0
115 147 0
116 148 0
117 145 0
113 143 0
116 146 0
116 148 0
116 148 0
118 147 0
112 139 0
116 141 0
115 144 0
114 147 0
116 150 0
118 151 0
113 143 0
122 151 0
113 142 0
115 147 0
118 147 0
120 152 0
114 142 0
117 149 0
114 141 0
119 151 0
119 152 0
118 147 0
117 149 0
119 153 0
116 146 0
118 151 0
119 153 0
118 152 0
117 147 0
113 143 0
114 143 0
117 150 0
116 146 0
119 151 0
114 148 0
118 152 0
118 150 0
116 146 0
112 138 0
117 150 0
118 149 0
122 155 0
119 151 0
116 150 0
118 151 0
119 149 0
119 153 0
117 150 0
120 154 0
119 153 0
120 152 0
117 152 0
119 153 0
117 150 0
118 153 0
115 147 0
116 148 0
117 152 0
120 154 0
119 153 0
117 150 0
116 147 0
115 145 0
118 151 0
115 149 0
115 143 0
120 152 0
113 142 0
120 154 0
119 153 0
118 151 0
117 150 0
116 149 0
118 151 0
121 154 0
117 150 0
119 153 0
120 152 0
118 151 0
120 154 0
120 154 0
117 152 0
120 154 0
115 145 0
120 154 0
118 151 0
117 152 0
117 152 0
120 152 0
120 154 0
119 153 0
117 152 0
119 151 0
118 152 0
118 151 0
116 152 0
118 151 0
121 151 0
118 151 0
119 153 0
116 151 0
120 152 0
120 154 0
119 149 0
119 153 0
117 149 0
117 152 0
116 151 0
116 150 0
118 151 0
118 149 0
118 150 0
117 150 0
116 151 0
119 151 0
122 155 0
121 154 0
120 150 0
118 151 0
120 152 0
119 153 0
118 153 0
117 150 0
117 150 0
117 152 0
116 149 0
118 151 0
118 149 0
116 146 0
114 143 0
117 148 0
115 149 0
118 153 0
117 149 0
119 151 0
116 148 0
116 146 0
120 152 0
117 145 0
120 152 0
118 150 0
118 149 0
115 149 0
118 153 0
118 151 0
119 148 0
118 151 0
116 146 0
119 150 0
114 145 0
117 150 0
118 152 0
117 148 0
118 143 0
117 147 0
115 144 0
120 148 0
119 151 0
119 151 0
121 151 0
116 148 0
113 144 0
119 151 0
117 149 0
113 142 0
114 143 0
115 142 0
115 144 0
117 145 0
117 148 0
114 143 0
116 147 0
113 143 0
117 150 0
114 143 0
115 148 0
116 146 0
114 146 0
115 142 0
117 150 0
110 137 0
118 151 0
116 142 0
118 145 0
114 143 0
116 145 0
111 138 0
115 140 0
115 141 0
117 145 0
118 147 0
115 142 0
120 148 0
112 139 0
114 140 0
115 140 0
118 147 0
113 134 0
115 140 0
114 145 0
110 134 0
116 142 0
117 149 0
117 148 0
112 138 0
110 132 0
110 129 0
113 139 0
113 137 0
109 128 0
114 140 0
107 120 0
112 138 0
113 139 0
105 127 0
107 126 0
110 130 0
107 126 0
107 130 0
107 127 0
115 133 0
104 122 0
106 120 0
111 132 0
113 133 0
104 114 0
104 111 0
106 122 0
105 123 0
107 123 0
103 117 0
106 117 0
110 129 0
104 119 0
103 110 0
104 116 0
109 122 0
104 113 0
93 95 0
105 125 0
103 112 0
97 104 0
99 102 0
101 114 0
106 120 0
98 105 0
98 98 0
84 75 0
100 115 0
89 87 0
90 89 0
97 97 0
88 83 1
89 44 19
85 42 19
90 45 29
88 44 19
83 41 15
87 42 18
95 48 26
83 38 16
88 43 19
82 41 10
90 45 23
75 35 9
93 47 23
88 45 16
90 46 18
86 42 12
94 48 26
92 46 27
95 49 27
90 44 23
86 44 12
85 41 18
86 46 9
81 38 18
88 45 21
84 41 18
94 48 19
89 45 21
89 45 23
92 47 27
87 44 18
82 41 12
88 44 19
93 48 27
85 43 12
90 44 24
89 45 27
89 46 16
86 43 13
79 40 10
92 46 23
87 43 18
91 47 24
94 48 26
93 47 30
94 48 29
92 47 24
89 46 24
91 46 23
89 45 21
88 45 19
84 43 12
87 43 18
87 43 19
85 42 23
87 43 19
88 46 16
92 46 30
86 41 13
93 47 24
84 42 16
90 45 24
85 40 15
85 42 12
81 39 15
81 40 12
91 47 24
86 41 21
83 39 18
81 39 10
77 36 10
90 45 23
85 43 18
81 41 10
84 41 19
87 71 3
94 91 0
95 99 0
98 105 0
103 105 0
99 105 0
91 93 0
102 108 0
93 98 0
97 101 0
103 111 0
95 99 0
107 118 0
95 97 0
96 98 0
101 116 0
93 98 0
99 111 0
104 118 0
106 119 0
94 103 0
96 105 0
104 114 0
105 118 0
106 124 0
105 123 0
106 124 0
103 113 0
112 131 0
107 125 0
112 133 0
109 132 0
115 142 0
110 130 0
106 122 0
107 117 0
109 129 0
106 124 0
106 128 0
105 125 0
107 127 0
108 129 0
112 134 0
113 137 0
108 129 0
111 131 0
112 129 0
112 130 0
112 137 0
114 139 0
106 127 0
112 137 0
110 133 0
111 138 0
111 136 0
111 136 0
115 144 0
111 134 0
112 139 0
115 146 0
113 143 0
110 137 0
113 139 0
114 140 0
113 137 0
117 143 0
117 148 0
116 146 0
112 138 0
113 141 0
106 131 0
118 147 0
114 141 0
116 146 0
116 146 0
118 146 0
115 147 0
113 141 0
114 143 0
118 149 0
117 147 0
113 148 0
115 145 0
115 146 0
113 144 0
113 139 0
116 149 0
112 140 0
116 144 0
115 146 0
112 145 0
116 150 0
116 148 0
115 149 0
117 150 0
114 143 0
114 146 0
117 141 0
116 150 0
116 146 0
114 145 0
115 145 0
120 153 0
116 142 0
117 148 0
116 150 0
121 150 0
116 146 0
115 144 0
119 150 0
114 147 0
116 146 0
115 148 0
117 152 0
118 147 0
118 153 0
119 153 0
120 153 0
115 149 0
118 151 0
119 148 0
116 150 0
119 149 0
118 152 0
115 147 0
116 152 0
117 148 0
118 153 0
116 148 0
118 151 0
118 151 0
118 151 0
120 154 0
121 154 0
119 152 0
115 145 0
120 152 0
116 146 0
118 151 0
118 151 0
117 152 0
117 148 0
120 152 0
118 149 0
118 152 0
119 151 0
118 151 0
120 154 0
116 151 0
121 153 0
119 153 0
117 147 0
120 153 0
118 149 0
117 148 0
118 152 0
119 153 0
117 150 0
120 152 0
119 153 0
118 153 0
119 153 0
116 148 0
119 152 0
118 152 0
118 153 0
117 152 0
115 146 0
117 152 0
117 148 0
120 154 0
116 151 0
117 152 0
119 153 0
118 153 0
119 152 0
117 146 0
122 155 0
120 152 0
120 149 0
117 149 0
120 150 0
124 156 0
118 152 0
120 152 0
119 151 0
117 152 0
115 149 0
117 150 0
119 151 0
117 148 0
119 153 0
117 150 0
118 151 0
120 154 0
112 140 0
118 152 0
119 153 0
116 152 0
117 150 0
118 153 0
118 149 0
116 152 0
116 151 0
122 155 0
116 150 0
116 150 0
118 152 0
115 145 0
117 148 0
118 149 0
119 151 0
113 144 0
117 148 0
112 140 0
115 149 0
114 143 0
119 150 0
116 146 0
119 153 0
117 147 0
119 152 0
118 153 0
117 146 0
119 151 0
117 150 0
118 145 0
118 147 0
117 145 0
116 146 0
121 153 0
116 148 0
115 147 0
117 148 0
117 148 0
114 143 0
119 148 0
115 145 0
117 149 0
118 152 0
118 149 0
115 142 0
115 142 0
115 144 0
118 151 0
113 140 0
116 146 0
120 152 0
115 144 0
114 139 0
118 149 0
110 130 0
113 141 0
111 135 0
118 147 0
109 137 0
111 136 0
113 141 0
114 143 0
112 133 0
111 135 0
110 135 0
115 142 0
113 140 0
115 142 0
119 151 0
113 131 0
112 140 0
111 136 0
113 136 0
112 138 0
117 145 0
114 139 0
113 139 0
114 139 0
110 132 0
110 130 0
111 132 0
114 138 0
110 130 0
109 133 0
109 130 0
114 138 0
109 127 0
108 130 0
107 124 0
112 137 0
109 135 0
113 132 0
109 126 0
107 123 0
103 113 0
111 138 0
106 124 0
114 139 0
105 121 0
107 124 0
106 122 0
106 123 0
104 118 0
110 132 0
106 127 0
96 108 0
107 114 0
103 115 0
103 113 0
98 102 0
100 109 0
107 125 0
98 106 0
97 106 0
98 104 0
100 103 0
96 102 0
101 112 0
97 97 0
82 75 0
90 86 0
97 102 0
107 120 0
94 89 0
89 83 0
96 105 0
89 93 0
91 91 0
92 90 0
76 41 9
84 39 10
80 38 12
82 38 12
81 38 15
85 42 21
86 45 9
81 41 15
84 42 12
90 44 23
91 45 23
91 46 23
88 43 19
86 41 23
83 39 21
91 45 24
82 39 12
84 41 21
91 46 18
83 41 10
88 43 23
88 43 19
86 43 15
85 40 18
90 46 23
87 43 18
87 44 16
81 41 7
92 46 24
87 43 16
91 45 19
89 44 21
85 42 18
85 44 18
89 46 19
88 42 24
89 45 21
87 43 18
86 44 15
84 42 16
90 44 24
89 45 23
92 45 24
85 42 13
89 44 19
87 43 19
88 44 21
90 46 19
92 47 21
88 44 21
87 45 16
93 47 24
90 47 23
86 43 16
91 48 16
88 43 19
86 43 15
81 39 15
91 46 21
83 42 13
81 40 16
91 46 18
90 46 18
83 41 19
83 40 12
87 43 23
84 44 10
85 41 19
86 43 10
82 40 15
82 40 18
88 45 18
84 52 10
76 65 1
94 101 0
96 98 0
100 106 0
97 102 0
90 85 0
87 81 0
91 88 0
84 77 0
100 104 0
101 108 0
97 103 0
94 103 0
93 86 0
105 118 0
98 102 0
105 118 0
104 121 0
102 115 0
97 110 0
106 121 0
99 111 0
111 129 0
104 119 0
100 113 0
101 113 0
113 134 0
110 128 0
100 110 0
108 121 0
105 122 0
109 125 0
108 127 0
109 122 0
107 130 0
106 120 0
107 130 0
116 141 0
101 121 0
111 129 0
107 131 0
108 127 0
109 131 0
107 127 0
111 131 0
111 138 0
110 133 0
111 129 0
113 137 0
111 138 0
110 132 0
112 138 0
114 143 0
112 136 0
114 140 0
116 148 0
112 137 0
116 141 0
114 141 0
112 141 0
113 143 0
114 145 0
114 140 0
115 139 0
117 145 0
112 135 0
116 141 0
114 139 0
112 138 0
112 138 0
117 148 0
115 147 0
117 147 0
118 151 0
116 146 0
117 149 0
113 141 0
111 140 0
115 145 0
111 141 0
119 151 0
117 149 0
117 146 0
111 136 0
113 146 0
114 147 0
113 141 0
119 151 0
115 147 0
112 138 0
116 148 0
117 152 0
109 135 0
120 152 0
118 149 0
117 145 0
119 151 0
117 145 0
118 147 0
116 148 0
116 146 0
116 142 0
118 149 0
115 149 0
118 153 0
121 154 0
118 150 0
117 149 0
118 149 0
116 148 0
115 147 0
113 142 0
114 145 0
118 147 0
119 149 0
116 151 0
118 151 0
118 149 0
117 147 0
121 154 0
119 153 0
116 151 0
116 150 0
118 151 0
123 155 0
122 153 0
119 152 0
119 153 0
115 146 0
115 145 0
118 151 0
114 143 0
119 153 0
120 154 0
119 153 0
112 140 0
121 153 0
117 148 0
121 155 0
121 154 0
118 149 0
117 147 0
117 152 0
119 153 0
118 151 0
119 153 0
117 152 0
114 150 0
118 151 0
117 152 0
119 153 0
117 150 0
115 151 0
121 151 0
117 150 0
118 152 0
118 152 0
115 151 0
119 153 0
116 151 0
116 150 0
120 154 0
116 151 0
116 150 0
118 149 0
118 151 0
119 153 0
115 147 0
119 151 0
120 154 0
122 155 0
117 152 0
117 152 0
119 151 0
119 153 0
120 152 0
116 150 0
119 153 0
119 151 0
117 146 0
119 151 0
119 152 0
118 153 0
119 149 0
116 148 0
121 154 0
115 147 0
119 151 0
114 149 0
112 144 0
116 146 0
117 152 0
116 146 0
116 146 0
118 151 0
117 147 0
117 150 0
118 153 0
116 146 0
119 152 0
114 148 0
115 149 0
113 146 0
117 150 0
114 147 0
119 152 0
114 144 0
119 153 0
117 150 0
119 150 0
118 149 0
120 154 0
117 150 0
114 147 0
121 154 0
114 143 0
116 148 0
119 152 0
117 150 0
116 149 0
117 148 0
117 147 0
120 152 0
117 148 0
119 150 0
115 149 0
111 140 0
113 143 0
113 139 0
113 145 0
115 149 0
117 147 0
119 148 0
118 148 0
115 143 0
114 141 0
111 138 0
114 145 0
114 143 0
118 151 0
118 148 0
116 142 0
117 145 0
114 139 0
113 141 0
114 141 0
115 140 0
116 146 0
112 140 0
112 138 0
114 143 0
116 144 0
116 139 0
114 145 0
111 136 0
115 144 0
117 150 0
110 136 0
117 148 0
108 131 0
116 146 0
113 139 0
115 140 0
114 139 0
118 143 0
116 146 0
113 140 0
112 139 0
111 137 0
111 135 0
109 128 0
116 144 0
112 137 0
117 147 0
115 144 0
112 139 0
109 129 0
116 141 0
109 128 0
115 141 0
110 128 0
106 128 0
117 145 0
111 136 0
111 134 0
108 129 0
113 137 0
119 142 0
113 139 0
111 143 0
106 120 0
105 122 0
111 132 0
110 128 0
108 130 0
105 123 0
108 126 0
109 131 0
104 117 0
109 130 0
109 131 0
101 109 0
108 125 0
101 109 0
100 108 0
97 104 0
105 117 0
98 105 0
102 105 0
106 116 0
97 99 0
106 117 0
105 111 0
106 116 0
102 110 0
104 116 0
101 107 0
99 104 0
89 87 0
88 83 0
100 101 0
100 104 0
89 81 0
82 84 0
91 95 0
83 83 0
85 80 0
80 74 1
95 82 3
74 38 3
91 45 23
83 39 21
90 44 19
87 41 23
80 42 7
86 43 16
89 43 19
83 41 12
82 40 16
90 45 26
88 43 24
79 37 13
87 44 21
88 45 16
82 40 16
92 46 24
88 44 19
79 38 12
89 44 18
88 44 18
92 46 27
92 46 19
79 37 13
90 44 19
81 39 9
87 42 19
86 42 21
90 46 16
82 40 13
88 43 16
85 42 13
90 44 24
84 41 15
89 45 19
87 44 15
87 43 21
89 44 19
84 41 18
89 45 21
82 41 21
86 43 16
80 41 9
88 44 26
89 43 23
86 44 21
93 45 26
87 41 19
92 44 26
95 48 26
84 42 10
89 44 16
86 43 13
81 39 16
81 39 12
94 46 26
80 39 19
82 41 10
82 42 13
89 44 19
86 43 18
92 47 26
81 39 13
91 47 13
76 37 9
80 40 12
86 41 24
80 38 16
84 42 13
74 46 6
79 66 0
85 88 0
86 81 0
91 92 0
89 85 0
99 98 0
92 87 0
101 107 0
94 93 0
104 111 0
101 110 0
100 102 0
94 105 0
98 109 0
102 112 0
95 102 0
92 95 0
102 104 0
95 103 0
113 134 0
107 122 0
112 126 0
101 109 0
107 115 0
107 122 0
104 116 0
103 113 0
103 114 0
103 122 0
110 126 0
105 118 0
108 123 0
109 122 0
104 125 0
104 123 0
103 121 0
112 131 0
110 126 0
112 136 0
109 130 0
108 124 0
113 137 0
113 136 0
105 123 0
109 136 0
107 126 0
115 145 0
111 131 0
110 130 0
118 144 0
110 130 0
110 134 0
109 133 0
114 139 0
113 137 0
114 138 0
110 132 0
114 141 0
114 141 0
110 135 0
112 137 0
112 137 0
119 149 0
109 133 0
117 148 0
116 146 0
111 135 0
113 139 0
113 142 0
116 141 0
116 144 0
114 135 0
116 146 0
111 138 0
114 142 0
114 141 0
111 139 0
110 139 0
117 150 0
113 142 0
118 149 0
117 143 0
113 139 0
118 149 0
111 141 0
114 143 0
120 154 0
115 143 0
112 140 0
119 150 0
114 141 0
118 151 0
114 141 0
116 148 0
118 151 0
114 145 0
115 144 0
115 146 0
119 151 0
118 145 0
117 150 0
120 154 0
119 153 0
113 140 0
114 145 0
117 145 0
118 151 0
115 149 0
118 148 0
113 148 0
118 149 0
117 147 0
120 148 0
118 151 0
115 146 0
117 147 0
119 150 0
118 149 0
122 155 0
119 152 0
114 145 0
112 144 0
117 148 0
115 142 0
119 151 0
115 145 0
115 147 0
116 148 0
119 152 0
117 149 0
117 150 0
122 155 0
118 151 0
117 152 0
116 146 0
116 148 0
118 153 0
117 150 0
117 149 0
118 151 0
113 148 0
119 151 0
117 150 0
116 150 0
118 151 0
120 152 0
118 151 0
116 150 0
118 149 0
121 154 0
115 151 0
117 152 0
117 150 0
119 147 0
118 151 0
116 152 0
121 154 0
117 152 0
117 150 0
115 145 0
117 148 0
117 148 0
114 145 0
116 148 0
118 153 0
119 151 0
119 153 0
116 149 0
116 150 0
119 153 0
118 152 0
120 150 0
118 152 0
115 151 0
117 150 0
119 151 0
120 152 0
116 148 0
122 153 0
120 154 0
112 142 0
120 152 0
119 151 0
113 146 0
115 145 0
119 153 0
117 150 0
120 153 0
115 147 0
116 146 0
116 149 0
118 151 0
117 150 0
120 154 0
115 147 0
114 143 0
119 151 0
118 151 0
118 147 0
119 152 0
118 151 0
116 146 0
118 151 0
118 149 0
117 148 0
116 146 0
118 149 0
115 145 0
117 150 0
124 156 0
116 150 0
116 144 0
121 154 0
118 147 0
114 145 0
116 148 0
117 148 0
117 149 0
118 147 0
116 148 0
115 145 0
117 145 0
115 142 0
116 150 0
113 146 0
118 151 0
116 149 0
113 139 0
116 146 0
115 147 0
114 145 0
116 146 0
119 150 0
116 144 0
117 148 0
116 143 0
116 146 0
121 153 0
115 147 0
115 147 0
118 149 0
115 145 0
112 138 0
113 141 0
115 140 0
115 148 0
113 139 0
119 153 0
115 142 0
115 145 0
116 150 0
113 134 0
110 135 0
115 140 0
116 148 0
115 142 0
117 145 0
117 143 0
118 143 0
113 141 0
117 143 0
117 146 0
111 131 0
113 139 0
113 142 0
118 151 0
118 142 0
116 139 0
110 138 0
108 126 0
112 137 0
114 145 0
109 135 0
112 136 0
112 138 0
113 135 0
114 140 0
110 133 0
111 134 0
110 132 0
117 145 0
113 139 0
105 120 0
107 126 0
110 132 0
115 138 0
109 133 0
107 126 0
114 130 0
108 128 0
110 130 0
113 138 0
107 125 0
112 136 0
110 128 0
101 116 0
107 125 0
104 123 0
106 128 0
107 127 0
107 123 0
97 99 0
107 127 0
106 120 0
99 105 0
96 105 0
98 104 0
109 122 0
104 116 0
104 115 0
99 111 0
98 110 0
95 101 0
97 101 0
98 105 0
102 115 0
98 101 0
95 92 0
97 104 0
98 107 0
88 84 0
92 86 0
93 94 0
81 76 0
94 96 0
78 67 0
92 88 0
95 94 0
74 66 0
81 74 0
78 62 6
82 45 10
80 39 16
88 43 19
81 39 13
82 40 19
77 37 13
92 45 21
89 43 21
89 44 23
91 46 23
79 39 12
87 43 18
83 40 15
94 45 26
81 39 16
86 42 18
87 42 18
85 43 15
82 40 16
81 40 10
81 40 13
86 43 23
82 41 12
83 42 16
91 47 24
87 43 13
86 44 15
87 43 19
83 41 18
83 40 13
85 41 21
88 45 19
88 44 19
88 44 26
89 43 26
81 39 12
86 43 19
88 45 24
86 42 15
87 42 23
78 37 7
86 42 15
88 44 13
87 43 16
90 44 19
84 42 13
87 43 18
81 39 10
93 47 24
86 43 16
85 41 23
89 43 19
85 43 13
87 44 12
89 44 16
78 39 9
89 45 16
87 44 18
89 45 15
86 42 15
88 45 18
85 40 18
80 40 12
81 38 18
83 43 15
83 40 19
82 58 9
89 77 3
87 82 0
89 83 0
77 66 0
83 77 0
86 82 0
82 81 0
90 85 0
83 83 0
95 94 0
95 97 0
95 98 0
97 98 0
94 95 0
95 101 0
100 108 0
96 101 0
96 107 0
103 111 0
102 113 0
99 102 0
103 114 0
104 118 0
99 108 0
107 119 0
108 115 0
117 137 0
110 120 0
99 112 0
111 126 0
111 127 0
110 127 0
111 131 0
103 122 0
110 136 0
109 131 0
111 131 0
111 130 0
101 109 0
105 122 0
110 134 0
110 126 0
114 139 0
106 122 0
107 128 0
112 133 0
113 137 0
117 149 0
111 132 0
113 137 0
114 139 0
109 130 0
114 134 0
109 136 0
112 138 0
111 134 0
115 142 0
112 138 0
114 139 0
113 141 0
115 143 0
113 139 0
114 143 0
111 140 0
113 137 0
112 136 0
115 143 0
112 137 0
114 141 0
114 140 0
116 143 0
119 148 0
116 139 0
116 146 0
115 145 0
114 138 0
114 147 0
113 141 0
113 143 0
117 148 0
116 141 0
118 149 0
116 144 0
112 141 0
118 149 0
120 150 0
118 145 0
115 149 0
116 145 0
115 140 0
114 143 0
117 148 0
117 150 0
116 150 0
117 148 0
117 149 0
120 146 0
111 139 0
115 147 0
121 154 0
120 150 0
115 145 0
115 145 0
120 150 0
110 135 0
120 152 0
116 150 0
115 147 0
116 146 0
118 149 0
120 150 0
119 153 0
116 146 0
118 149 0
114 141 0
121 154 0
114 147 0
119 146 0
120 154 0
117 148 0
117 150 0
118 149 0
120 148 0
118 151 0
118 148 0
116 148 0
119 153 0
120 150 0
117 152 0
116 148 0
117 147 0
116 146 0
116 148 0
119 151 0
117 150 0
116 149 0
122 153 0
118 151 0
117 152 0
116 148 0
118 151 0
119 153 0
114 146 0
119 151 0
118 153 0
118 152 0
121 155 0
115 147 0
117 152 0
118 151 0
117 150 0
119 150 0
114 147 0
117 152 0
120 152 0
118 153 0
117 150 0
121 153 0
119 151 0
119 153 0
119 153 0
118 149 0
119 153 0
117 152 0
115 149 0
116 150 0
119 153 0
116 148 0
116 148 0
117 152 0
119 153 0
115 147 0
121 154 0
118 151 0
116 150 0
115 151 0
116 146 0
121 151 0
121 151 0
118 151 0
115 146 0
117 150 0
119 149 0
119 153 0
119 151 0
118 151 0
116 148 0
116 148 0
115 148 0
121 154 0
115 147 0
114 142 0
120 150 0
117 150 0
115 147 0
113 148 0
120 148 0
120 152 0
118 149 0
120 152 0
118 151 0
115 145 0
115 146 0
119 153 0
118 151 0
115 147 0
116 148 0
115 147 0
121 155 0
119 148 0
120 154 0
116 148 0
113 144 0
116 145 0
114 147 0
118 149 0
114 143 0
118 151 0
118 149 0
114 146 0
117 149 0
116 149 0
120 153 0
116 145 0
113 142 0
118 151 0
113 141 0
119 151 0
117 150 0
117 150 0
118 147 0
119 151 0
116 146 0
115 141 0
115 142 0
113 143 0
117 150 0
118 149 0
116 148 0
114 145 0
113 145 0
110 132 0
114 145 0
116 149 0
116 146 0
118 149 0
109 138 0
115 142 0
112 137 0
118 149 0
117 145 0
111 138 0
114 143 0
115 143 0
115 142 0
118 149 0
115 146 0
113 141 0
111 135 0
112 140 0
113 141 0
116 139 0
116 144 0
118 145 0
117 147 0
118 147 0
111 139 0
116 142 0
119 151 0
112 137 0
116 140 0
111 134 0
112 138 0
113 139 0
112 138 0
110 130 0
107 128 0
113 137 0
111 132 0
112 135 0
117 139 0
110 128 0
106 124 0
110 134 0
110 136 0
112 133 0
112 129 0
117 143 0
107 115 0
110 134 0
112 133 0
112 137 0
103 115 0
109 128 0
109 126 0
106 123 0
110 128 0
104 116 0
110 128 0
102 115 0
108 123 0
105 124 0
104 116 0
101 112 0
103 113 0
108 120 0
104 112 0
101 110 0
107 120 0
103 111 0
108 125 0
93 97 0
101 105 0
101 111 0
99 103 0
96 97 0
95 103 0
101 112 0
97 97 0
95 100 0
81 74 0
86 89 0
87 81 0
103 112 0
82 75 0
94 93 0
88 84 0
88 84 0
85 78 0
88 83 0
84 80 0
84 74 0
89 88 0
82 75 0
77 68 0
77 45 4
77 38 12
78 37 13
78 40 7
82 41 13
81 37 12
83 42 12
81 40 6
79 38 13
82 40 12
87 41 23
88 42 30
83 39 19
84 40 15
80 39 12
86 42 16
81 40 12
88 45 16
86 43 16
81 39 16
82 40 15
84 43 12
85 43 16
87 43 15
88 44 21
87 43 13
95 49 21
82 41 13
87 44 13
83 42 9
83 41 18
86 44 23
86 43 24
82 42 15
89 45 19
85 43 15
86 43 15
88 44 21
88 44 18
82 42 12
87 42 21
86 43 18
85 40 16
80 38 13
97 48 33
90 43 24
90 44 23
82 39 10
83 40 10
84 42 18
86 42 19
82 39 23
89 44 26
90 45 21
86 43 18
81 40 16
80 38 18
87 42 18
84 42 16
89 46 19
82 40 16
76 37 10
85 52 12
85 76 3
77 63 0
82 75 0
81 77 0
83 76 0
85 79 0
91 92 0
92 90 0
93 92 0
87 87 0
93 96 0
93 89 0
92 85 0
90 89 0
95 97 0
92 100 0
90 92 0
95 100 0
97 104 0
98 104 0
97 99 0
95 106 0
97 102 0
97 99 0
100 105 0
106 124 0
98 102 0
107 125 0
106 126 0
98 107 0
104 116 0
102 115 0
111 138 0
107 120 0
106 124 0
110 126 0
106 116 0
104 118 0
106 128 0
111 126 0
107 125 0
105 120 0
105 126 0
113 127 0
109 130 0
114 134 0
109 130 0
112 137 0
108 130 0
108 130 0
111 135 0
111 138 0
110 135 0
113 139 0
113 137 0
109 133 0
112 136 0
116 144 0
110 134 0
112 137 0
114 137 0
113 138 0
114 143 0
113 142 0
111 140 0
116 148 0
110 131 0
110 136 0
110 132 0
115 144 0
115 142 0
114 143 0
112 140 0
115 143 0
116 145 0
117 145 0
113 145 0
116 146 0
114 142 0
113 140 0
113 142 0
114 143 0
115 146 0
116 143 0
118 147 0
111 136 0
121 147 0
117 143 0
115 149 0
117 148 0
112 140 0
117 147 0
112 142 0
114 147 0
115 146 0
114 141 0
119 152 0
118 149 0
113 139 0
118 151 0
116 148 0
119 152 0
118 143 0
114 145 0
116 147 0
116 148 0
116 148 0
119 148 0
114 145 0
116 149 0
116 150 0
114 141 0
118 149 0
118 151 0
111 140 0
116 150 0
120 153 0
117 150 0
119 152 0
118 147 0
116 150 0
117 150 0
118 150 0
117 150 0
118 147 0
115 147 0
117 146 0
116 152 0
117 146 0
115 149 0
119 149 0
119 152 0
119 151 0
115 145 0
116 148 0
118 146 0
115 147 0
117 149 0
116 144 0
115 149 0
117 150 0
118 150 0
116 148 0
117 150 0
121 153 0
117 146 0
119 150 0
122 155 0
119 148 0
119 153 0
119 153 0
120 152 0
118 149 0
121 154 0
116 148 0
118 152 0
117 152 0
114 143 0
118 147 0
117 152 0
120 154 0
115 149 0
121 153 0
117 152 0
118 152 0
117 148 0
117 148 0
119 153 0
120 152 0
116 146 0
119 153 0
117 152 0
120 154 0
120 152 0
119 151 0
116 149 0
118 151 0
116 148 0
117 149 0
117 147 0
118 151 0
116 150 0
118 153 0
121 154 0
118 152 0
120 154 0
120 154 0
113 143 0
117 150 0
115 147 0
118 152 0
116 148 0
116 148 0
117 152 0
118 151 0
113 142 0
115 146 0
120 152 0
118 151 0
120 154 0
117 150 0
117 148 0
116 146 0
119 153 0
115 149 0
117 144 0
119 153 0
119 151 0
117 152 0
119 153 0
115 145 0
117 143 0
117 147 0
117 150 0
119 153 0
115 142 0
114 145 0
119 149 0
114 142 0
117 152 0
113 144 0
116 142 0
116 146 0
114 143 0
114 144 0
114 147 0
116 144 0
118 149 0
117 148 0
116 150 0
117 150 0
116 146 0
118 151 0
116 148 0
117 148 0
116 148 0
117 148 0
115 146 0
118 151 0
116 146 0
111 137 0
113 133 0
117 145 0
116 146 0
117 147 0
114 143 0
113 142 0
115 147 0
111 140 0
116 146 0
114 143 0
112 140 0
115 142 0
113 144 0
112 140 0
111 136 0
109 137 0
114 147 0
117 148 0
109 128 0
112 142 0
115 147 0
114 145 0
112 137 0
115 144 0
115 140 0
113 135 0
117 145 0
112 137 0
115 144 0
114 145 0
111 133 0
113 141 0
114 145 0
110 130 0
113 139 0
113 138 0
109 131 0
109 128 0
113 138 0
116 142 0
108 135 0
110 133 0
113 130 0
109 133 0
113 141 0
112 138 0
115 144 0
103 116 0
104 123 0
107 124 0
106 124 0
113 136 0
110 124 0
109 131 0
113 133 0
118 140 0
107 127 0
106 118 0
96 101 0
104 119 0
115 135 0
109 128 0
105 121 0
106 119 0
98 108 0
98 112 0
102 113 0
98 101 0
101 107 0
100 111 0
100 108 0
91 98 0
106 123 0
102 112 0
97 99 0
100 104 0
99 106 0
102 108 0
94 93 0
93 98 0
96 96 0
92 92 0
91 93 0
100 100 0
98 108 0
90 83 0
85 76 0
87 79 0
82 74 0
86 79 0
91 83 0
79 72 0
81 75 0
71 60 0
77 65 0
75 63 0
76 68 0
69 41 1
81 43 13
79 40 13
82 38 9
84 40 12
76 37 10
76 37 12
74 38 6
84 40 15
83 42 16
87 42 18
80 37 19
83 40 24
81 41 13
84 42 18
82 40 13
89 44 19
81 38 19
85 42 19
83 40 15
85 43 21
82 39 12
88 45 21
88 43 26
76 37 7
82 39 19
90 45 19
95 48 27
85 43 18
87 43 19
85 42 15
81 39 15
79 38 13
83 39 12
87 43 16
82 39 7
78 39 9
79 39 12
86 41 16
82 40 13
87 43 19
80 39 9
80 39 13
83 42 9
90 45 24
88 44 16
84 41 16
83 39 19
82 40 13
90 44 21
77 36 13
86 42 16
86 41 13
83 38 13
87 40 18
80 39 12
78 36 19
77 35 12
81 37 10
78 42 15
74 53 6
68 56 0
65 50 0
68 55 0
77 73 0
79 74 0
78 66 0
80 71 0
84 74 0
88 90 0
84 77 0
96 89 0
90 91 0
87 81 0
94 97 0
88 83 0
97 98 0
95 94 0
87 81 0
103 112 0
98 105 0
96 103 0
93 92 0
110 122 0
98 107 0
103 114 0
96 99 0
100 111 0
101 114 0
102 103 0
99 108 0
103 118 0
112 130 0
109 129 0
102 112 0
104 112 0
103 120 0
109 123 0
107 118 0
107 125 0
103 117 0
103 114 0
103 109 0
107 129 0
111 127 0
106 124 0
101 116 0
103 121 0
104 120 0
106 124 0
110 135 0
112 132 0
111 131 0
109 124 0
106 126 0
111 132 0
110 124 0
106 123 0
112 131 0
115 140 0
110 130 0
113 141 0
114 139 0
109 133 0
112 142 0
109 131 0
115 144 0
113 137 0
116 144 0
114 132 0
113 141 0
107 130 0
114 141 0
117 145 0
111 136 0
112 138 0
116 146 0
117 148 0
115 144 0
116 146 0
113 141 0
109 137 0
112 138 0
116 144 0
112 135 0
114 145 0
111 140 0
116 142 0
112 138 0
117 144 0
116 146 0
115 145 0
113 139 0
115 145 0
112 134 0
116 146 0
119 148 0
117 145 0
115 142 0
118 153 0
115 144 0
114 142 0
114 141 0
119 148 0
116 148 0
121 154 0
119 148 0
116 148 0
118 151 0
116 148 0
114 143 0
113 146 0
118 149 0
118 152 0
118 151 0
118 149 0
116 148 0
116 140 0
113 141 0
116 150 0
119 149 0
118 149 0
113 141 0
118 144 0
115 145 0
119 153 0
116 148 0
117 150 0
119 153 0
118 149 0
120 154 0
119 151 0
121 154 0
120 152 0
117 146 0
117 146 0
118 151 0
119 151 0
114 148 0
115 145 0
119 153 0
115 146 0
117 150 0
117 147 0
118 151 0
121 155 0
117 148 0
116 152 0
119 153 0
117 149 0
118 149 0
118 153 0
118 151 0
118 151 0
121 152 0
118 152 0
114 145 0
122 151 0
118 151 0
114 147 0
118 151 0
118 152 0
117 150 0
118 151 0
116 150 0
117 147 0
115 151 0
121 154 0
121 155 0
118 151 0
116 146 0
119 153 0
114 147 0
119 153 0
118 153 0
119 149 0
118 152 0
115 148 0
114 147 0
118 152 0
119 150 0
118 151 0
119 153 0
115 145 0
119 151 0
121 154 0
116 149 0
119 151 0
113 146 0
117 152 0
116 148 0
119 151 0
115 151 0
114 140 0
118 151 0
116 147 0
121 154 0
116 148 0
116 146 0
118 149 0
117 150 0
121 150 0
118 153 0
116 148 0
120 148 0
117 146 0
117 150 0
114 137 0
114 145 0
115 149 0
116 148 0
116 149 0
118 149 0
119 152 0
119 151 0
117 146 0
118 151 0
115 145 0
117 145 0
114 145 0
117 150 0
118 153 0
113 143 0
116 144 0
116 146 0
113 141 0
117 148 0
117 147 0
114 139 0
118 147 0
121 153 0
113 144 0
124 151 0
115 145 0
113 143 0
117 150 0
116 146 0
115 143 0
116 148 0
116 146 0
119 152 0
114 136 0
116 144 0
114 145 0
116 146 0
115 145 0
115 146 0
117 148 0
115 146 0
114 141 0
113 144 0
115 144 0
113 139 0
111 140 0
116 145 0
113 137 0
111 132 0
114 141 0
114 141 0
115 142 0
112 144 0
117 150 0
113 137 0
111 138 0
120 152 0
114 138 0
116 146 0
115 144 0
110 139 0
109 136 0
110 135 0
113 139 0
113 144 0
110 135 0
115 138 0
105 120 0
110 134 0
113 134 0
115 140 0
115 140 0
112 133 0
116 140 0
108 130 0
110 128 0
112 133 0
109 126 0
109 137 0
108 126 0
108 127 0
112 138 0
107 134 0
108 125 0
109 131 0
104 123 0
102 115 0
102 121 0
108 125 0
111 123 0
101 116 0
108 133 0
105 120 0
108 129 0
104 118 0
105 120 0
107 124 0
100 102 0
105 122 0
108 122 0
101 113 0
95 99 0
97 104 0
103 117 0
108 121 0
108 125 0
109 124 0
103 110 0
93 99 0
98 104 0
102 104 0
103 112 0
94 99 0
104 112 0
87 82 0
86 83 0
99 102 0
97 104 0
102 105 0
87 87 0
86 82 0
89 92 0
93 98 0
79 77 0
83 78 0
89 89 0
86 85 0
78 67 0
71 53 0
59 47 0
71 65 0
79 72 0
70 60 0
75 63 0
74 61 3
75 40 10
81 40 10
81 37 13
81 41 10
73 35 9
78 40 9
81 39 12
77 35 10
83 40 10
82 40 19
80 39 12
83 41 10
82 40 12
77 35 12
81 40 13
73 34 12
83 41 15
79 37 15
92 46 24
78 37 10
82 39 13
86 41 16
81 37 16
78 35 12
81 39 18
85 43 15
81 39 15
86 41 16
82 40 12
86 41 12
85 40 18
87 44 21
84 42 15
79 37 15
85 41 15
77 37 10
83 40 10
87 44 24
87 43 18
93 46 27
78 39 7
81 41 12
86 42 16
81 39 16
76 36 7
87 42 16
81 38 19
78 36 9
74 33 12
78 35 15
79 38 13
78 37 10
74 36 12
79 38 13
65 30 7
75 51 3
68 60 0
78 69 0
68 59 0
79 70 0
69 56 0
75 66 0
73 57 0
84 77 0
90 89 0
86 85 0
85 72 0
85 75 0
81 77 0
88 84 0
83 84 0
83 74 0
94 95 0
95 103 0
92 96 0
90 95 0
91 91 0
103 107 0
96 102 0
113 128 0
100 109 0
97 98 0
104 117 0
98 110 0
101 110 0
102 114 0
103 116 0
106 117 0
103 120 0
104 118 0
106 125 0
100 103 0
107 123 0
98 109 0
102 113 0
106 122 0
99 114 0
109 128 0
103 113 0
118 143 0
107 125 0
111 134 0
107 126 0
110 130 0
105 122 0
110 130 0
105 116 0
105 124 0
110 128 0
112 129 0
102 118 0
110 137 0
106 124 0
114 143 0
111 138 0
111 134 0
113 143 0
110 135 0
113 137 0
112 137 0
109 130 0
113 139 0
111 136 0
113 142 0
113 132 0
116 142 0
110 139 0
113 145 0
117 148 0
113 143 0
114 145 0
112 139 0
115 143 0
116 146 0
113 139 0
115 142 0
117 143 0
113 141 0
114 140 0
115 149 0
116 149 0
115 145 0
117 148 0
115 142 0
113 141 0
114 145 0
117 145 0
115 140 0
110 141 0
117 145 0
115 144 0
114 140 0
113 141 0
116 148 0
116 146 0
117 145 0
115 145 0
115 145 0
120 147 0
112 142 0
117 150 0
115 147 0
117 150 0
115 145 0
114 145 0
114 145 0
114 143 0
118 147 0
113 145 0
116 150 0
114 137 0
116 146 0
116 146 0
117 147 0
116 147 0
116 150 0
119 149 0
114 147 0
118 152 0
118 147 0
115 146 0
119 151 0
124 156 0
116 148 0
117 150 0
116 148 0
120 150 0
116 146 0
117 145 0
116 148 0
114 145 0
116 152 0
119 151 0
119 149 0
117 147 0
117 152 0
116 148 0
118 149 0
121 154 0
120 152 0
117 148 0
117 150 0
120 152 0
121 152 0
118 149 0
117 149 0
119 151 0
119 153 0
119 148 0
118 151 0
116 148 0
118 145 0
118 147 0
118 153 0
123 155 0
117 150 0
119 153 0
120 152 0
119 153 0
116 142 0
120 150 0
116 147 0
113 144 0
116 148 0
113 146 0
121 154 0
116 150 0
116 151 0
121 154 0
116 152 0
118 153 0
117 150 0
115 149 0
118 151 0
121 154 0
119 153 0
118 149 0
117 150 0
113 146 0
119 153 0
120 154 0
118 151 0
115 149 0
117 148 0
117 145 0
112 139 0
116 150 0
119 153 0
118 149 0
115 147 0
116 150 0
120 154 0
121 155 0
121 151 0
118 153 0
116 148 0
114 143 0
115 147 0
115 149 0
119 153 0
115 146 0
114 141 0
119 151 0
116 146 0
116 146 0
118 147 0
117 150 0
118 152 0
119 149 0
118 151 0
116 144 0
119 149 0
117 150 0
117 148 0
117 148 0
113 141 0
117 148 0
116 148 0
114 142 0
116 149 0
116 146 0
114 145 0
117 149 0
112 135 0
118 149 0
108 138 0
116 147 0
116 150 0
112 142 0
118 149 0
116 146 0
115 146 0
113 142 0
113 141 0
115 143 0
118 149 0
114 145 0
116 148 0
115 141 0
115 146 0
117 145 0
117 149 0
117 150 0
113 143 0
116 145 0
117 150 0
115 142 0
116 148 0
113 143 0
113 148 0
117 148 0
119 150 0
113 137 0
115 140 0
117 147 0
115 140 0
115 145 0
115 140 0
117 145 0
109 135 0
107 132 0
114 137 0
116 146 0
112 140 0
116 146 0
114 142 0
116 143 0
118 147 0
110 127 0
114 138 0
110 136 0
112 135 0
112 132 0
116 143 0
114 139 0
107 127 0
110 131 0
104 128 0
113 139 0
112 135 0
109 135 0
109 122 0
113 135 0
110 130 0
108 128 0
115 140 0
113 135 0
112 135 0
109 129 0
109 127 0
107 126 0
114 130 0
105 120 0
105 116 0
113 133 0
105 119 0
101 116 0
96 102 0
104 117 0
102 117 0
106 118 0
108 127 0
104 121 0
99 107 0
99 110 0
100 111 0
97 106 0
105 117 0
106 123 0
101 108 0
103 113 0
101 111 0
103 111 0
103 111 0
99 114 0
88 87 0
99 101 0
97 105 0
94 99 0
96 99 0
93 102 0
94 93 0
88 88 0
85 78 0
85 77 0
87 82 0
88 89 0
92 90 0
71 58 0
90 89 0
74 67 0
84 74 0
80 75 0
88 79 0
89 79 0
81 75 0
73 66 0
69 58 0
78 69 0
75 64 0
67 55 0
63 46 1
78 42 10
75 34 15
70 32 4
81 40 18
76 38 6
83 41 16
86 41 16
73 34 6
80 38 16
78 38 10
76 35 10
79 38 10
82 39 18
86 43 21
83 41 16
77 36 13
84 41 13
83 40 13
71 31 7
79 37 12
86 42 21
87 42 21
79 38 12
81 38 12
91 47 18
90 45 16
78 35 15
82 41 13
82 40 7
86 41 19
86 41 16
81 40 12
81 40 15
80 38 16
85 41 19
78 38 13
82 41 15
85 40 18
81 40 16
79 40 7
86 41 27
83 40 10
72 35 4
79 38 9
82 39 18
82 39 6
83 40 16
77 38 9
78 36 10
76 38 12
74 42 6
74 59 1
81 78 0
69 58 0
63 50 0
60 36 0
83 77 0
78 78 0
76 64 0
76 68 0
74 60 0
87 75 0
81 75 0
89 89 0
92 93 0
81 76 0
91 87 0
87 87 0
91 92 0
87 80 0
86 83 0
94 101 0
88 84 0
97 95 0
87 86 0
98 107 0
83 74 0
97 108 0
97 108 0
96 98 0
98 106 0
101 110 0
102 111 0
101 114 0
100 106 0
101 116 0
108 123 0
102 112 0
101 110 0
100 114 0
105 115 0
100 106 0
105 119 0
107 119 0
99 109 0
105 122 0
107 114 0
103 124 0
99 111 0
111 128 0
110 132 0
113 137 0
107 132 0
107 127 0
115 142 0
111 132 0
111 132 0
112 135 0
111 136 0
114 141 0
109 133 0
112 138 0
113 139 0
98 109 0
112 133 0
107 128 0
111 131 0
112 135 0
112 135 0
109 131 0
111 136 0
108 123 0
109 133 0
112 140 0
106 124 0
110 133 0
111 131 0
114 144 0
111 136 0
115 140 0
111 131 0
118 150 0
119 148 0
114 145 0
120 148 0
116 144 0
117 145 0
116 148 0
114 141 0
119 153 0
115 138 0
114 140 0
109 136 0
118 147 0
115 145 0
120 146 0
117 147 0
116 139 0
117 148 0
116 148 0
116 148 0
116 146 0
116 142 0
122 155 0
112 143 0
116 150 0
111 138 0
115 147 0
115 142 0
117 145 0
115 143 0
115 144 0
116 146 0
117 149 0
118 147 0
119 152 0
116 148 0
117 150 0
119 148 0
113 146 0
116 151 0
118 149 0
118 151 0
118 149 0
113 145 0
117 149 0
117 148 0
120 152 0
118 151 0
111 138 0
118 149 0
114 147 0
114 145 0
118 146 0
115 147 0
119 151 0
119 153 0
115 143 0
119 151 0
116 148 0
117 150 0
118 152 0
114 146 0
113 144 0
113 148 0
117 149 0
121 152 0
116 148 0
123 154 0
118 151 0
119 150 0
118 149 0
118 151 0
119 153 0
115 144 0
121 152 0
118 149 0
117 150 0
117 149 0
116 148 0
118 152 0
118 149 0
114 147 0
118 151 0
121 154 0
119 153 0
118 152 0
117 152 0
117 148 0
117 146 0
118 151 0
117 150 0
117 152 0
116 150 0
118 151 0
119 153 0
116 150 0
117 152 0
118 151 0
119 151 0
120 152 0
117 150 0
115 151 0
118 151 0
116 151 0
118 153 0
121 154 0
118 153 0
118 147 0
120 152 0
120 152 0
114 145 0
116 148 0
116 150 0
115 145 0
111 145 0
118 151 0
116 143 0
115 147 0
118 153 0
117 150 0
120 154 0
116 150 0
120 154 0
117 149 0
118 152 0
119 150 0
118 151 0
113 144 0
115 151 0
116 146 0
121 153 0
118 152 0
118 151 0
116 150 0
117 150 0
116 142 0
116 148 0
117 150 0
116 151 0
116 148 0
117 145 0
119 148 0
116 148 0
117 147 0
116 148 0
121 154 0
114 147 0
115 151 0
117 149 0
114 145 0
117 150 0
116 146 0
115 146 0
117 148 0
111 141 0
114 143 0
113 144 0
117 146 0
115 146 0
117 150 0
119 150 0
116 142 0
116 148 0
118 151 0
113 144 0
116 148 0
117 143 0
115 143 0
112 142 0
115 145 0
114 146 0
115 142 0
113 141 0
118 145 0
115 144 0
115 138 0
113 136 0
116 148 0
113 142 0
113 142 0
117 147 0
112 142 0
114 140 0
113 137 0
109 136 0
113 137 0
113 142 0
109 129 0
109 131 0
114 144 0
116 144 0
112 140 0
111 136 0
113 139 0
112 135 0
115 140 0
113 143 0
108 129 0
113 139 0
109 127 0
109 129 0
113 141 0
113 135 0
105 119 0
113 135 0
106 127 0
116 143 0
115 137 0
111 138 0
113 139 0
112 136 0
107 127 0
109 128 0
106 124 0
114 136 0
105 118 0
107 125 0
105 122 0
109 127 0
110 136 0
112 137 0
100 113 0
105 116 0
110 130 0
112 136 0
100 109 0
114 129 0
105 121 0
103 117 0
96 102 0
103 120 0
111 131 0
98 109 0
104 119 0
105 116 0
101 104 0
101 107 0
101 109 0
107 120 0
113 132 0
100 113 0
108 122 0
99 111 0
99 101 0
91 93 0
95 98 0
92 97 0
97 102 0
100 105 0
97 102 0
96 99 0
90 84 0
94 103 0
96 99 0
89 93 0
88 84 0
83 77 0
85 80 0
91 90 0
91 92 0
63 47 0
79 69 0
73 61 0
74 64 0
72 60 0
81 81 0
68 58 0
68 57 0
76 69 0
71 62 0
58 44 0
70 41 4
65 31 4
79 37 18
79 39 10
76 35 12
80 38 13
80 39 13
80 39 13
85 41 13
90 43 27
80 39 10
85 42 13
78 37 12
69 33 4
85 43 21
90 44 26
85 42 12
82 38 16
78 37 18
81 40 13
83 41 13
80 38 15
84 41 10
77 39 7
83 41 15
80 38 9
85 41 18
83 41 13
81 39 12
79 38 10
80 39 6
72 32 7
89 43 23
86 41 19
77 36 12
76 35 9
73 37 4
80 40 13
80 39 13
74 34 12
80 41 7
83 39 18
78 38 7
71 33 9
68 31 9
71 31 6
59 33 6
61 39 0
65 58 0
69 60 0
73 57 0
62 44 0
80 83 0
67 61 0
84 81 0
75 62 0
72 65 0
82 75 0
78 69 0
76 69 0
83 75 0
83 79 0
82 77 0
86 82 0
84 79 0
83 79 0
83 83 0
94 96 0
94 98 0
94 101 0
94 92 0
91 95 0
85 80 0
92 86 0
100 104 0
104 119 0
104 117 0
101 103 0
92 94 0
99 102 0
102 109 0
92 93 0
106 122 0
102 112 0
98 104 0
104 115 0
105 113 0
105 117 0
106 118 0
105 117 0
106 117 0
105 121 0
107 127 0
106 119 0
101 113 0
108 127 0
106 126 0
109 129 0
101 111 0
106 126 0
110 130 0
107 124 0
112 131 0
113 130 0
111 130 0
114 142 0
107 126 0
116 142 0
112 135 0
112 136 0
102 116 0
111 129 0
110 137 0
113 139 0
111 143 0
104 125 0
119 148 0
111 132 0
114 141 0
111 140 0
107 121 0
112 138 0
108 136 0
113 139 0
115 135 0
111 135 0
112 140 0
111 134 0
113 142 0
110 135 0
117 146 0
113 132 0
114 141 0
115 142 0
110 136 0
118 145 0
117 147 0
122 151 0
115 144 0
116 143 0
114 141 0
118 144 0
112 142 0
115 142 0
121 151 0
111 139 0
118 149 0
115 145 0
117 149 0
117 150 0
119 149 0
117 149 0
117 149 0
117 150 0
115 138 0
116 146 0
115 145 0
119 151 0
115 139 0
112 135 0
116 147 0
112 144 0
119 151 0
117 145 0
115 147 0
117 150 0
115 145 0
114 140 0
118 149 0
117 150 0
118 153 0
120 154 0
118 147 0
118 151 0
118 151 0
120 153 0
115 149 0
116 146 0
116 144 0
116 148 0
118 147 0
117 147 0
115 145 0
119 148 0
113 146 0
116 149 0
115 143 0
117 146 0
118 147 0
116 150 0
117 152 0
114 145 0
117 148 0
116 146 0
117 147 0
120 153 0
115 151 0
118 153 0
115 149 0
115 146 0
119 149 0
120 152 0
117 147 0
118 149 0
118 152 0
118 147 0
120 154 0
116 148 0
119 153 0
121 152 0
120 154 0
118 153 0
120 152 0
117 152 0
120 154 0
112 145 0
117 150 0
116 150 0
116 146 0
121 154 0
120 154 0
120 153 0
117 150 0
118 149 0
118 153 0
117 150 0
118 151 0
117 150 0
121 154 0
117 150 0
118 149 0
115 148 0
119 152 0
118 151 0
118 152 0
117 150 0
118 152 0
117 152 0
118 149 0
117 150 0
117 148 0
118 149 0
116 151 0
118 151 0
120 154 0
120 154 0
116 149 0
118 149 0
118 149 0
117 145 0
117 147 0
114 145 0
117 148 0
119 150 0
117 148 0
113 144 0
117 146 0
116 144 0
113 139 0
119 153 0
118 153 0
117 150 0
118 149 0
117 144 0
117 149 0
119 153 0
117 148 0
114 143 0
115 146 0
116 145 0
115 146 0
115 144 0
118 150 0
113 142 0
119 149 0
119 148 0
109 137 0
117 147 0
115 145 0
119 148 0
117 152 0
119 149 0
114 145 0
112 139 0
110 139 0
119 148 0
117 143 0
117 147 0
115 142 0
114 143 0
113 140 0
111 139 0
116 148 0
113 134 0
117 150 0
113 141 0
115 140 0
117 144 0
112 142 0
114 139 0
116 148 0
114 140 0
112 133 0
116 148 0
114 143 0
114 141 0
115 144 0
113 137 0
117 148 0
114 141 0
109 133 0
112 134 0
115 146 0
112 138 0
116 142 0
113 143 0
111 138 0
113 143 0
110 136 0
116 140 0
114 142 0
110 130 0
110 130 0
113 136 0
115 142 0
115 142 0
111 136 0
112 138 0
111 134 0
113 139 0
114 135 0
109 129 0
111 136 0
115 142 0
116 143 0
110 130 0
112 134 0
109 131 0
107 132 0
109 131 0
104 120 0
107 121 0
102 114 0
110 129 0
108 129 0
107 130 0
107 130 0
107 124 0
104 121 0
112 135 0
108 127 0
102 109 0
100 115 0
104 111 0
103 113 0
99 106 0
107 119 0
101 113 0
99 107 0
108 127 0
91 93 0
104 115 0
100 107 0
106 120 0
97 96 0
106 117 0
94 98 0
85 85 0
108 123 0
98 111 0
103 115 0
103 113 0
103 106 0
92 96 0
98 98 0
93 95 0
97 99 0
90 87 0
94 91 0
85 84 0
91 91 0
92 92 0
89 85 0
75 66 0
92 86 0
94 90 0
81 64 0
82 75 0
87 91 0
66 53 0
76 60 0
67 57 0
74 61 0
70 56 0
68 61 0
66 56 0
65 50 0
64 50 0
58 48 0
63 51 0
48 34 0
60 43 0
61 45 1
68 47 4
65 28 9
73 35 6
80 40 16
72 33 6
77 36 7
76 37 15
79 37 18
77 37 6
79 37 13
73 34 6
77 36 12
74 34 6
76 36 6
81 38 18
78 35 18
78 37 12
80 40 9
80 37 13
80 37 10
75 35 12
80 39 15
69 30 6
80 40 10
73 35 4
87 44 19
78 37 16
74 36 9
75 35 7
81 39 16
86 41 12
77 36 12
74 36 3
79 37 12
76 36 12
77 35 9
75 33 9
77 38 12
75 33 10
60 27 4
65 41 4
59 38 0
65 56 0
66 51 0
53 40 0
55 41 0
69 60 0
72 52 0
60 45 0
71 63 0
81 76 0
74 59 0
81 72 0
73 61 0
75 67 0
74 64 0
83 76 0
98 105 0
75 63 0
70 63 0
88 87 0
86 80 0
93 89 0
100 100 0
92 93 0
98 100 0
85 84 0
106 116 0
93 97 0
92 90 0
100 104 0
99 102 0
98 106 0
107 119 0
97 103 0
90 93 0
101 113 0
98 107 0
100 106 0
97 107 0
104 114 0
96 104 0
102 108 0
108 121 0
109 122 0
98 106 0
110 131 0
101 103 0
99 108 0
110 132 0
109 127 0
99 107 0
108 125 0
105 126 0
110 126 0
100 119 0
108 127 0
109 126 0
103 117 0
106 126 0
108 131 0
105 125 0
110 133 0
111 136 0
109 133 0
110 129 0
109 127 0
108 123 0
112 137 0
113 138 0
108 136 0
113 135 0
108 125 0
116 143 0
117 143 0
106 125 0
114 139 0
115 137 0
111 134 0
113 141 0
111 134 0
114 141 0
114 132 0
115 140 0
118 146 0
113 139 0
112 140 0
112 137 0
109 128 0
113 139 0
107 127 0
111 132 0
114 141 0
116 139 0
113 135 0
113 144 0
114 141 0
109 132 0
113 135 0
111 135 0
114 144 0
110 133 0
115 142 0
116 146 0
116 146 0
114 143 0
119 149 0
115 142 0
114 141 0
114 143 0
117 148 0
113 139 0
115 142 0
112 139 0
113 141 0
116 144 0
117 148 0
109 135 0
115 149 0
119 150 0
116 146 0
114 142 0
118 147 0
116 148 0
115 145 0
115 142 0
116 148 0
118 148 0
114 146 0
117 147 0
115 144 0
119 149 0
113 144 0
115 144 0
115 145 0
118 149 0
115 145 0
117 147 0
118 149 0
117 150 0
115 149 0
118 152 0
119 151 0
119 148 0
118 151 0
119 153 0
120 152 0
114 145 0
119 153 0
122 151 0
118 149 0
117 150 0
118 151 0
115 149 0
117 150 0
118 148 0
119 153 0
116 146 0
116 149 0
119 153 0
115 149 0
118 153 0
116 152 0
115 149 0
115 146 0
118 152 0
118 151 0
118 149 0
117 146 0
113 143 0
119 153 0
118 147 0
117 152 0
120 152 0
118 152 0
120 153 0
114 143 0
117 149 0
119 151 0
120 150 0
119 153 0
119 153 0
117 150 0
118 151 0
119 153 0
119 151 0
118 150 0
118 151 0
116 148 0
117 150 0
116 150 0
117 152 0
120 150 0
118 151 0
120 154 0
119 153 0
120 152 0
116 148 0
117 150 0
118 149 0
116 144 0
118 151 0
116 144 0
117 146 0
118 152 0
120 152 0
117 152 0
117 150 0
118 151 0
116 148 0
118 149 0
117 152 0
115 147 0
114 143 0
115 145 0
118 147 0
117 150 0
118 150 0
117 150 0
116 146 0
116 144 0
119 149 0
113 143 0
117 150 0
115 142 0
115 144 0
118 149 0
115 147 0
115 145 0
115 144 0
117 150 0
113 142 0
114 145 0
114 145 0
120 154 0
118 153 0
119 151 0
120 154 0
112 139 0
115 147 0
113 142 0
110 133 0
114 143 0
112 143 0
112 137 0
112 143 0
114 142 0
120 150 0
117 145 0
112 137 0
111 139 0
115 144 0
115 142 0
115 142 0
112 138 0
115 144 0
115 143 0
114 143 0
116 142 0
113 135 0
122 150 0
109 133 0
114 140 0
116 142 0
113 139 0
116 148 0
109 135 0
113 139 0
108 135 0
112 137 0
117 145 0
114 139 0
112 135 0
116 146 0
117 147 0
116 141 0
117 145 0
117 143 0
112 137 0
112 138 0
114 136 0
111 139 0
119 146 0
111 127 0
113 142 0
113 137 0
111 136 0
106 126 0
112 133 0
111 136 0
108 132 0
112 135 0
102 120 0
113 131 0
103 115 0
109 129 0
109 133 0
109 133 0
110 133 0
109 129 0
109 130 0
109 129 0
111 127 0
102 112 0
111 134 0
110 126 0
112 138 0
109 125 0
109 124 0
101 105 0
106 120 0
111 130 0
108 127 0
104 117 0
102 111 0
113 128 0
96 113 0
95 100 0
102 109 0
109 120 0
112 129 0
102 109 0
95 97 0
94 97 0
101 107 0
100 104 0
101 112 0
106 116 0
99 105 0
88 91 0
99 107 0
81 77 0
96 92 0
99 101 0
92 92 0
82 79 0
87 80 0
96 97 0
88 89 0
96 95 0
87 82 0
88 87 0
86 79 0
81 74 0
74 66 0
77 72 0
86 83 0
87 83 0
85 84 0
73 56 0
63 46 0
82 77 0
64 45 0
80 66 0
61 46 0
56 45 0
64 55 0
64 49 0
55 37 0
59 44 0
47 36 0
52 38 0
43 25 0
59 40 1
66 28 6
64 28 9
72 32 6
66 28 9
65 30 4
76 35 10
80 36 12
82 40 13
67 29 9
75 35 9
78 38 13
80 38 13
78 36 12
74 33 10
77 38 13
75 35 12
76 34 12
80 38 12
76 35 9
72 35 7
75 34 12
78 37 10
72 33 6
76 35 9
77 36 12
80 38 13
75 34 9
74 33 13
73 34 15
77 35 13
74 34 6
69 31 4
66 33 4
54 31 4
60 49 0
61 45 0
43 28 0
66 57 0
53 38 0
64 49 0
65 57 0
51 33 0
71 58 0
74 65 0
72 66 0
63 49 0
77 70 0
78 71 0
83 74 0
79 67 0
76 60 0
90 85 0
84 82 0
85 78 0
88 88 0
75 68 0
89 88 0
87 79 0
78 64 0
97 99 0
84 82 0
96 102 0
86 78 0
98 102 0
93 90 0
94 90 0
100 104 0
103 108 0
105 116 0
89 87 0
103 109 0
93 92 0
104 113 0
104 115 0
98 107 0
100 112 0
108 119 0
97 100 0
103 120 0
100 102 0
109 131 0
103 124 0
98 110 0
104 115 0
110 130 0
111 134 0
99 113 0
105 115 0
103 119 0
103 116 0
108 129 0
105 112 0
110 128 0
107 121 0
112 134 0
109 129 0
107 120 0
111 131 0
111 132 0
103 115 0
111 134 0
105 120 0
117 143 0
108 126 0
110 139 0
112 137 0
109 128 0
107 127 0
112 138 0
116 145 0
109 131 0
111 134 0
109 130 0
115 138 0
111 136 0
111 136 0
112 137 0
114 141 0
112 139 0
111 138 0
112 131 0
119 146 0
114 145 0
108 125 0
113 138 0
117 147 0
112 137 0
112 134 0
113 143 0
110 139 0
114 145 0
115 145 0
112 138 0
116 144 0
114 142 0
113 143 0
115 145 0
114 143 0
112 135 0
114 139 0
112 138 0
116 146 0
115 143 0
114 139 0
112 138 0
115 140 0
118 151 0
118 149 0
116 146 0
110 141 0
118 152 0
109 133 0
117 143 0
114 144 0
120 147 0
115 147 0
116 146 0
113 139 0
121 149 0
117 148 0
118 151 0
117 143 0
115 146 0
113 139 0
113 148 0
116 151 0
115 144 0
111 140 0
121 149 0
113 146 0
112 145 0
116 143 0
118 152 0
116 150 0
118 149 0
117 150 0
117 148 0
118 147 0
114 145 0
113 146 0
115 148 0
112 143 0
116 146 0
114 146 0
121 153 0
119 151 0
119 151 0
114 149 0
119 151 0
117 148 0
117 144 0
117 152 0
115 145 0
113 142 0
119 151 0
114 145 0
119 151 0
117 143 0
118 149 0
118 149 0
116 150 0
117 152 0
116 146 0
119 150 0
117 150 0
120 154 0
118 151 0
119 153 0
119 152 0
119 149 0
117 149 0
114 145 0
114 146 0
118 152 0
115 147 0
121 154 0
119 150 0
115 151 0
117 148 0
113 141 0
117 148 0
121 154 0
119 151 0
116 150 0
114 143 0
116 146 0
122 153 0
117 147 0
116 148 0
118 149 0
113 146 0
116 146 0
114 147 0
118 152 0
119 148 0
116 150 0
117 150 0
117 148 0
115 147 0
118 151 0
122 155 0
115 147 0
111 136 0
118 147 0
117 148 0
118 147 0
112 143 0
116 148 0
113 144 0
115 149 0
118 153 0
117 149 0
115 146 0
121 152 0
119 151 0
121 152 0
115 147 0
118 150 0
116 150 0
120 150 0
113 145 0
118 147 0
116 147 0
118 151 0
114 141 0
117 150 0
114 150 0
119 149 0
118 153 0
116 146 0
118 149 0
116 147 0
114 143 0
115 146 0
119 148 0
118 147 0
116 150 0
115 144 0
116 146 0
116 148 0
116 149 0
116 149 0
110 134 0
116 146 0
116 146 0
118 143 0
114 143 0
115 147 0
119 152 0
113 143 0
118 149 0
115 143 0
114 143 0
114 140 0
113 143 0
109 133 0
113 139 0
110 137 0
111 132 0
110 137 0
115 142 0
114 143 0
110 133 0
113 137 0
115 145 0
112 140 0
114 144 0
114 139 0
115 142 0
114 141 0
112 132 0
114 143 0
109 129 0
108 123 0
111 134 0
114 143 0
107 127 0
112 136 0
110 132 0
114 139 0
112 137 0
108 129 0
111 138 0
115 134 0
111 134 0
110 130 0
109 135 0
112 131 0
108 132 0
104 118 0
110 131 0
110 126 0
110 130 0
108 124 0
109 130 0
107 125 0
103 124 0
113 134 0
113 130 0
109 129 0
104 117 0
109 128 0
104 114 0
113 133 0
109 128 0
105 122 0
106 114 0
106 119 0
108 119 0
108 120 0
104 118 0
108 123 0
105 113 0
100 111 0
104 119 0
105 113 0
94 102 0
99 106 0
97 101 0
96 102 0
105 116 0
96 102 0
100 111 0
106 115 0
102 113 0
101 112 0
94 95 0
95 97 0
91 92 0
97 100 0
82 77 0
95 97 0
83 77 0
79 77 0
97 93 0
98 107 0
84 83 0
92 93 0
86 84 0
86 78 0
79 76 0
83 78 0
76 60 0
79 69 0
77 64 0
70 55 0
73 62 0
82 75 0
74 60 0
78 70 0
75 65 0
71 54 0
63 45 0
62 52 0
56 44 0
62 56 0
58 38 0
53 41 0
47 31 0
55 39 0
56 40 0
49 33 0
66 51 1
56 33 3
60 28 7
64 29 6
61 28 1
69 31 9
75 35 13
69 31 9
67 31 6
78 36 13
72 31 9
76 35 15
81 38 13
80 36 12
70 32 3
72 33 7
77 36 12
79 37 13
75 35 7
71 32 10
72 33 6
77 35 10
70 32 13
72 30 9
73 34 13
54 25 3
58 37 4
46 24 7
48 30 1
60 49 0
48 30 0
52 34 0
46 27 0
54 36 0
63 48 0
60 49 0
62 52 0
62 45 0
59 48 0
60 44 0
69 56 0
82 79 0
67 56 0
70 59 0
74 63 0
74 60 0
78 69 0
74 63 0
81 67 0
73 66 0
84 77 0
79 72 0
86 78 0
97 93 0
85 78 0
97 93 0
98 97 0
91 93 0
89 87 0
88 85 0
85 78 0
93 92 0
95 94 0
101 103 0
94 98 0
100 102 0
95 100 0
90 89 0
96 100 0
102 110 0
95 98 0
97 106 0
103 111 0
101 109 0
102 109 0
91 94 0
98 108 0
102 117 0
101 110 0
106 122 0
105 118 0
106 115 0
104 114 0
99 110 0
108 119 0
105 113 0
104 119 0
109 127 0
112 131 0
111 134 0
102 112 0
110 129 0
108 128 0
108 125 0
110 132 0
105 123 0
107 124 0
111 129 0
114 140 0
106 120 0
102 114 0
112 133 0
112 133 0
111 134 0
108 127 0
112 135 0
113 132 0
107 123 0
111 134 0
109 135 0
112 130 0
114 141 0
114 141 0
112 139 0
114 141 0
108 135 0
109 134 0
109 129 0
114 145 0
107 125 0
115 140 0
113 141 0
109 132 0
115 140 0
107 128 0
115 146 0
110 134 0
117 143 0
116 138 0
111 133 0
110 139 0
112 140 0
113 143 0
116 141 0
119 144 0
114 145 0
113 141 0
114 145 0
112 134 0
118 153 0
116 148 0
114 139 0
115 140 0
114 138 0
114 141 0
119 153 0
116 144 0
113 144 0
115 143 0
117 147 0
114 148 0
118 145 0
115 145 0
118 149 0
119 151 0
117 150 0
115 147 0
117 145 0
120 154 0
114 147 0
117 144 0
114 145 0
117 145 0
115 149 0
114 147 0
112 140 0
117 149 0
120 150 0
115 144 0
116 148 0
111 141 0
115 142 0
118 151 0
117 147 0
115 147 0
120 150 0
113 142 0
115 146 0
119 148 0
117 150 0
117 148 0
117 150 0
119 153 0
113 140 0
112 135 0
116 150 0
117 152 0
118 149 0
119 153 0
115 149 0
114 145 0
118 149 0
122 155 0
118 151 0
117 149 0
116 148 0
117 148 0
121 152 0
116 142 0
115 146 0
117 148 0
118 147 0
124 154 0
118 153 0
119 148 0
114 148 0
118 149 0
115 144 0
115 147 0
115 149 0
119 153 0
121 154 0
114 143 0
115 144 0
120 152 0
118 151 0
117 152 0
113 146 0
116 148 0
115 149 0
118 151 0
119 150 0
119 153 0
117 148 0
119 150 0
117 146 0
119 153 0
118 149 0
114 145 0
116 148 0
119 153 0
114 143 0
120 152 0
119 153 0
116 148 0
117 148 0
116 150 0
116 148 0
115 145 0
119 152 0
119 152 0
118 152 0
118 151 0
120 152 0
115 146 0
116 149 0
114 142 0
117 152 0
116 146 0
117 150 0
116 150 0
117 147 0
115 144 0
120 152 0
116 146 0
117 150 0
115 149 0
121 149 0
116 141 0
120 150 0
116 146 0
117 150 0
115 144 0
120 152 0
113 144 0
117 148 0
117 148 0
112 137 0
111 132 0
117 152 0
118 147 0
114 143 0
120 146 0
117 147 0
112 140 0
114 141 0
111 140 0
117 152 0
115 148 0
113 141 0
115 140 0
112 144 0
114 145 0
115 143 0
113 141 0
111 140 0
114 143 0
119 148 0
114 141 0
111 141 0
112 142 0
113 137 0
114 143 0
110 133 0
117 143 0
116 144 0
120 152 0
117 150 0
113 141 0
110 135 0
111 136 0
112 137 0
113 140 0
114 141 0
111 132 0
108 131 0
114 140 0
110 128 0
111 140 0
113 141 0
109 131 0
110 130 0
114 141 0
107 128 0
116 139 0
107 124 0
110 131 0
106 124 0
111 134 0
114 136 0
111 132 0
113 135 0
113 135 0
114 134 0
108 131 0
110 132 0
106 120 0
108 124 0
111 132 0
107 123 0
106 123 0
110 132 0
105 120 0
108 126 0
108 131 0
106 120 0
110 133 0
107 127 0
106 124 0
107 121 0
111 135 0
110 123 0
109 127 0
100 112 0
107 123 0
107 124 0
103 119 0
104 117 0
98 108 0
102 113 0
101 110 0
102 111 0
105 114 0
100 112 0
91 99 0
102 107 0
96 105 0
101 110 0
97 98 0
106 115 0
92 93 0
97 100 0
101 104 0
101 116 0
85 83 0
96 100 0
89 86 0
95 92 0
90 92 0
91 86 0
90 92 0
90 91 0
85 79 0
88 79 0
90 97 0
91 95 0
84 76 0
70 58 0
79 70 0
82 79 0
82 73 0
78 64 0
72 55 0
79 71 0
70 49 0
69 54 0
70 52 0
56 41 0
77 71 0
59 40 0
66 51 0
67 54 0
64 48 0
55 41 0
58 42 0
60 47 0
57 43 0
47 32 0
51 37 0
48 33 0
36 18 0
57 49 0
34 22 0
44 25 0
33 25 0
43 29 1
44 29 0
54 32 3
53 30 3
48 23 6
46 25 6
64 34 9
58 33 1
59 29 4
51 20 3
63 33 4
47 21 4
62 35 9
53 23 4
54 28 3
44 25 1
52 37 0
49 32 1
40 28 0
47 35 0
45 29 0
43 25 0
44 26 0
48 39 0
42 31 0
52 37 0
50 38 0
57 44 0
58 50 0
52 33 0
66 49 0
72 59 0
73 63 0
61 49 0
64 56 0
63 50 0
76 68 0
68 53 0
71 62 0
84 81 0
75 65 0
86 83 0
81 72 0
80 67 0
81 72 0
88 81 0
85 75 0
97 94 0
80 74 0
78 74 0
74 68 0
105 115 0
99 102 0
90 88 0
100 110 0
95 100 0
88 86 0
90 90 0
95 94 0
88 91 0
88 85 0
96 98 0
101 108 0
100 105 0
94 96 0
106 116 0
95 100 0
101 112 0
99 110 0
98 102 0
104 121 0
104 115 0
103 114 0
101 110 0
105 120 0
108 122 0
105 113 0
108 127 0
110 119 0
100 108 0
100 108 0
115 137 0
107 121 0
107 119 0
102 114 0
97 106 0
110 133 0
110 128 0
113 139 0
106 121 0
106 124 0
116 137 0
104 117 0
111 131 0
109 131 0
110 130 0
107 126 0
107 128 0
113 141 0
114 143 0
111 135 0
105 127 0
104 119 0
112 129 0
111 127 0
113 140 0
116 142 0
112 139 0
108 129 0
106 123 0
112 138 0
112 133 0
115 145 0
109 130 0
115 142 0
114 140 0
113 141 0
114 141 0
116 137 0
111 133 0
115 142 0
109 137 0
111 136 0
112 136 0
113 139 0
114 141 0
114 142 0
118 147 0
115 145 0
113 144 0
114 139 0
115 142 0
114 143 0
117 150 0
111 138 0
117 147 0
114 140 0
113 139 0
113 139 0
112 142 0
115 145 0
115 143 0
110 134 0
113 139 0
114 143 0
116 144 0
113 134 0
114 147 0
114 145 0
114 143 0
117 150 0
114 141 0
116 142 0
114 141 0
116 148 0
117 149 0
115 142 0
113 144 0
118 149 0
117 146 0
116 145 0
115 145 0
114 143 0
118 143 0
120 150 0
113 141 0
117 148 0
113 144 0
116 148 0
117 150 0
115 147 0
120 152 0
114 145 0
113 146 0
119 146 0
113 144 0
113 142 0
117 146 0
116 143 0
117 146 0
116 144 0
118 149 0
118 149 0
111 145 0
119 149 0
117 152 0
121 154 0
115 146 0
116 148 0
117 148 0
117 148 0
114 150 0
116 146 0
117 147 0
116 150 0
116 148 0
116 149 0
121 154 0
117 150 0
120 152 0
115 147 0
116 148 0
118 151 0
120 154 0
118 151 0
117 150 0
117 150 0
114 142 0
116 148 0
115 145 0
117 148 0
114 143 0
118 151 0
116 148 0
119 153 0
118 149 0
117 150 0
116 151 0
119 153 0
116 150 0
117 149 0
118 151 0
116 146 0
115 147 0
117 148 0
111 143 0
120 152 0
115 145 0
114 145 0
119 153 0
115 146 0
118 151 0
116 148 0
114 145 0
119 151 0
120 150 0
118 151 0
116 149 0
113 141 0
118 149 0
117 150 0
118 153 0
117 150 0
114 145 0
115 140 0
117 148 0
118 149 0
113 146 0
115 145 0
117 146 0
116 142 0
115 144 0
115 146 0
119 151 0
112 140 0
119 150 0
118 145 0
119 148 0
118 147 0
111 134 0
112 137 0
114 143 0
114 141 0
115 144 0
116 145 0
110 132 0
122 153 0
116 146 0
120 148 0
119 151 0
113 143 0
115 144 0
117 147 0
117 152 0
117 146 0
119 148 0
116 144 0
110 141 0
113 142 0
116 144 0
116 150 0
119 149 0
114 145 0
109 131 0
115 148 0
119 149 0
114 143 0
112 137 0
116 144 0
109 136 0
116 146 0
109 133 0
114 143 0
118 142 0
117 150 0
117 142 0
113 141 0
113 141 0
108 131 0
109 133 0
112 138 0
109 131 0
113 141 0
116 141 0
106 126 0
115 142 0
109 137 0
111 136 0
116 146 0
108 130 0
109 132 0
113 139 0
113 134 0
107 129 0
111 134 0
115 144 0
111 130 0
108 128 0
108 131 0
112 137 0
110 136 0
112 138 0
113 131 0
112 140 0
108 127 0
111 136 0
113 134 0
103 116 0
107 125 0
104 121 0
107 127 0
107 123 0
110 126 0
110 135 0
103 115 0
106 116 0
108 127 0
105 118 0
106 121 0
99 111 0
99 113 0
103 119 0
102 107 0
103 122 0
96 106 0
95 97 0
99 102 0
98 102 0
100 104 0
106 117 0
100 110 0
102 117 0
105 117 0
90 89 0
102 105 0
93 95 0
91 83 0
93 89 0
100 105 0
94 89 0
97 99 0
94 95 0
89 91 0
95 99 0
101 108 0
88 79 0
84 77 0
80 71 0
88 83 0
87 79 0
88 81 0
75 65 0
73 59 0
84 78 0
76 69 0
87 78 0
87 75 0
74 64 0
80 69 0
76 63 0
76 64 0
72 65 0
79 68 0
69 60 0
62 50 0
62 46 0
66 53 0
69 60 0
68 53 0
72 62 0
56 44 0
67 56 0
51 39 0
44 32 0
53 33 0
45 28 0
51 31 0
40 26 0
36 18 0
44 29 0
49 35 0
53 40 0
40 28 0
50 39 0
46 25 0
27 14 0
45 32 0
36 22 0
36 24 0
38 25 0
46 31 0
30 15 0
39 24 0
37 24 0
37 27 0
34 20 0
38 24 0
51 36 0
46 34 0
29 16 0
54 43 0
48 35 0
39 22 0
60 49 0
60 45 0
62 56 0
56 40 0
69 64 0
55 46 0
67 53 0
65 51 0
68 62 0
80 73 0
72 59 0
50 34 0
81 72 0
86 75 0
61 45 0
85 86 0
81 69 0
74 64 0
73 64 0
83 75 0
76 65 0
75 69 0
72 55 0
81 72 0
86 83 0
75 62 0
92 95 0
88 86 0
89 86 0
97 100 0
93 91 0
89 86 0
99 105 0
97 102 0
100 104 0
101 108 0
104 113 0
98 101 0
97 99 0
93 92 0
98 106 0
100 104 0
106 117 0
92 93 0
92 103 0
101 113 0
106 120 0
106 121 0
104 115 0
98 101 0
104 115 0
96 105 0
98 99 0
106 120 0
100 108 0
108 125 0
101 116 0
108 129 0
111 136 0
103 116 0
99 112 0
111 130 0
106 114 0
106 126 0
98 98 0
107 124 0
108 129 0
104 123 0
107 127 0
113 137 0
110 132 0
113 135 0
112 136 0
114 145 0
110 133 0
106 122 0
107 130 0
110 130 0
114 138 0
113 141 0
107 122 0
109 129 0
114 140 0
107 118 0
110 130 0
113 135 0
115 137 0
109 139 0
115 142 0
115 142 0
114 138 0
109 129 0
113 139 0
110 135 0
117 148 0
114 142 0
111 134 0
114 145 0
114 140 0
115 147 0
114 140 0
117 141 0
115 144 0
111 138 0
110 138 0
115 140 0
111 133 0
114 145 0
115 140 0
115 146 0
113 143 0
117 145 0
111 142 0
119 151 0
116 146 0
116 146 0
113 138 0
116 149 0
116 142 0
115 144 0
116 142 0
116 144 0
121 151 0
116 146 0
116 144 0
115 140 0
116 142 0
114 147 0
114 143 0
116 147 0
116 148 0
119 146 0
114 142 0
115 140 0
119 147 0
119 151 0
113 139 0
115 147 0
116 148 0
114 145 0
117 152 0
118 149 0
115 142 0
114 143 0
115 143 0
114 141 0
117 150 0
120 153 0
117 147 0
118 151 0
120 152 0
116 150 0
115 151 0
113 143 0
119 148 0
118 147 0
112 140 0
115 145 0
119 151 0
116 146 0
115 150 0
116 148 0
115 146 0
115 149 0
117 148 0
117 147 0
117 150 0
115 144 0
113 141 0
116 148 0
118 153 0
117 147 0
119 152 0
119 149 0
113 144 0
118 152 0
118 151 0
118 153 0
117 150 0
118 151 0
118 153 0
116 150 0
117 150 0
119 151 0
119 153 0
116 148 0
116 149 0
120 153 0
117 143 0
116 150 0
118 150 0
117 146 0
117 150 0
113 144 0
116 150 0
116 148 0
116 147 0
117 152 0
116 148 0
115 144 0
117 147 0
119 151 0
116 150 0
114 142 0
118 152 0
117 148 0
115 147 0
117 149 0
121 150 0
116 149 0
117 148 0
116 148 0
117 152 0
116 146 0
117 150 0
117 145 0
112 142 0
115 147 0
115 144 0
120 154 0
115 143 0
115 147 0
117 149 0
118 149 0
118 149 0
118 151 0
116 142 0
113 143 0
119 152 0
115 142 0
112 137 0
115 144 0
118 147 0
117 148 0
114 145 0
116 146 0
112 138 0
116 148 0
115 147 0
117 148 0
115 147 0
113 141 0
116 148 0
116 148 0
115 146 0
115 147 0
117 141 0
111 131 0
118 149 0
115 147 0
115 149 0
112 139 0
115 145 0
116 146 0
113 140 0
112 135 0
113 139 0
115 142 0
115 149 0
118 151 0
119 146 0
114 141 0
113 139 0
117 143 0
115 145 0
114 139 0
111 136 0
115 142 0
112 140 0
115 142 0
110 135 0
112 142 0
110 132 0
112 138 0
118 151 0
117 145 0
113 137 0
114 137 0
107 126 0
113 138 0
110 130 0
112 140 0
113 139 0
110 137 0
113 135 0
114 140 0
114 139 0
110 128 0
110 136 0
107 123 0
113 139 0
114 138 0
115 139 0
104 123 0
110 134 0
104 122 0
117 143 0
106 133 0
108 132 0
107 126 0
105 125 0
113 137 0
112 125 0
103 115 0
104 123 0
104 117 0
111 133 0
112 135 0
108 127 0
108 127 0
110 128 0
101 114 0
110 128 0
112 131 0
110 127 0
106 113 0
93 91 0
106 118 0
110 124 0
93 97 0
111 131 0
101 104 0
105 112 0
103 110 0
107 119 0
97 103 0
98 98 0
105 120 0
96 97 0
84 87 0
88 84 0
92 100 0
96 104 0
99 102 0
93 94 0
95 98 0
99 106 0
91 91 0
101 108 0
99 104 0
88 84 0
83 71 0
91 95 0
88 92 0
92 96 0
95 89 0
89 83 0
89 89 0
77 64 0
92 94 0
87 80 0
87 81 0
84 80 0
69 57 0
79 67 0
75 66 0
71 62 0
67 58 0
77 75 0
72 67 0
74 59 0
60 40 0
72 59 0
67 57 0
73 65 0
60 43 0
62 41 0
54 39 0
70 52 0
57 41 0
52 39 0
51 39 0
63 47 0
49 37 0
49 37 0
54 43 0
49 41 0
56 43 0
38 29 0
42 26 0
43 27 0
44 28 0
50 38 0
50 36 0
48 31 0
46 30 0
53 42 0
47 35 0
46 35 0
39 24 0
46 29 0
30 17 0
53 42 0
50 36 0
61 49 0
50 35 0
52 40 0
51 38 0
61 50 0
59 47 0
48 37 0
57 40 0
61 49 0
60 41 0
59 49 0
49 38 0
66 58 0
57 43 0
59 45 0
72 59 0
71 61 0
72 53 0
69 55 0
68 54 0
74 56 0
79 65 0
72 63 0
84 77 0
78 70 0
74 65 0
88 83 0
70 58 0
85 83 0
74 62 0
74 63 0
85 80 0
97 104 0
94 97 0
78 73 0
92 87 0
84 77 0
94 96 0
90 92 0
93 93 0
99 98 0
99 105 0
97 100 0
96 101 0
98 104 0
92 92 0
101 111 0
105 115 0
101 106 0
100 111 0
95 98 0
98 107 0
101 111 0
101 108 0
113 132 0
106 122 0
98 104 0
109 124 0
100 107 0
108 127 0
93 104 0
109 124 0
103 116 0
104 117 0
107 116 0
116 137 0
105 120 0
107 121 0
100 106 0
110 128 0
112 128 0
107 127 0
110 133 0
112 129 0
112 134 0
110 130 0
107 119 0
113 139 0
109 127 0
109 126 0
104 123 0
110 128 0
105 117 0
111 138 0
112 135 0
111 127 0
107 130 0
103 124 0
111 130 0
112 133 0
113 139 0
116 142 0
112 136 0
109 130 0
118 147 0
109 131 0
116 141 0
113 139 0
112 135 0
107 128 0
109 135 0
111 136 0
113 143 0
111 133 0
111 132 0
114 141 0
119 149 0
115 144 0
116 142 0
108 133 0
111 134 0
117 148 0
114 145 0
114 139 0
115 146 0
118 151 0
113 141 0
122 153 0
110 130 0
114 140 0
119 148 0
117 145 0
114 142 0
112 138 0
116 148 0
113 139 0
117 146 0
117 147 0
120 146 0
113 143 0
117 145 0
112 140 0
114 145 0
114 137 0
118 145 0
116 146 0
112 138 0
112 140 0
116 145 0
115 147 0
118 145 0
117 145 0
114 141 0
116 148 0
114 147 0
119 149 0
114 144 0
114 143 0
115 144 0
117 145 0
117 143 0
115 147 0
113 139 0
120 147 0
118 153 0
116 146 0
115 145 0
117 148 0
115 145 0
121 153 0
116 146 0
117 152 0
120 150 0
111 139 0
117 150 0
117 150 0
115 148 0
117 147 0
118 147 0
117 150 0
114 147 0
117 147 0
113 143 0
118 151 0
116 144 0
117 150 0
120 152 0
121 152 0
114 147 0
115 146 0
122 153 0
115 144 0
117 148 0
114 143 0
116 148 0
118 145 0
117 152 0
119 153 0
119 152 0
115 149 0
118 149 0
117 150 0
115 145 0
116 148 0
116 144 0
116 146 0
118 149 0
123 155 0
114 145 0
117 150 0
113 146 0
115 146 0
115 147 0
116 151 0
119 153 0
117 149 0
119 151 0
116 150 0
116 148 0
115 144 0
120 153 0
119 149 0
117 150 0
118 151 0
115 149 0
115 144 0
118 151 0
118 150 0
116 151 0
115 140 0
117 146 0
116 150 0
118 147 0
114 145 0
118 152 0
117 146 0
119 151 0
119 140 0
119 151 0
113 143 0
118 146 0
114 146 0
120 152 0
119 150 0
119 153 0
120 152 0
115 144 0
113 143 0
118 153 0
116 146 0
113 137 0
113 144 0
118 149 0
114 143 0
114 146 0
113 140 0
117 150 0
114 141 0
120 150 0
117 147 0
118 149 0
117 145 0
115 147 0
113 137 0
121 152 0
118 149 0
117 148 0
115 142 0
116 146 0
114 141 0
115 147 0
116 148 0
114 143 0
117 149 0
117 143 0
112 135 0
112 136 0
117 147 0
114 143 0
113 139 0
114 141 0
112 135 0
114 138 0
113 141 0
114 136 0
115 144 0
111 129 0
108 134 0
110 132 0
116 149 0
109 136 0
114 136 0
110 137 0
112 135 0
112 140 0
115 137 0
111 138 0
107 127 0
110 133 0
108 128 0
109 133 0
104 124 0
113 137 0
107 125 0
109 130 0
111 136 0
111 127 0
112 135 0
112 129 0
114 143 0
108 131 0
108 127 0
111 140 0
108 130 0
109 131 0
114 138 0
99 110 0
107 125 0
108 120 0
103 119 0
107 126 0
109 126 0
106 122 0
108 130 0
109 126 0
103 121 0
108 126 0
105 120 0
102 111 0
106 123 0
103 111 0
105 121 0
94 97 0
105 114 0
104 118 0
100 108 0
104 123 0
97 104 0
108 118 0
98 107 0
97 104 0
110 125 0
104 122 0
100 105 0
98 102 0
98 109 0
100 111 0
92 89 0
102 107 0
96 97 0
100 113 0
94 98 0
87 84 0
96 92 0
91 84 0
96 96 0
89 86 0
86 86 0
96 100 0
82 72 0
79 68 0
96 94 0
88 77 0
84 78 0
93 92 0
88 88 0
93 91 0
72 64 0
79 72 0
77 67 0
85 86 0
76 77 0
76 70 0
72 55 0
62 48 0
79 69 0
77 62 0
71 61 0
75 59 0
72 64 0
71 59 0
54 44 0
60 39 0
61 45 0
60 50 0
53 40 0
67 51 0
59 47 0
63 52 0
46 31 0
49 32 0
47 34 0
55 40 0
50 39 0
48 37 0
51 40 0
56 48 0
56 41 0
54 38 0
49 32 0
55 37 0
52 45 0
46 26 0
42 32 0
42 31 0
36 22 0
43 27 0
60 51 0
55 39 0
51 33 0
63 53 0
54 42 0
43 25 0
62 47 0
52 36 0
52 33 0
52 41 0
65 48 0
64 57 0
67 55 0
56 39 0
76 61 0
65 53 0
81 74 0
68 56 0
68 52 0
79 71 0
71 57 0
69 54 0
70 60 0
75 59 0
78 72 0
77 71 0
78 67 0
74 62 0
71 61 0
80 70 0
84 76 0
79 72 0
88 84 0
71 58 0
79 69 0
91 89 0
86 80 0
88 84 0
88 83 0
101 113 0
95 95 0
96 102 0
107 116 0
99 100 0
87 80 0
99 105 0
96 102 0
87 89 0
102 117 0
96 96 0
101 110 0
103 107 0
96 99 0
95 98 0
101 108 0
102 113 0
107 120 0
98 110 0
102 116 0
102 111 0
101 116 0
107 120 0
107 128 0
110 135 0
104 117 0
113 131 0
109 129 0
99 107 0
103 120 0
104 114 0
104 125 0
104 112 0
113 134 0
114 134 0
103 118 0
113 137 0
111 134 0
107 123 0
105 124 0
108 125 0
113 135 0
111 134 0
104 115 0
109 128 0
114 138 0
109 131 0
108 123 0
111 131 0
111 129 0
116 139 0
113 137 0
114 134 0
113 129 0
112 139 0
112 136 0
107 128 0
112 131 0
111 132 0
108 127 0
118 145 0
109 134 0
115 137 0
111 138 0
115 140 0
116 144 0
108 131 0
111 139 0
114 141 0
113 142 0
114 142 0
110 132 0
113 138 0
112 133 0
116 141 0
112 142 0
112 137 0
119 146 0
110 134 0
117 145 0
112 141 0
112 135 0
110 132 0
115 142 0
112 135 0
118 149 0
113 141 0
112 135 0
113 139 0
110 136 0
115 143 0
115 144 0
112 143 0
118 148 0
116 147 0
116 143 0
112 140 0
117 148 0
116 148 0
118 149 0
117 147 0
115 145 0
118 147 0
114 139 0
115 140 0
118 147 0
114 145 0
117 148 0
115 148 0
117 149 0
116 148 0
117 145 0
115 144 0
114 142 0
119 150 0
112 139 0
114 141 0
115 144 0
118 149 0
114 147 0
114 141 0
108 136 0
112 140 0
116 146 0
116 146 0
116 146 0
114 143 0
119 153 0
118 149 0
117 147 0
115 145 0
115 145 0
119 149 0
118 149 0
120 154 0
117 150 0
121 155 0
114 145 0
117 147 0
117 149 0
113 146 0
119 151 0
118 153 0
120 154 0
117 150 0
117 148 0
115 148 0
117 150 0
116 150 0
117 147 0
115 148 0
116 151 0
118 149 0
116 151 0
116 148 0
119 152 0
117 152 0
120 150 0
117 148 0
115 149 0
115 147 0
117 152 0
120 152 0
117 148 0
116 149 0
114 145 0
117 152 0
116 143 0
119 151 0
117 152 0
115 145 0
117 148 0
118 151 0
118 147 0
118 153 0
115 149 0
122 153 0
116 148 0
117 152 0
113 142 0
114 142 0
112 142 0
120 150 0
119 153 0
119 151 0
114 145 0
118 147 0
118 152 0
118 145 0
115 149 0
115 149 0
117 150 0
119 148 0
117 143 0
115 147 0
119 150 0
118 151 0
117 143 0
117 148 0
117 148 0
117 146 0
117 150 0
116 144 0
117 148 0
115 144 0
118 145 0
117 150 0
114 145 0
116 145 0
110 143 0
113 135 0
118 149 0
116 149 0
115 140 0
114 145 0
117 147 0
118 147 0
114 139 0
115 145 0
114 145 0
112 142 0
118 151 0
117 143 0
114 138 0
114 139 0
116 144 0
112 131 0
115 146 0
117 143 0
114 141 0
114 141 0
113 138 0
116 144 0
116 146 0
114 140 0
115 138 0
114 141 0
110 138 0
111 139 0
115 143 0
115 142 0
112 136 0
115 137 0
114 140 0
116 143 0
107 128 0
114 139 0
109 129 0
113 135 0
108 132 0
112 135 0
111 131 0
109 127 0
112 133 0
111 136 0
114 141 0
110 127 0
110 130 0
110 130 0
104 111 0
107 130 0
111 132 0
109 128 0
108 127 0
103 121 0
107 121 0
108 127 0
110 130 0
104 117 0
115 140 0
110 121 0
110 137 0
113 132 0
114 131 0
108 118 0
114 134 0
108 124 0
105 129 0
111 126 0
104 118 0
100 113 0
100 106 0
100 110 0
104 116 0
102 111 0
106 118 0
108 128 0
106 120 0
105 114 0
105 114 0
106 121 0
107 117 0
99 98 0
95 99 0
103 110 0
105 118 0
97 99 0
102 109 0
93 98 0
103 110 0
95 102 0
99 103 0
91 95 0
103 105 0
95 102 0
94 97 0
99 100 0
91 84 0
88 89 0
98 107 0
104 111 0
90 92 0
88 88 0
89 85 0
89 91 0
84 80 0
94 93 0
100 100 0
86 82 0
84 75 0
83 71 0
82 72 0
78 69 0
78 67 0
70 60 0
75 62 0
84 79 0
79 70 0
94 90 0
69 63 0
71 60 0
76 63 0
66 55 0
72 62 0
63 48 0
73 58 0
63 49 0
67 54 0
65 54 0
66 50 0
68 57 0
67 54 0
52 42 0
52 37 0
57 43 0
49 34 0
69 55 0
46 27 0
53 34 0
51 42 0
56 49 0
55 41 0
53 35 0
50 40 0
59 44 0
59 50 0
54 46 0
51 32 0
46 35 0
46 34 0
63 49 0
64 50 0
52 38 0
47 34 0
64 52 0
58 48 0
43 29 0
48 33 0
69 56 0
66 50 0
63 48 0
48 29 0
68 52 0
69 55 0
60 48 0
59 42 0
73 62 0
82 74 0
75 65 0
78 67 0
77 69 0
68 60 0
66 51 0
77 62 0
75 65 0
75 63 0
76 68 0
80 73 0
90 86 0
75 63 0
84 75 0
83 72 0
81 73 0
81 75 0
85 78 0
84 81 0
94 91 0
89 93 0
83 75 0
95 98 0
90 84 0
99 101 0
85 86 0
97 98 0
96 98 0
80 74 0
96 104 0
89 90 0
100 106 0
101 112 0
94 99 0
108 123 0
102 112 0
101 110 0
99 108 0
95 105 0
117 139 0
112 127 0
108 116 0
100 104 0
96 99 0
103 124 0
103 113 0
101 105 0
106 120 0
102 113 0
106 125 0
107 121 0
101 113 0
106 118 0
100 111 0
106 121 0
109 127 0
98 107 0
107 126 0
106 128 0
110 132 0
105 117 0
107 121 0
101 115 0
109 131 0
105 118 0
113 135 0
109 126 0
100 111 0
111 133 0
118 147 0
105 127 0
110 130 0
115 140 0
114 137 0
107 121 0
109 127 0
107 125 0
114 136 0
114 143 0
109 133 0
113 141 0
112 140 0
113 139 0
110 139 0
115 146 0
113 141 0
112 133 0
116 141 0
111 131 0
109 127 0
111 132 0
118 145 0
111 132 0
108 129 0
114 143 0
112 139 0
115 139 0
116 144 0
112 135 0
116 148 0
111 134 0
112 136 0
116 146 0
113 138 0
117 149 0
119 150 0
111 140 0
116 144 0
116 144 0
113 140 0
112 134 0
118 145 0
108 134 0
114 142 0
118 146 0
113 137 0
114 145 0
113 141 0
117 143 0
117 141 0
117 147 0
113 141 0
115 148 0
120 148 0
118 152 0
116 144 0
112 140 0
115 144 0
117 152 0
117 150 0
122 155 0
115 147 0
111 140 0
117 143 0
118 151 0
112 142 0
117 147 0
119 151 0
114 145 0
112 138 0
115 146 0
118 151 0
117 148 0
117 143 0
112 144 0
117 146 0
119 150 0
114 141 0
118 144 0
118 151 0
117 148 0
116 146 0
117 148 0
115 147 0
116 146 0
116 146 0
114 143 0
118 147 0
114 141 0
118 151 0
117 148 0
123 153 0
116 148 0
117 152 0
118 151 0
116 150 0
118 151 0
115 147 0
117 148 0
118 152 0
112 142 0
119 151 0
113 143 0
117 147 0
116 146 0
116 144 0
119 152 0
115 149 0
118 152 0
118 153 0
118 151 0
120 154 0
116 148 0
118 146 0
117 150 0
117 150 0
119 149 0
119 149 0
116 150 0
119 151 0
118 149 0
117 150 0
111 136 0
116 148 0
115 149 0
120 152 0
121 152 0
117 150 0
116 148 0
114 147 0
113 144 0
116 151 0
116 148 0
117 149 0
118 153 0
116 148 0
114 145 0
118 149 0
120 152 0
116 146 0
113 143 0
115 149 0
116 149 0
115 146 0
116 148 0
116 146 0
114 145 0
115 145 0
119 151 0
115 142 0
116 146 0
118 151 0
118 149 0
117 147 0
116 144 0
119 151 0
114 141 0
116 144 0
118 147 0
111 136 0
115 142 0
118 149 0
117 152 0
115 149 0
117 148 0
115 147 0
118 144 0
119 148 0
115 144 0
113 139 0
118 147 0
115 142 0
115 144 0
115 147 0
113 138 0
118 145 0
116 149 0
113 143 0
115 147 0
114 142 0
115 142 0
114 145 0
110 138 0
115 142 0
117 147 0
108 133 0
114 143 0
118 149 0
114 143 0
111 133 0
115 140 0
115 139 0
113 137 0
120 141 0
112 140 0
102 121 0
111 136 0
112 136 0
113 134 0
111 134 0
110 130 0
113 139 0
112 138 0
111 132 0
117 143 0
118 147 0
110 133 0
109 129 0
111 128 0
112 136 0
107 125 0
114 134 0
110 131 0
115 141 0
112 137 0
115 137 0
109 133 0
110 134 0
106 124 0
114 128 0
114 134 0
110 129 0
109 129 0
104 121 0
106 118 0
102 109 0
110 128 0
107 125 0
110 128 0
102 116 0
111 132 0
106 127 0
108 118 0
106 126 0
106 117 0
107 127 0
103 112 0
98 106 0
104 121 0
104 113 0
106 120 0
100 110 0
110 130 0
96 107 0
100 109 0
97 106 0
104 115 0
102 114 0
104 113 0
103 113 0
102 107 0
91 97 0
100 110 0
104 112 0
103 113 0
102 115 0
92 90 0
97 106 0
99 103 0
97 96 0
84 86 0
102 107 0
95 96 0
93 92 0
92 94 0
92 93 0
80 68 0
79 76 0
91 91 0
93 98 0
88 83 0
84 75 0
84 82 0
80 71 0
89 89 0
84 68 0
69 57 0
91 87 0
90 86 0
85 85 0
85 79 0
86 77 0
72 59 0
80 72 0
71 56 0
74 61 0
78 67 0
68 54 0
73 62 0
70 59 0
73 68 0
76 70 0
71 59 0
63 46 0
73 58 0
64 51 0
62 50 0
63 51 0
60 53 0
54 36 0
54 43 0
56 40 0
55 41 0
57 47 0
65 52 0
50 35 0
58 41 0
54 35 0
63 49 0
63 55 0
63 49 0
52 40 0
53 39 0
54 40 0
51 40 0
51 39 0
55 34 0
47 32 0
51 34 0
63 44 0
69 56 0
62 48 0
81 69 0
61 46 0
64 55 0
79 75 0
68 60 0
75 63 0
63 55 0
77 67 0
69 59 0
69 61 0
66 54 0
74 65 0
73 68 0
61 47 0
84 72 0
74 62 0
75 61 0
74 64 0
72 63 0
89 88 0
76 62 0
79 71 0
82 75 0
78 71 0
80 83 0
75 65 0
84 79 0
81 69 0
90 88 0
100 108 0
94 95 0
89 85 0
94 93 0
92 93 0
84 77 0
94 92 0
92 95 0
94 96 0
98 106 0
89 90 0
100 104 0
95 98 0
93 90 0
96 94 0
95 103 0
103 111 0
97 106 0
98 104 0
104 114 0
94 97 0
105 110 0
94 97 0
105 112 0
102 109 0
103 115 0
99 108 0
95 95 0
105 114 0
102 112 0
111 125 0
103 118 0
105 124 0
102 118 0
105 120 0
100 112 0
104 118 0
107 123 0
109 124 0
107 126 0
99 101 0
105 122 0
106 125 0
109 128 0
111 129 0
110 126 0
105 121 0
105 123 0
109 131 0
106 122 0
112 129 0
109 131 0
109 128 0
105 123 0
110 128 0
104 121 0
111 135 0
109 131 0
106 126 0
110 126 0
109 135 0
115 142 0
104 125 0
108 134 0
109 129 0
114 139 0
113 138 0
108 129 0
115 145 0
113 141 0
110 130 0
113 143 0
119 144 0
112 142 0
111 136 0
111 136 0
110 135 0
111 131 0
118 146 0
119 147 0
117 148 0
115 141 0
115 145 0
116 146 0
113 145 0
112 140 0
113 141 0
119 150 0
111 140 0
111 138 0
112 138 0
111 135 0
116 144 0
113 139 0
114 141 0
118 147 0
115 149 0
121 151 0
115 144 0
117 146 0
114 143 0
114 141 0
118 152 0
113 144 0
118 151 0
112 137 0
118 149 0
113 143 0
111 139 0
114 147 0
115 149 0
119 146 0
116 146 0
116 150 0
113 143 0
119 153 0
117 150 0
111 136 0
116 150 0
115 140 0
120 152 0
117 147 0
120 152 0
117 145 0
113 142 0
119 149 0
115 147 0
116 146 0
119 153 0
117 150 0
119 153 0
117 152 0
118 149 0
117 147 0
117 148 0
117 148 0
115 146 0
120 152 0
118 145 0
116 150 0
114 145 0
122 153 0
116 146 0
112 144 0
116 148 0
115 149 0
118 152 0
117 148 0
120 153 0
116 146 0
119 149 0
117 145 0
114 145 0
118 153 0
120 152 0
115 149 0
117 147 0
116 148 0
117 146 0
115 147 0
115 146 0
120 150 0
119 151 0
120 154 0
118 153 0
118 151 0
119 150 0
115 147 0
116 143 0
116 148 0
115 144 0
116 144 0
117 150 0
120 153 0
118 149 0
119 153 0
117 151 0
121 154 0
123 156 0
118 151 0
118 149 0
113 146 0
116 148 0
116 145 0
116 151 0
113 146 0
118 147 0
116 148 0
116 146 0
119 153 0
120 147 0
115 147 0
118 147 0
115 145 0
115 142 0
117 147 0
116 146 0
112 141 0
115 147 0
117 148 0
115 142 0
113 144 0
115 144 0
119 145 0
114 141 0
114 143 0
117 143 0
116 143 0
115 142 0
113 142 0
114 143 0
116 148 0
113 146 0
116 150 0
118 149 0
117 147 0
116 143 0
121 153 0
118 145 0
118 149 0
110 131 0
114 138 0
113 143 0
114 147 0
121 153 0
113 139 0
112 142 0
116 142 0
117 145 0
115 142 0
113 142 0
109 126 0
113 141 0
115 140 0
118 151 0
114 140 0
110 133 0
113 139 0
111 135 0
115 142 0
111 140 0
112 136 0
113 142 0
113 144 0
111 136 0
111 134 0
113 139 0
113 141 0
112 139 0
110 134 0
111 140 0
113 137 0
107 126 0
109 134 0
110 135 0
110 139 0
112 131 0
110 134 0
118 144 0
114 138 0
115 138 0
107 123 0
112 133 0
109 137 0
111 134 0
113 139 0
109 131 0
107 119 0
108 131 0
109 130 0
104 120 0
111 132 0
107 124 0
109 127 0
110 132 0
110 124 0
118 139 0
105 117 0
111 125 0
102 118 0
110 125 0
108 125 0
105 115 0
101 115 0
108 123 0
103 121 0
101 105 0
105 122 0
103 110 0
104 123 0
107 121 0
102 112 0
93 96 0
106 121 0
108 123 0
99 103 0
96 98 0
96 93 0
103 115 0
102 110 0
105 111 0
108 117 0
98 108 0
99 112 0
94 103 0
93 97 0
95 97 0
98 103 0
86 81 0
101 104 0
94 95 0
97 104 0
97 102 0
90 82 0
96 96 0
89 83 0
81 78 0
93 86 0
84 77 0
84 80 0
86 81 0
85 81 0
76 68 0
82 73 0
83 73 0
79 66 0
85 77 0
87 87 0
85 82 0
75 60 0
81 74 0
79 70 0
75 66 0
71 55 0
75 70 0
77 65 0
72 60 0
74 59 0
75 68 0
69 62 0
73 54 0
65 50 0
65 57 0
61 50 0
73 63 0
62 58 0
56 41 0
61 47 0
59 39 0
63 49 0
63 54 0
61 44 0
67 55 0
67 52 0
58 44 0
62 50 0
64 55 0
65 51 0
61 49 0
59 49 0
62 47 0
46 30 0
58 43 0
58 41 0
59 47 0
55 41 0
61 44 0
62 50 0
62 44 0
54 35 0
70 59 0
61 48 0
62 44 0
61 47 0
73 61 0
64 53 0
63 49 0
65 53 0
87 81 0
70 61 0
70 60 0
69 54 0
80 68 0
67 52 0
79 68 0
72 64 0
90 89 0
81 70 0
89 86 0
75 67 0
87 79 0
91 92 0
87 88 0
88 84 0
84 81 0
85 76 0
92 93 0
89 82 0
92 92 0
91 95 0
91 92 0
92 86 0
90 92 0
90 89 0
96 96 0
93 93 0
94 100 0
99 101 0
92 94 0
97 100 0
87 87 0
98 103 0
98 106 0
99 98 0
97 101 0
101 109 0
101 108 0
97 105 0
98 101 0
104 116 0
107 122 0
102 111 0
108 124 0
97 97 0
108 123 0
98 104 0
99 111 0
106 119 0
100 106 0
110 125 0
104 119 0
110 130 0
107 121 0
99 113 0
101 109 0
108 121 0
108 123 0
104 116 0
103 117 0
102 108 0
115 139 0
110 124 0
107 124 0
111 125 0
107 127 0
103 119 0
110 128 0
110 130 0
105 123 0
110 127 0
107 125 0
110 137 0
109 128 0
115 138 0
111 136 0
113 141 0
113 137 0
116 139 0
108 131 0
111 134 0
113 139 0
112 129 0
107 123 0
115 140 0
112 134 0
110 128 0
113 137 0
111 138 0
110 134 0
116 146 0
112 136 0
115 140 0
115 140 0
115 140 0
116 146 0
111 135 0
115 142 0
109 131 0
114 141 0
110 130 0
115 146 0
112 133 0
116 141 0
113 139 0
113 140 0
117 147 0
114 139 0
113 139 0
117 148 0
109 132 0
110 139 0
118 151 0
116 142 0
113 139 0
116 146 0
116 143 0
113 139 0
111 138 0
113 137 0
110 137 0
116 148 0
117 147 0
116 144 0
115 145 0
117 148 0
114 148 0
117 150 0
117 148 0
113 143 0
117 146 0
121 152 0
116 142 0
116 148 0
119 151 0
115 144 0
111 138 0
116 146 0
116 146 0
117 150 0
112 142 0
112 137 0
113 143 0
114 146 0
119 149 0
115 146 0
116 144 0
115 140 0
120 152 0
118 150 0
113 141 0
116 149 0
116 150 0
118 149 0
114 145 0
115 146 0
114 147 0
116 150 0
116 150 0
118 149 0
114 142 0
117 150 0
123 154 0
115 142 0
116 146 0
116 149 0
116 148 0
117 147 0
116 151 0
115 149 0
112 140 0
119 151 0
114 148 0
114 142 0
115 149 0
116 148 0
112 136 0
120 150 0
114 149 0
116 146 0
116 146 0
114 147 0
120 154 0
116 144 0
116 146 0
115 146 0
118 149 0
117 152 0
117 150 0
119 152 0
117 147 0
117 150 0
121 153 0
121 149 0
117 149 0
113 144 0
115 146 0
113 144 0
119 151 0
114 145 0
114 143 0
120 152 0
117 146 0
119 150 0
115 146 0
117 148 0
117 145 0
118 147 0
117 152 0
113 141 0
120 152 0
118 149 0
115 145 0
115 146 0
114 149 0
116 140 0
114 147 0
119 149 0
116 149 0
119 153 0
116 148 0
119 151 0
114 147 0
114 143 0
116 146 0
115 146 0
113 135 0
114 141 0
114 141 0
121 147 0
118 147 0
114 142 0
114 143 0
119 150 0
114 141 0
117 148 0
117 149 0
115 145 0
111 130 0
117 148 0
118 147 0
118 147 0
116 144 0
113 137 0
116 143 0
113 137 0
113 139 0
113 137 0
111 130 0
116 148 0
118 147 0
113 146 0
115 140 0
111 140 0
115 142 0
114 139 0
115 142 0
115 138 0
107 131 0
109 133 0
117 142 0
111 134 0
112 142 0
117 148 0
115 135 0
116 144 0
117 140 0
116 148 0
111 136 0
114 137 0
107 127 0
117 147 0
116 140 0
111 130 0
111 134 0
113 137 0
108 132 0
111 135 0
115 142 0
102 116 0
112 137 0
109 135 0
110 130 0
107 127 0
108 133 0
101 116 0
108 124 0
112 129 0
115 136 0
109 119 0
112 131 0
110 134 0
108 132 0
109 125 0
102 115 0
114 134 0
115 139 0
105 123 0
111 134 0
106 127 0
112 132 0
108 129 0
107 127 0
99 115 0
95 104 0
102 115 0
103 116 0
98 111 0
104 116 0
110 128 0
100 112 0
102 108 0
97 108 0
95 98 0
100 108 0
97 105 0
103 120 0
104 121 0
105 108 0
99 106 0
105 111 0
96 95 0
107 121 0
102 105 0
92 87 0
91 88 0
92 93 0
91 85 0
95 95 0
105 114 0
103 114 0
95 97 0
102 99 0
92 95 0
90 89 0
93 88 0
87 77 0
87 86 0
93 91 0
95 96 0
92 87 0
94 95 0
96 101 0
85 81 0
91 96 0
87 80 0
90 84 0
79 74 0
80 76 0
81 73 0
86 81 0
72 56 0
82 73 0
67 56 0
69 54 0
70 66 0
76 68 0
71 61 0
78 65 0
61 43 0
70 57 0
67 54 0
72 59 0
65 56 0
70 58 0
70 52 0
74 63 0
65 50 0
72 70 0
67 56 0
61 47 0
69 59 0
66 46 0
64 57 0
65 52 0
63 45 0
77 68 0
68 52 0
67 55 0
67 52 0
62 38 0
63 49 0
62 43 0
74 66 0
54 42 0
78 70 0
79 69 0
72 60 0
67 52 0
71 61 0
69 54 0
72 71 0
74 60 0
70 56 0
73 62 0
66 54 0
62 43 0
67 57 0
81 73 0
61 45 0
69 61 0
76 67 0
72 54 0
74 64 0
77 69 0
69 59 0
76 68 0
78 68 0
90 89 0
75 63 0
82 74 0
80 78 0
97 97 0
84 74 0
93 91 0
89 86 0
84 76 0
87 86 0
90 85 0
86 82 0
88 83 0
94 92 0
91 86 0
93 95 0
90 86 0
89 87 0
88 84 0
93 99 0
97 102 0
94 96 0
99 105 0
89 82 0
94 97 0
100 101 0
106 126 0
104 107 0
103 115 0
95 96 0
104 114 0
102 109 0
99 108 0
96 103 0
99 102 0
97 107 0
112 126 0
104 115 0
106 124 0
109 122 0
106 123 0
106 115 0
107 123 0
109 129 0
105 116 0
105 114 0
104 120 0
109 129 0
109 124 0
108 125 0
105 120 0
107 122 0
97 101 0
106 121 0
104 118 0
107 125 0
114 139 0
112 135 0
113 133 0
113 139 0
110 128 0
112 142 0
106 122 0
112 133 0
111 132 0
112 133 0
111 134 0
113 132 0
110 130 0
109 133 0
110 128 0
108 129 0
113 137 0
107 124 0
111 132 0
114 137 0
110 136 0
110 139 0
116 141 0
114 136 0
109 126 0
114 135 0
116 137 0
108 129 0
114 141 0
109 135 0
112 140 0
117 139 0
113 140 0
112 133 0
111 136 0
110 137 0
116 142 0
113 139 0
114 140 0
114 142 0
108 131 0
116 146 0
114 140 0
114 141 0
117 145 0
114 147 0
114 145 0
113 141 0
113 139 0
114 147 0
112 137 0
114 143 0
119 148 0
114 139 0
114 141 0
114 145 0
118 145 0
118 146 0
109 135 0
112 138 0
112 140 0
116 144 0
111 134 0
114 141 0
116 148 0
112 144 0
117 146 0
112 136 0
115 147 0
115 143 0
116 148 0
117 145 0
116 142 0
115 145 0
115 149 0
114 136 0
116 147 0
113 144 0
112 140 0
114 141 0
115 142 0
118 146 0
118 151 0
115 149 0
116 146 0
112 140 0
118 149 0
119 151 0
121 152 0
117 148 0
115 144 0
119 148 0
117 148 0
116 150 0
116 148 0
120 154 0
117 148 0
115 147 0
116 144 0
113 143 0
118 153 0
117 147 0
117 150 0
115 147 0
113 148 0
120 153 0
120 152 0
118 147 0
117 149 0
118 153 0
114 149 0
117 149 0
118 143 0
116 144 0
114 146 0
118 151 0
119 150 0
115 146 0
118 151 0
118 149 0
118 149 0
112 140 0
116 148 0
119 149 0
116 148 0
117 148 0
119 153 0
118 149 0
117 146 0
115 139 0
113 142 0
119 151 0
115 144 0
122 153 0
118 151 0
121 151 0
117 149 0
116 148 0
120 148 0
113 142 0
110 137 0
117 150 0
115 140 0
116 146 0
118 145 0
115 144 0
114 143 0
114 148 0
114 147 0
116 148 0
114 140 0
115 145 0
117 150 0
117 149 0
116 149 0
116 145 0
119 150 0
116 148 0
116 146 0
115 145 0
116 148 0
120 150 0
114 144 0
120 146 0
112 137 0
115 145 0
113 142 0
115 143 0
112 139 0
116 140 0
114 139 0
116 145 0
118 144 0
119 152 0
119 149 0
115 147 0
114 143 0
114 143 0
112 138 0
114 140 0
121 151 0
110 135 0
116 141 0
116 146 0
113 135 0
113 143 0
114 142 0
113 139 0
117 148 0
113 136 0
115 140 0
110 139 0
114 141 0
114 145 0
113 139 0
116 144 0
113 136 0
112 144 0
114 136 0
115 144 0
112 129 0
109 133 0
111 140 0
113 136 0
112 136 0
113 134 0
110 132 0
110 137 0
115 137 0
111 132 0
111 136 0
108 125 0
112 135 0
113 130 0
117 141 0
112 138 0
111 138 0
110 134 0
111 127 0
104 122 0
112 131 0
107 123 0
106 120 0
114 140 0
105 120 0
113 131 0
114 132 0
109 127 0
109 128 0
104 114 0
105 116 0
112 130 0
104 117 0
103 117 0
112 133 0
100 115 0
113 129 0
108 121 0
99 108 0
105 114 0
109 124 0
97 102 0
108 120 0
102 114 0
107 121 0
107 123 0
110 126 0
96 104 0
102 111 0
112 130 0
110 126 0
102 119 0
98 105 0
100 101 0
100 112 0
96 97 0
99 108 0
90 83 0
97 100 0
102 108 0
105 119 0
98 106 0
99 107 0
100 105 0
99 107 0
97 100 0
102 105 0
90 89 0
96 100 0
96 102 0
83 80 0
92 91 0
89 87 0
89 88 0
85 81 0
95 94 0
94 89 0
90 93 0
93 93 0
85 86 0
96 96 0
92 92 0
84 81 0
95 95 0
72 68 0
82 81 0
85 79 0
79 69 0
79 69 0
73 65 0
74 63 0
87 85 0
86 87 0
77 71 0
77 66 0
76 71 0
74 61 0
58 48 0
66 57 0
67 52 0
66 58 0
79 68 0
85 79 0
66 51 0
74 63 0
76 64 0
66 54 0
68 56 0
68 57 0
67 53 0
55 41 0
61 45 0
67 54 0
61 46 0
66 55 0
67 61 0
72 53 0
64 50 0
72 61 0
71 63 0
60 53 0
60 44 0
68 62 0
82 73 0
54 41 0
66 49 0
70 56 0
69 57 0
69 59 0
81 71 0
53 35 0
63 47 0
73 56 0
72 64 0
79 71 0
69 59 0
78 70 0
83 75 0
79 68 0
71 61 0
73 63 0
86 88 0
89 85 0
66 53 0
81 77 0
77 69 0
92 84 0
76 63 0
85 88 0
91 84 0
88 90 0
92 87 0
99 105 0
84 80 0
88 85 0
88 84 0
97 95 0
88 86 0
102 113 0
97 93 0
101 102 0
81 73 0
88 86 0
93 98 0
103 114 0
89 83 0
101 111 0
94 101 0
96 100 0
96 96 0
103 115 0
105 121 0
96 101 0
99 100 0
100 112 0
100 106 0
100 99 0
104 118 0
99 104 0
98 107 0
107 124 0
105 124 0
108 122 0
97 98 0
107 122 0
107 123 0
106 120 0
102 113 0
101 108 0
98 105 0
101 112 0
105 124 0
109 130 0
108 127 0
100 110 0
107 123 0
109 124 0
108 125 0
107 126 0
111 129 0
102 116 0
109 125 0
106 113 0
109 128 0
107 121 0
106 124 0
104 119 0
114 134 0
108 129 0
109 127 0
109 128 0
110 126 0
106 121 0
110 134 0
109 133 0
107 125 0
113 137 0
107 130 0
118 146 0
111 132 0
109 131 0
106 129 0
112 135 0
102 116 0
106 129 0
111 132 0
110 135 0
114 136 0
110 132 0
111 130 0
114 139 0
111 132 0
107 131 0
113 139 0
112 136 0
114 141 0
115 142 0
113 142 0
118 147 0
112 138 0
118 145 0
115 142 0
114 140 0
118 144 0
113 135 0
114 143 0
110 140 0
110 136 0
113 139 0
116 146 0
116 148 0
113 139 0
117 148 0
113 139 0
114 145 0
113 146 0
114 140 0
114 145 0
114 142 0
113 141 0
113 142 0
111 136 0
117 148 0
116 144 0
118 143 0
114 148 0
116 142 0
118 149 0
112 137 0
114 140 0
114 142 0
115 144 0
118 141 0
119 150 0
115 145 0
116 148 0
114 143 0
118 147 0
111 134 0
116 144 0
116 146 0
118 149 0
114 139 0
116 148 0
117 143 0
116 146 0
116 146 0
116 146 0
114 143 0
115 142 0
111 142 0
115 144 0
114 147 0
115 140 0
118 147 0
113 138 0
113 146 0
111 136 0
117 147 0
116 148 0
117 149 0
117 149 0
118 153 0
120 150 0
118 149 0
113 145 0
114 145 0
121 152 0
119 151 0
118 151 0
116 147 0
115 145 0
116 147 0
119 149 0
115 146 0
118 152 0
115 145 0
116 149 0
115 146 0
118 153 0
115 149 0
115 149 0
118 151 0
117 146 0
114 145 0
118 151 0
115 147 0
117 146 0
119 145 0
114 145 0
121 151 0
116 146 0
114 147 0
113 143 0
117 146 0
115 142 0
115 144 0
118 147 0
116 146 0
116 144 0
116 143 0
116 146 0
118 149 0
114 141 0
117 150 0
117 145 0
114 143 0
122 152 0
114 141 0
114 141 0
113 144 0
114 144 0
115 149 0
116 144 0
114 145 0
113 144 0
116 150 0
114 142 0
116 150 0
113 141 0
114 145 0
113 143 0
116 141 0
118 149 0
118 149 0
116 146 0
118 150 0
117 147 0
117 145 0
116 146 0
113 146 0
119 151 0
116 148 0
116 139 0
116 145 0
114 136 0
114 145 0
117 146 0
118 149 0
114 137 0
113 143 0
116 150 0
112 134 0
108 134 0
113 139 0
116 144 0
111 138 0
116 137 0
115 145 0
115 138 0
117 148 0
112 136 0
114 141 0
115 143 0
115 145 0
111 135 0
111 136 0
113 135 0
119 148 0
114 143 0
115 142 0
112 141 0
113 143 0
115 134 0
110 136 0
114 138 0
113 136 0
114 137 0
110 132 0
111 134 0
107 132 0
112 133 0
110 128 0
116 142 0
114 139 0
108 127 0
112 137 0
110 133 0
112 140 0
104 121 0
108 127 0
107 131 0
107 126 0
110 128 0
108 122 0
110 131 0
113 139 0
108 125 0
108 126 0
108 125 0
110 130 0
103 117 0
107 123 0
112 131 0
107 119 0
109 128 0
112 138 0
110 131 0
97 109 0
106 121 0
105 118 0
114 130 0
102 111 0
103 115 0
91 95 0
101 109 0
103 120 0
103 112 0
100 108 0
107 128 0
106 117 0
103 112 0
102 112 0
103 111 0
103 112 0
101 112 0
104 114 0
97 105 0
104 111 0
92 92 0
103 112 0
98 99 0
100 106 0
107 119 0
100 112 0
88 83 0
88 90 0
99 102 0
90 89 0
96 99 0
85 84 0
89 83 0
94 98 0
97 96 0
94 96 0
86 94 0
88 78 0
89 90 0
91 91 0
84 80 0
93 99 0
82 74 0
73 62 0
89 91 0
83 71 0
86 87 0
87 81 0
83 70 0
79 74 0
76 67 0
79 68 0
72 66 0
81 74 0
68 53 0
80 69 0
78 69 0
76 68 0
75 65 0
72 66 0
67 52 0
89 86 0
67 53 0
74 66 0
75 63 0
81 78 0
75 64 0
75 69 0
80 69 0
60 43 0
76 57 0
67 55 0
63 49 0
62 39 0
73 63 0
59 45 0
68 59 0
72 64 0
66 56 0
66 56 0
72 64 0
63 53 0
71 62 0
63 51 0
75 62 0
69 54 0
85 85 0
75 69 0
74 61 0
74 57 0
76 70 0
74 63 0
87 82 0
71 61 0
72 63 0
73 61 0
76 67 0
79 79 0
66 53 0
81 67 0
63 46 0
77 72 0
80 73 0
71 60 0
82 70 0
82 70 0
90 93 0
78 71 0
75 66 0
79 69 0
90 76 0
93 92 0
95 96 0
77 66 0
81 70 0
91 92 0
87 82 0
87 79 0
89 84 0
88 90 0
93 102 0
88 83 0
99 110 0
90 89 0
95 100 0
93 92 0
92 96 0
93 91 0
90 88 0
93 97 0
93 89 0
97 106 0
102 109 0
101 109 0
95 93 0
92 94 0
98 103 0
100 99 0
100 114 0
99 108 0
102 109 0
109 127 0
104 118 0
99 102 0
100 107 0
99 109 0
93 93 0
105 120 0
107 119 0
109 128 0
110 126 0
99 106 0
98 102 0
111 133 0
104 117 0
107 123 0
112 130 0
113 133 0
112 126 0
105 116 0
111 136 0
105 113 0
113 139 0
107 123 0
108 123 0
109 129 0
108 135 0
110 135 0
104 118 0
115 140 0
110 127 0
113 135 0
108 127 0
108 118 0
113 137 0
116 137 0
108 133 0
110 137 0
114 137 0
112 139 0
115 142 0
117 147 0
115 136 0
110 141 0
112 133 0
112 135 0
111 138 0
107 132 0
116 142 0
115 138 0
111 133 0
113 139 0
113 142 0
111 138 0
112 138 0
108 132 0
110 137 0
114 136 0
109 140 0
116 144 0
109 130 0
111 140 0
117 147 0
111 134 0
113 139 0
111 138 0
114 143 0
117 148 0
114 145 0
117 147 0
115 140 0
112 134 0
114 143 0
112 137 0
113 145 0
113 141 0
117 146 0
116 148 0
110 133 0
114 139 0
114 143 0
120 146 0
116 148 0
115 145 0
118 147 0
113 143 0
121 152 0
119 151 0
117 147 0
112 145 0
118 148 0
113 141 0
115 148 0
123 154 0
118 146 0
113 142 0
117 150 0
114 148 0
116 144 0
112 139 0
118 147 0
112 139 0
118 149 0
113 144 0
114 143 0
116 144 0
114 145 0
116 146 0
116 151 0
115 143 0
116 146 0
112 142 0
118 149 0
118 150 0
117 148 0
115 142 0
118 151 0
115 146 0
116 148 0
117 148 0
117 148 0
114 143 0
114 147 0
113 140 0
112 142 0
116 148 0
118 151 0
119 151 0
118 147 0
117 150 0
119 151 0
116 149 0
119 152 0
115 147 0
113 146 0
115 147 0
117 150 0
116 150 0
122 155 0
119 150 0
120 152 0
120 148 0
118 149 0
117 149 0
118 153 0
114 143 0
119 150 0
115 149 0
114 145 0
116 145 0
117 149 0
117 148 0
116 150 0
119 150 0
117 147 0
118 149 0
117 150 0
116 146 0
118 151 0
118 145 0
118 147 0
116 143 0
118 149 0
117 147 0
117 146 0
115 144 0
116 150 0
116 148 0
111 139 0
114 144 0
119 153 0
120 150 0
116 150 0
119 149 0
118 146 0
113 139 0
114 141 0
114 143 0
115 149 0
118 149 0
111 137 0
117 144 0
116 141 0
113 139 0
113 137 0
120 152 0
112 142 0
113 141 0
117 141 0
117 144 0
116 146 0
113 137 0
113 143 0
117 145 0
114 139 0
111 135 0
116 142 0
113 141 0
116 144 0
110 137 0
113 141 0
109 135 0
114 145 0
118 147 0
118 147 0
111 132 0
113 137 0
117 146 0
114 141 0
116 143 0
117 146 0
117 143 0
112 138 0
116 140 0
113 141 0
112 140 0
112 136 0
116 146 0
112 133 0
116 142 0
111 134 0
112 140 0
106 122 0
109 133 0
113 140 0
111 134 0
108 131 0
108 131 0
108 131 0
107 133 0
109 132 0
112 131 0
105 116 0
108 129 0
105 120 0
110 134 0
112 135 0
107 124 0
112 136 0
110 127 0
106 124 0
102 114 0
116 139 0
110 132 0
108 129 0
109 127 0
112 129 0
102 113 0
106 125 0
108 127 0
110 127 0
108 123 0
109 126 0
111 125 0
109 127 0
109 130 0
103 116 0
109 126 0
109 122 0
97 109 0
96 104 0
100 106 0
106 119 0
106 125 0
103 113 0
103 119 0
98 105 0
103 116 0
98 103 0
102 113 0
93 96 0
95 99 0
101 114 0
99 109 0
102 111 0
102 110 0
101 105 0
97 103 0
108 124 0
90 91 0
94 100 0
105 116 0
104 117 0
105 118 0
96 90 0
95 97 0
96 100 0
102 110 0
93 92 0
94 91 0
90 93 0
101 110 0
99 107 0
108 116 0
90 86 0
87 86 0
93 92 0
90 90 0
76 69 0
80 74 0
90 89 0
79 74 0
82 75 0
90 89 0
86 78 0
83 78 0
76 71 0
81 64 0
79 74 0
75 65 0
77 73 0
80 72 0
89 85 0
69 57 0
74 65 0
59 44 0
74 63 0
79 69 0
72 64 0
75 66 0
77 63 0
81 75 0
75 68 0
75 67 0
71 62 0
67 55 0
78 69 0
70 53 0
64 48 0
65 54 0
68 58 0
75 66 0
64 50 0
74 69 0
77 73 0
62 45 0
72 60 0
74 61 0
75 61 0
73 66 0
71 61 0
73 62 0
75 64 0
78 78 0
73 68 0
69 55 0
73 61 0
80 71 0
79 66 0
71 57 0
76 60 0
81 76 0
69 52 0
73 61 0
73 63 0
93 100 0
82 74 0
54 31 0
80 66 0
77 66 0
72 56 0
82 78 0
83 80 0
76 63 0
82 77 0
89 83 0
94 92 0
90 90 0
85 84 0
82 73 0
91 87 0
82 77 0
86 78 0
97 101 0
87 75 0
94 98 0
92 90 0
93 90 0
85 75 0
93 94 0
102 112 0
102 111 0
92 89 0
84 84 0
97 105 0
99 100 0
97 98 0
85 81 0
102 116 0
103 109 0
112 122 0
97 96 0
101 112 0
98 101 0
98 98 0
98 109 0
101 111 0
104 112 0
103 119 0
108 123 0
101 109 0
103 113 0
105 120 0
97 104 0
105 118 0
107 118 0
105 116 0
99 104 0
105 116 0
103 111 0
102 116 0
104 121 0
104 119 0
108 125 0
103 113 0
115 136 0
103 115 0
106 122 0
112 131 0
108 128 0
99 106 0
114 132 0
103 122 0
105 120 0
110 130 0
109 123 0
104 123 0
104 116 0
104 117 0
111 134 0
107 128 0
110 132 0
109 126 0
111 133 0
111 135 0
113 135 0
108 132 0
106 126 0
112 135 0
112 140 0
109 128 0
106 125 0
114 137 0
112 136 0
115 139 0
111 136 0
116 146 0
113 139 0
113 133 0
113 137 0
112 138 0
115 140 0
114 147 0
108 134 0
118 149 0
112 140 0
114 138 0
115 140 0
116 146 0
111 135 0
115 144 0
112 136 0
106 126 0
107 128 0
109 130 0
115 144 0
121 147 0
109 133 0
115 142 0
115 144 0
114 143 0
115 140 0
109 133 0
115 141 0
119 148 0
113 139 0
114 141 0
115 147 0
111 138 0
113 136 0
117 150 0
112 133 0
112 134 0
113 146 0
117 149 0
115 149 0
112 145 0
119 147 0
118 149 0
116 148 0
118 145 0
115 142 0
115 147 0
115 144 0
116 146 0
115 146 0
117 145 0
115 147 0
115 144 0
115 142 0
114 144 0
116 148 0
113 143 0
114 143 0
116 146 0
115 149 0
115 142 0
111 134 0
117 145 0
118 149 0
121 152 0
114 143 0
115 149 0
116 150 0
116 148 0
117 152 0
115 143 0
117 149 0
114 140 0
117 147 0
117 147 0
119 151 0
116 152 0
118 149 0
120 152 0
112 140 0
119 151 0
116 147 0
116 148 0
115 145 0
117 150 0
115 144 0
116 148 0
116 146 0
117 147 0
117 148 0
116 151 0
115 145 0
115 149 0
114 145 0
118 151 0
116 148 0
117 147 0
114 145 0
115 147 0
113 144 0
115 145 0
114 141 0
122 155 0
113 148 0
120 150 0
118 149 0
117 148 0
117 145 0
117 152 0
117 148 0
116 146 0
119 151 0
117 150 0
118 151 0
116 148 0
111 140 0
118 153 0
112 140 0
116 146 0
115 142 0
115 145 0
116 143 0
116 144 0
121 150 0
118 147 0
115 143 0
113 140 0
118 149 0
119 150 0
119 153 0
116 142 0
119 152 0
118 145 0
116 144 0
109 135 0
117 147 0
114 145 0
119 149 0
116 144 0
115 141 0
115 143 0
118 149 0
115 147 0
115 146 0
113 142 0
113 141 0
114 141 0
115 144 0
110 134 0
110 141 0
114 140 0
113 138 0
119 146 0
113 139 0
112 140 0
116 142 0
113 137 0
111 135 0
115 149 0
110 139 0
113 141 0
113 139 0
118 149 0
110 136 0
121 147 0
114 141 0
114 143 0
110 136 0
116 142 0
112 138 0
114 139 0
106 132 0
113 145 0
114 143 0
110 132 0
115 144 0
111 138 0
108 131 0
110 130 0
106 128 0
111 134 0
109 131 0
110 129 0
117 145 0
112 133 0
111 133 0
111 131 0
107 128 0
106 126 0
112 135 0
110 127 0
114 136 0
110 135 0
112 137 0
105 124 0
108 133 0
112 139 0
113 136 0
105 122 0
107 126 0
107 121 0
106 124 0
111 130 0
107 120 0
111 124 0
109 126 0
109 128 0
104 111 0
105 124 0
101 114 0
103 116 0
104 125 0
105 124 0
107 123 0
110 124 0
109 127 0
100 106 0
111 134 0
101 112 0
105 123 0
109 128 0
103 115 0
101 114 0
92 94 0
105 117 0
105 121 0
108 122 0
99 102 0
95 103 0
107 119 0
98 99 0
100 107 0
91 93 0
103 114 0
92 94 0
94 97 0
96 98 0
98 103 0
97 100 0
89 91 0
95 94 0
110 126 0
94 96 0
97 102 0
90 90 0
95 98 0
92 88 0
92 98 0
96 101 0
91 95 0
96 95 0
90 82 0
88 86 0
85 76 0
93 94 0
77 66 0
85 78 0
91 89 0
76 71 0
88 84 0
83 75 0
86 80 0
80 72 0
95 93 0
87 81 0
93 91 0
94 94 0
80 73 0
86 81 0
85 74 0
79 75 0
81 67 0
83 79 0
73 64 0
80 66 0
67 58 0
77 71 0
81 71 0
89 86 0
75 65 0
76 70 0
74 63 0
70 61 0
72 64 0
83 81 0
71 59 0
69 58 0
75 58 0
64 48 0
69 57 0
73 63 0
61 44 0
71 60 0
72 63 0
71 62 0
47 31 0
80 67 0
67 55 0
72 57 0
81 73 0
85 79 0
84 81 0
76 68 0
77 71 0
72 64 0
69 55 0
82 69 0
72 64 0
79 74 0
78 68 0
79 64 0
75 67 0
79 70 0
79 71 0
82 78 0
82 74 0
76 65 0
88 88 0
85 74 0
81 74 0
97 100 0
93 89 0
91 87 0
88 89 0
85 80 0
87 90 0
88 88 0
80 75 0
94 90 0
86 79 0
95 92 0
88 83 0
98 103 0
97 96 0
98 102 0
99 99 0
98 104 0
98 102 0
96 102 0
89 93 0
90 89 0
96 100 0
97 102 0
97 105 0
95 105 0
95 99 0
100 106 0
96 108 0
101 108 0
100 108 0
93 96 0
116 138 0
99 106 0
104 117 0
100 111 0
103 108 0
106 119 0
105 108 0
108 118 0
104 118 0
101 108 0
105 120 0
105 116 0
106 119 0
98 101 0
105 123 0
110 130 0
106 122 0
104 118 0
102 116 0
113 134 0
108 130 0
116 137 0
108 127 0
108 118 0
110 126 0
111 127 0
110 131 0
109 124 0
105 123 0
111 127 0
109 128 0
106 123 0
110 134 0
111 132 0
111 139 0
114 137 0
115 142 0
113 138 0
109 127 0
109 120 0
115 142 0
102 118 0
108 125 0
113 136 0
109 128 0
108 130 0
105 122 0
118 145 0
109 129 0
104 125 0
110 128 0
112 138 0
110 134 0
111 131 0
109 123 0
112 138 0
113 138 0
114 143 0
112 142 0
113 140 0
112 137 0
111 138 0
115 147 0
110 137 0
114 141 0
114 137 0
117 146 0
115 146 0
119 148 0
113 139 0
115 144 0
113 137 0
111 136 0
113 140 0
110 132 0
118 151 0
117 138 0
119 146 0
115 141 0
118 147 0
116 146 0
114 143 0
111 130 0
116 141 0
112 133 0
114 147 0
111 140 0
115 149 0
113 142 0
116 144 0
118 147 0
117 148 0
112 142 0
113 141 0
110 139 0
118 142 0
116 144 0
115 142 0
116 150 0
115 146 0
116 148 0
113 143 0
113 141 0
116 144 0
119 152 0
114 144 0
120 152 0
115 144 0
116 148 0
115 143 0
117 147 0
113 141 0
117 145 0
119 151 0
114 141 0
115 149 0
116 148 0
119 151 0
112 138 0
116 146 0
116 146 0
110 136 0
118 149 0
111 140 0
118 143 0
113 142 0
117 152 0
115 145 0
113 141 0
117 147 0
115 144 0
117 149 0
115 149 0
116 148 0
116 141 0
120 154 0
117 148 0
116 144 0
119 151 0
117 145 0
113 144 0
116 148 0
122 155 0
117 150 0
121 153 0
115 145 0
119 150 0
116 152 0
115 145 0
115 144 0
114 142 0
119 153 0
118 153 0
117 150 0
110 143 0
114 144 0
119 148 0
122 153 0
114 145 0
117 147 0
118 145 0
116 148 0
114 143 0
116 148 0
116 143 0
117 148 0
113 141 0
118 151 0
116 148 0
118 153 0
118 151 0
116 148 0
116 148 0
112 137 0
119 150 0
113 141 0
116 146 0
112 136 0
115 142 0
115 144 0
118 147 0
110 138 0
115 149 0
119 148 0
114 144 0
116 150 0
115 145 0
116 140 0
120 154 0
116 149 0
117 148 0
115 142 0
117 145 0
117 144 0
112 140 0
119 150 0
112 138 0
115 144 0
111 131 0
116 142 0
117 147 0
116 144 0
115 144 0
114 141 0
107 127 0
118 149 0
115 144 0
117 143 0
118 147 0
115 144 0
111 134 0
114 143 0
115 139 0
114 141 0
117 143 0
113 137 0
118 149 0
111 129 0
113 139 0
116 143 0
112 139 0
108 132 0
115 144 0
110 132 0
109 128 0
114 136 0
113 140 0
112 142 0
108 131 0
115 140 0
111 134 0
110 137 0
112 136 0
107 128 0
110 132 0
112 138 0
112 133 0
112 133 0
108 126 0
113 141 0
104 118 0
115 146 0
102 116 0
108 129 0
105 121 0
104 114 0
111 137 0
107 122 0
115 139 0
109 130 0
105 116 0
104 121 0
111 134 0
110 124 0
105 120 0
106 119 0
107 123 0
104 118 0
102 111 0
106 121 0
97 108 0
101 112 0
104 122 0
99 108 0
101 113 0
97 114 0
101 114 0
107 121 0
98 109 0
104 118 0
98 103 0
101 110 0
100 102 0
103 109 0
90 86 0
98 102 0
98 101 0
103 113 0
96 95 0
100 106 0
98 105 0
106 114 0
101 110 0
92 92 0
95 96 0
96 103 0
100 108 0
97 103 0
100 103 0
96 108 0
93 96 0
83 78 0
92 91 0
95 101 0
94 94 0
81 73 0
97 104 0
88 84 0
91 85 0
88 94 0
92 92 0
86 83 0
91 84 0
91 86 0
87 84 0
95 99 0
97 102 0
86 82 0
95 94 0
93 87 0
89 84 0
89 82 0
78 73 0
78 71 0
83 75 0
81 77 0
88 85 0
77 73 0
90 89 0
81 67 0
82 72 0
76 67 0
74 63 0
79 75 0
82 76 0
82 77 0
78 63 0
80 76 0
76 71 0
81 70 0
87 81 0
70 57 0
75 66 0
70 56 0
81 71 0
74 60 0
69 59 0
64 48 0
67 55 0
82 75 0
75 69 0
73 67 0
77 69 0
73 66 0
70 57 0
86 78 0
82 75 0
71 61 0
91 90 0
80 66 0
74 67 0
73 64 0
93 91 0
87 82 0
77 63 0
87 81 0
77 64 0
79 72 0
82 80 0
76 61 0
83 77 0
88 87 0
75 69 0
87 84 0
87 81 0
87 83 0
80 73 0
87 74 0
84 79 0
88 80 0
83 77 0
79 74 0
85 83 0
84 73 0
95 96 0
94 95 0
91 87 0
89 86 0
92 90 0
81 78 0
95 96 0
85 84 0
98 101 0
102 109 0
80 80 0
96 101 0
87 80 0
103 116 0
89 85 0
98 103 0
93 94 0
101 112 0
95 94 0
101 106 0
104 115 0
93 98 0
106 111 0
102 105 0
99 100 0
100 113 0
111 123 0
93 99 0
99 112 0
103 110 0
106 119 0
107 118 0
105 121 0
100 105 0
102 115 0
103 112 0
106 119 0
108 130 0
106 120 0
108 125 0
106 123 0
108 123 0
106 121 0
105 120 0
108 124 0
100 112 0
110 133 0
99 102 0
101 117 0
109 128 0
107 126 0
102 117 0
109 129 0
107 125 0
105 118 0
104 115 0
103 114 0
112 127 0
108 121 0
115 136 0
112 135 0
108 127 0
102 115 0
103 121 0
103 109 0
111 131 0
110 128 0
111 136 0
112 133 0
114 138 0
118 148 0
109 135 0
112 129 0
106 123 0
112 135 0
108 126 0
113 142 0
104 126 0
112 138 0
112 138 0
109 131 0
114 141 0
111 133 0
106 122 0
113 142 0
116 141 0
109 130 0
118 149 0
113 139 0
112 137 0
112 145 0
114 145 0
112 139 0
114 141 0
116 140 0
114 143 0
116 146 0
113 141 0
113 143 0
113 140 0
112 140 0
116 142 0
118 149 0
115 145 0
118 153 0
118 151 0
115 148 0
110 136 0
110 134 0
112 138 0
115 141 0
115 142 0
116 148 0
113 144 0
112 137 0
111 143 0
112 142 0
116 148 0
118 152 0
115 140 0
115 138 0
116 143 0
118 144 0
116 144 0
117 147 0
118 151 0
116 146 0
116 148 0
115 142 0
114 141 0
113 139 0
117 143 0
116 148 0
115 147 0
115 142 0
116 150 0
117 148 0
114 143 0
114 141 0
117 146 0
113 141 0
119 151 0
118 149 0
116 148 0
115 145 0
117 150 0
119 151 0
116 144 0
115 149 0
116 144 0
115 145 0
117 145 0
114 143 0
117 148 0
113 139 0
116 149 0
110 137 0
123 153 0
114 143 0
113 144 0
120 146 0
116 146 0
114 143 0
116 148 0
116 146 0
119 152 0
119 150 0
118 151 0
115 149 0
118 149 0
115 142 0
118 149 0
118 151 0
120 154 0
118 147 0
116 144 0
115 149 0
119 152 0
116 146 0
117 151 0
116 148 0
121 154 0
115 145 0
115 144 0
116 140 0
116 146 0
115 146 0
116 141 0
117 146 0
121 152 0
114 143 0
117 148 0
112 140 0
114 145 0
115 149 0
121 149 0
115 142 0
120 152 0
117 145 0
116 148 0
116 148 0
114 145 0
115 147 0
117 148 0
117 145 0
117 147 0
117 149 0
117 150 0
115 140 0
114 143 0
116 144 0
118 151 0
114 144 0
115 146 0
121 153 0
110 135 0
114 137 0
113 137 0
119 146 0
120 154 0
114 143 0
114 134 0
117 149 0
115 147 0
114 140 0
113 143 0
115 139 0
112 140 0
111 131 0
114 147 0
116 142 0
114 141 0
112 137 0
114 142 0
110 137 0
110 137 0
114 142 0
109 130 0
110 132 0
110 132 0
112 135 0
112 135 0
113 135 0
117 147 0
113 137 0
110 130 0
113 133 0
108 130 0
112 144 0
115 142 0
108 127 0
117 143 0
108 124 0
113 137 0
112 139 0
116 140 0
116 142 0
107 130 0
108 127 0
111 136 0
111 134 0
108 130 0
112 131 0
114 141 0
105 125 0
111 138 0
109 132 0
111 127 0
106 121 0
107 126 0
107 124 0
106 124 0
109 126 0
111 134 0
113 136 0
111 133 0
110 126 0
106 121 0
103 119 0
108 129 0
101 106 0
108 122 0
99 103 0
107 121 0
111 129 0
106 125 0
109 117 0
103 116 0
109 128 0
103 116 0
106 123 0
104 120 0
110 132 0
95 104 0
101 109 0
108 119 0
103 115 0
108 120 0
105 122 0
97 112 0
93 93 0
99 107 0
104 116 0
109 117 0
96 102 0
95 107 0
103 116 0
103 114 0
93 94 0
88 91 0
101 108 0
103 110 0
96 96 0
100 104 0
88 85 0
96 94 0
95 104 0
96 96 0
102 113 0
98 110 0
96 104 0
98 106 0
98 104 0
85 81 0
92 92 0
96 95 0
93 93 0
79 70 0
87 85 0
76 73 0
86 86 0
80 75 0
79 73 0
88 88 0
83 76 0
83 80 0
83 75 0
89 84 0
87 76 0
81 71 0
89 88 0
92 90 0
85 80 0
87 77 0
79 69 0
92 91 0
80 73 0
75 67 0
81 73 0
77 74 0
73 61 0
78 68 0
74 67 0
73 62 0
87 83 0
84 71 0
74 63 0
82 75 0
88 86 0
80 71 0
87 79 0
75 59 0
80 73 0
75 73 0
78 71 0
67 56 0
78 63 0
66 57 0
88 82 0
78 69 0
68 53 0
81 75 0
78 71 0
82 80 0
83 76 0
82 77 0
77 65 0
74 65 0
79 74 0
81 69 0
88 80 0
68 57 0
85 80 0
87 84 0
71 57 0
72 62 0
82 74 0
83 75 0
80 67 0
91 93 0
90 83 0
82 79 0
83 78 0
87 83 0
82 79 0
79 69 0
79 75 0
101 109 0
90 95 0
78 69 0
91 90 0
91 91 0
83 76 0
92 87 0
97 101 0
83 75 0
87 80 0
98 105 0
97 103 0
95 92 0
87 82 0
92 93 0
113 125 0
97 93 0
96 98 0
104 114 0
103 112 0
98 105 0
105 121 0
104 110 0
93 95 0
101 114 0
95 100 0
97 100 0
93 99 0
106 124 0
98 109 0
102 115 0
100 106 0
106 119 0
105 117 0
101 112 0
105 120 0
110 126 0
102 108 0
101 118 0
109 127 0
113 134 0
104 115 0
109 125 0
101 110 0
97 101 0
100 113 0
98 105 0
107 122 0
103 114 0
102 109 0
101 114 0
102 116 0
108 128 0
113 139 0
104 115 0
106 124 0
108 123 0
115 140 0
109 135 0
115 139 0
112 132 0
112 132 0
105 119 0
109 130 0
110 131 0
110 130 0
108 127 0
115 138 0
114 138 0
113 135 0
111 132 0
109 127 0
108 127 0
112 140 0
112 131 0
113 135 0
113 137 0
110 132 0
111 136 0
111 129 0
108 127 0
112 131 0
117 147 0
106 126 0
111 138 0
115 142 0
116 144 0
113 140 0
112 138 0
111 132 0
111 137 0
108 127 0
114 142 0
113 137 0
110 133 0
116 146 0
113 132 0
111 139 0
114 143 0
109 137 0
112 138 0
114 138 0
110 136 0
111 138 0
117 145 0
112 139 0
111 135 0
113 141 0
117 146 0
110 141 0
110 134 0
118 149 0
114 138 0
110 139 0
111 133 0
115 140 0
114 137 0
110 136 0
116 148 0
114 143 0
116 141 0
115 139 0
111 138 0
112 142 0
113 142 0
115 143 0
109 133 0
115 144 0
117 149 0
118 149 0
114 139 0
111 136 0
114 143 0
118 146 0
114 140 0
111 138 0
111 142 0
119 151 0
116 144 0
117 150 0
113 146 0
115 144 0
113 141 0
114 141 0
112 139 0
116 148 0
117 147 0
120 148 0
117 151 0
116 146 0
117 148 0
116 146 0
112 143 0
116 146 0
117 147 0
115 147 0
117 147 0
115 148 0
121 153 0
117 146 0
119 150 0
120 150 0
115 147 0
117 148 0
116 146 0
117 148 0
119 148 0
116 143 0
118 149 0
118 149 0
117 148 0
115 146 0
113 144 0
121 153 0
115 144 0
116 148 0
120 150 0
117 149 0
119 151 0
115 142 0
112 143 0
119 151 0
119 148 0
118 149 0
116 144 0
115 147 0
114 145 0
115 142 0
120 152 0
119 150 0
117 147 0
116 148 0
114 142 0
114 140 0
114 143 0
117 144 0
116 146 0
119 150 0
114 146 0
116 140 0
111 140 0
117 145 0
112 140 0
115 142 0
116 146 0
113 141 0
116 144 0
119 149 0
115 143 0
117 145 0
112 144 0
113 136 0
114 145 0
114 143 0
112 133 0
112 129 0
115 145 0
110 134 0
117 145 0
113 141 0
114 142 0
115 144 0
115 143 0
112 140 0
113 139 0
114 143 0
116 146 0
115 143 0
116 143 0
113 137 0
112 136 0
116 142 0
118 149 0
109 135 0
113 138 0
110 134 0
110 134 0
112 140 0
115 144 0
104 123 0
111 134 0
107 127 0
116 147 0
118 143 0
114 141 0
112 134 0
111 123 0
114 145 0
113 137 0
113 143 0
116 149 0
114 141 0
111 143 0
111 136 0
110 136 0
110 131 0
110 134 0
116 140 0
110 134 0
105 124 0
113 132 0
109 132 0
110 126 0
114 137 0
109 131 0
110 137 0
110 130 0
110 134 0
104 124 0
109 130 0
112 135 0
108 134 0
115 140 0
108 123 0
113 135 0
106 125 0
109 132 0
108 125 0
110 126 0
108 124 0
106 124 0
110 130 0
112 131 0
106 123 0
112 135 0
108 122 0
102 119 0
96 104 0
107 128 0
104 119 0
102 113 0
105 124 0
105 118 0
102 115 0
108 127 0
106 121 0
98 107 0
104 112 0
100 115 0
100 107 0
98 108 0
98 110 0
105 116 0
102 113 0
98 104 0
106 117 0
102 112 0
96 104 0
92 87 0
93 97 0
102 108 0
100 111 0
97 99 0
96 99 0
94 94 0
102 110 0
98 102 0
105 111 0
100 102 0
92 100 0
94 98 0
95 104 0
89 92 0
106 114 0
87 81 0
99 103 0
103 109 0
91 92 0
92 91 0
84 85 0
87 78 0
89 89 0
87 84 0
102 112 0
93 98 0
89 82 0
85 80 0
83 73 0
93 91 0
84 81 0
87 79 0
95 97 0
82 71 0
93 95 0
88 84 0
88 83 0
79 67 0
87 83 0
84 80 0
87 83 0
83 75 0
87 92 0
79 70 0
89 88 0
82 73 0
81 76 0
82 73 0
77 71 0
77 69 0
85 80 0
75 71 0
85 81 0
81 71 0
77 67 0
86 74 0
70 56 0
76 66 0
85 83 0
76 74 0
91 87 0
74 65 0
74 67 0
67 50 0
74 62 0
80 78 0
87 81 0
80 72 0
74 65 0
62 47 0
80 72 0
78 73 0
70 62 0
90 81 0
89 87 0
78 71 0
78 64 0
84 83 0
86 77 0
87 85 0
80 68 0
82 78 0
92 87 0
88 86 0
84 79 0
88 88 0
88 86 0
87 73 0
89 87 0
88 85 0
86 89 0
89 88 0
86 78 0
92 92 0
90 89 0
94 97 0
82 77 0
96 94 0
96 102 0
86 77 0
99 105 0
104 110 0
106 113 0
93 95 0
93 92 0
94 89 0
98 98 0
89 89 0
93 97 0
92 92 0
100 108 0
94 97 0
89 91 0
90 92 0
94 102 0
103 108 0
101 111 0
98 102 0
91 90 0
108 125 0
94 99 0
99 108 0
102 111 0
104 116 0
110 122 0
96 103 0
105 120 0
107 128 0
105 119 0
99 113 0
104 113 0
96 106 0
107 125 0
101 116 0
97 108 0
103 112 0
106 125 0
105 123 0
111 126 0
106 122 0
102 112 0
106 122 0
111 132 0
105 122 0
112 135 0
109 131 0
107 123 0
105 122 0
110 132 0
110 130 0
112 138 0
103 121 0
115 139 0
112 136 0
110 136 0
113 134 0
110 135 0
111 136 0
107 124 0
111 136 0
112 138 0
107 125 0
110 129 0
117 147 0
113 135 0
109 126 0
113 134 0
109 133 0
106 127 0
106 123 0
108 123 0
111 132 0
110 134 0
108 126 0
112 135 0
110 132 0
110 136 0
111 134 0
111 141 0
110 132 0
111 130 0
118 146 0
111 133 0
109 132 0
112 135 0
117 145 0
116 141 0
110 130 0
115 137 0
112 140 0
110 130 0
108 138 0
114 141 0
118 147 0
114 136 0
114 136 0
113 148 0
112 140 0
117 148 0
117 143 0
117 143 0
114 143 0
116 146 0
116 146 0
112 140 0
109 133 0
113 141 0
114 143 0
114 143 0
112 135 0
119 150 0
113 139 0
114 139 0
117 149 0
118 149 0
115 144 0
112 138 0
116 146 0
113 146 0
110 139 0
117 149 0
114 147 0
115 147 0
114 143 0
117 149 0
115 144 0
118 147 0
115 143 0
116 146 0
119 148 0
117 143 0
115 147 0
112 139 0
116 144 0
113 139 0
116 147 0
116 146 0
118 149 0
112 140 0
114 147 0
112 142 0
113 146 0
121 154 0
112 137 0
111 138 0
115 147 0
116 146 0
119 149 0
119 151 0
119 151 0
115 147 0
116 146 0
115 144 0
119 151 0
116 144 0
116 146 0
117 148 0
118 147 0
116 146 0
117 149 0
115 145 0
119 153 0
119 151 0
116 148 0
117 148 0
114 143 0
116 149 0
121 150 0
117 150 0
114 145 0
118 151 0
113 146 0
117 147 0
117 147 0
116 146 0
117 152 0
117 149 0
116 146 0
117 143 0
115 142 0
115 145 0
120 148 0
117 146 0
118 149 0
116 143 0
114 142 0
119 151 0
118 151 0
113 137 0
116 146 0
116 148 0
116 148 0
113 141 0
117 146 0
122 151 0
115 145 0
117 146 0
117 149 0
111 138 0
122 151 0
112 136 0
118 149 0
118 147 0
116 144 0
118 150 0
117 145 0
118 151 0
115 147 0
117 148 0
117 147 0
114 140 0
114 142 0
111 134 0
115 144 0
116 144 0
116 141 0
112 136 0
111 131 0
109 134 0
115 144 0
114 143 0
110 138 0
109 129 0
109 129 0
115 144 0
114 140 0
110 132 0
111 140 0
113 140 0
117 143 0
111 136 0
115 146 0
112 139 0
114 143 0
106 122 0
112 135 0
111 136 0
118 147 0
111 132 0
111 138 0
114 139 0
115 142 0
115 144 0
115 137 0
113 140 0
114 140 0
110 130 0
112 134 0
112 138 0
112 138 0
117 143 0
111 132 0
106 126 0
106 120 0
111 140 0
110 139 0
108 125 0
108 129 0
111 136 0
115 137 0
108 122 0
107 125 0
109 129 0
113 135 0
102 116 0
106 120 0
110 133 0
109 128 0
113 139 0
107 122 0
111 132 0
107 124 0
110 122 0
104 119 0
109 125 0
112 137 0
100 110 0
113 135 0
104 112 0
106 115 0
103 119 0
98 105 0
105 117 0
104 119 0
107 120 0
100 109 0
103 111 0
108 125 0
93 102 0
106 116 0
100 108 0
109 127 0
111 129 0
96 98 0
106 125 0
99 102 0
102 112 0
99 107 0
93 92 0
100 106 0
102 109 0
99 101 0
96 102 0
98 99 0
102 109 0
93 95 0
98 94 0
84 79 0
100 96 0
100 104 0
99 102 0
100 104 0
94 100 0
103 107 0
91 90 0
97 99 0
89 87 0
98 114 0
92 88 0
94 94 0
84 78 0
91 84 0
86 86 0
89 87 0
86 80 0
86 79 0
89 86 0
87 76 0
90 93 0
89 85 0
91 95 0
84 80 0
94 94 0
87 78 0
75 67 0
81 80 0
88 84 0
83 81 0
89 84 0
88 87 0
79 66 0
78 74 0
92 88 0
88 86 0
87 81 0
92 87 0
85 77 0
87 83 0
87 88 0
79 70 0
87 85 0
72 60 0
82 71 0
72 64 0
78 67 0
71 53 0
78 70 0
83 79 0
85 84 0
83 76 0
87 83 0
82 79 0
88 82 0
83 77 0
86 84 0
76 64 0
79 80 0
77 68 0
84 75 0
77 62 0
84 75 0
102 109 0
75 65 0
84 74 0
90 93 0
75 69 0
86 81 0
83 78 0
85 85 0
74 63 0
77 66 0
94 95 0
69 59 0
92 90 0
86 82 0
86 79 0
81 84 0
89 85 0
78 70 0
86 85 0
83 86 0
91 91 0
84 83 0
92 90 0
92 92 0
86 80 0
94 96 0
87 84 0
93 100 0
98 101 0
90 86 0
96 100 0
95 103 0
97 103 0
89 94 0
87 79 0
100 106 0
79 75 0
95 97 0
99 102 0
93 92 0
101 106 0
89 89 0
97 97 0
88 84 0
100 108 0
97 99 0
109 124 0
100 108 0
107 115 0
104 115 0
93 93 0
103 115 0
101 114 0
98 103 0
95 106 0
102 113 0
103 114 0
111 127 0
104 114 0
105 116 0
103 121 0
100 112 0
104 109 0
104 113 0
108 125 0
111 126 0
93 101 0
104 116 0
106 119 0
107 122 0
107 123 0
110 126 0
110 130 0
101 114 0
109 124 0
106 124 0
100 112 0
107 126 0
100 112 0
107 132 0
107 129 0
107 129 0
113 134 0
107 123 0
107 121 0
110 125 0
107 123 0
115 142 0
105 118 0
111 136 0
111 125 0
105 123 0
104 121 0
108 129 0
110 137 0
110 132 0
111 132 0
113 139 0
104 117 0
111 134 0
110 132 0
109 128 0
109 127 0
114 142 0
111 127 0
112 133 0
114 138 0
112 133 0
115 142 0
110 136 0
115 138 0
115 138 0
109 132 0
108 129 0
115 142 0
112 138 0
117 143 0
116 148 0
113 137 0
112 141 0
109 135 0
114 141 0
115 141 0
113 141 0
113 142 0
113 139 0
113 143 0
115 146 0
116 148 0
118 147 0
115 145 0
110 133 0
114 140 0
114 143 0
115 138 0
118 149 0
117 143 0
115 148 0
113 137 0
113 141 0
115 142 0
113 144 0
114 147 0
110 132 0
118 149 0
113 143 0
110 128 0
110 136 0
116 146 0
117 145 0
111 133 0
114 141 0
114 145 0
112 134 0
115 145 0
120 148 0
114 145 0
118 151 0
112 140 0
114 140 0
117 147 0
116 146 0
118 149 0
115 147 0
116 146 0
115 144 0
116 146 0
115 147 0
116 142 0
117 147 0
119 153 0
118 151 0
114 141 0
115 146 0
116 150 0
118 151 0
118 149 0
115 149 0
118 151 0
118 147 0
115 149 0
120 150 0
118 153 0
117 150 0
116 146 0
118 147 0
117 150 0
119 148 0
115 144 0
115 144 0
117 150 0
120 144 0
117 151 0
120 152 0
115 144 0
119 151 0
114 145 0
114 145 0
113 141 0
112 138 0
117 147 0
118 151 0
116 150 0
117 150 0
114 141 0
119 151 0
117 148 0
117 143 0
116 145 0
115 147 0
118 151 0
113 139 0
118 147 0
115 144 0
115 142 0
114 145 0
114 145 0
117 150 0
114 143 0
116 148 0
112 135 0
118 147 0
113 139 0
114 143 0
117 149 0
116 146 0
118 151 0
115 142 0
115 142 0
113 141 0
113 137 0
117 148 0
116 142 0
112 136 0
108 136 0
113 139 0
116 144 0
116 144 0
117 145 0
110 134 0
113 139 0
104 124 0
114 137 0
112 137 0
118 145 0
118 151 0
114 142 0
112 138 0
111 139 0
111 136 0
114 141 0
117 143 0
112 142 0
115 146 0
111 135 0
114 145 0
113 139 0
108 130 0
109 131 0
111 135 0
108 133 0
117 143 0
115 149 0
107 123 0
111 135 0
107 130 0
114 141 0
115 142 0
113 142 0
107 130 0
114 136 0
114 141 0
110 134 0
107 128 0
107 127 0
112 142 0
115 142 0
110 135 0
111 137 0
112 135 0
108 129 0
112 142 0
111 130 0
110 135 0
108 127 0
110 127 0
112 128 0
110 128 0
100 119 0
110 128 0
109 135 0
107 123 0
113 138 0
109 128 0
108 125 0
101 115 0
106 124 0
110 128 0
107 129 0
105 129 0
101 115 0
104 118 0
96 104 0
114 139 0
104 119 0
110 129 0
101 114 0
110 128 0
103 119 0
105 115 0
104 114 0
101 110 0
111 129 0
109 130 0
110 130 0
101 114 0
110 132 0
104 117 0
101 119 0
104 114 0
97 102 0
101 110 0
94 99 0
99 109 0
104 117 0
104 117 0
98 102 0
104 114 0
101 106 0
89 92 0
98 111 0
107 121 0
103 112 0
103 111 0
103 113 0
100 104 0
98 103 0
97 100 0
95 98 0
106 112 0
93 94 0
96 104 0
99 109 0
99 103 0
93 89 0
93 94 0
92 92 0
104 114 0
97 100 0
90 92 0
87 87 0
96 102 0
91 95 0
86 80 0
99 106 0
86 84 0
93 100 0
81 76 0
85 81 0
82 72 0
91 85 0
101 106 0
91 88 0
94 94 0
86 86 0
83 74 0
87 79 0
77 77 0
88 86 0
92 93 0
82 74 0
87 85 0
83 72 0
86 84 0
87 84 0
89 89 0
83 78 0
78 70 0
78 66 0
88 85 0
71 59 0
75 64 0
93 88 0
85 76 0
82 75 0
78 67 0
83 76 0
79 70 0
71 56 0
83 81 0
85 77 0
79 75 0
75 62 0
80 70 0
74 65 0
77 66 0
84 75 0
80 72 0
85 78 0
81 79 0
95 97 0
86 83 0
90 90 0
95 96 0
87 84 0
76 65 0
76 65 0
71 56 0
85 81 0
89 86 0
96 94 0
93 90 0
79 70 0
76 69 0
90 80 0
89 90 0
91 86 0
83 74 0
85 73 0
80 76 0
92 92 0
83 81 0
95 97 0
90 84 0
81 71 0
97 103 0
94 97 0
101 112 0
92 91 0
80 79 0
90 91 0
89 83 0
86 86 0
94 94 0
91 90 0
95 105 0
87 83 0
98 108 0
95 98 0
92 89 0
92 99 0
91 98 0
93 92 0
94 95 0
99 109 0
97 101 0
103 121 0
102 114 0
98 99 0
103 119 0
100 102 0
104 116 0
96 98 0
109 125 0
103 114 0
97 105 0
102 111 0
101 118 0
101 114 0
100 110 0
109 126 0
107 121 0
105 118 0
106 118 0
111 136 0
100 112 0
104 117 0
109 133 0
108 124 0
106 122 0
100 105 0
109 126 0
102 115 0
109 134 0
100 115 0
106 118 0
105 126 0
102 115 0
102 114 0
102 116 0
107 118 0
104 118 0
107 124 0
114 141 0
107 127 0
109 123 0
109 124 0
108 135 0
102 112 0
109 124 0
110 132 0
112 131 0
113 135 0
116 138 0
110 132 0
110 130 0
113 135 0
108 131 0
109 131 0
110 134 0
107 132 0
110 130 0
109 133 0
109 133 0
111 140 0
110 134 0
110 132 0
111 132 0
113 135 0
116 140 0
107 130 0
113 143 0
111 134 0
115 142 0
113 137 0
111 140 0
110 130 0
114 145 0
115 142 0
116 144 0
109 127 0
109 135 0
111 145 0
114 141 0
117 148 0
117 149 0
111 136 0
115 140 0
119 142 0
115 142 0
111 140 0
117 147 0
115 146 0
111 134 0
117 145 0
109 130 0
113 137 0
113 132 0
112 137 0
115 144 0
117 143 0
117 141 0
117 145 0
115 145 0
119 148 0
112 135 0
114 143 0
115 142 0
116 144 0
118 145 0
115 147 0
115 149 0
116 146 0
116 144 0
120 150 0
113 144 0
116 150 0
118 143 0
115 142 0
118 147 0
113 142 0
116 142 0
117 148 0
114 141 0
115 145 0
114 143 0
113 138 0
115 144 0
114 143 0
112 140 0
116 149 0
112 142 0
114 145 0
114 143 0
113 144 0
119 148 0
116 142 0
118 147 0
117 147 0
115 148 0
116 146 0
116 148 0
117 145 0
114 141 0
118 149 0
117 150 0
120 148 0
115 144 0
118 149 0
116 145 0
116 146 0
117 150 0
115 145 0
111 142 0
121 154 0
115 144 0
114 143 0
116 145 0
119 151 0
116 151 0
116 148 0
114 145 0
111 141 0
114 142 0
116 150 0
117 150 0
113 141 0
116 146 0
117 150 0
114 143 0
116 148 0
118 147 0
113 139 0
119 148 0
114 139 0
113 136 0
116 146 0
121 153 0
116 147 0
115 144 0
111 138 0
118 147 0
118 149 0
112 142 0
117 148 0
109 135 0
114 147 0
117 143 0
119 149 0
113 142 0
119 150 0
112 138 0
118 149 0
119 147 0
119 148 0
116 140 0
113 141 0
113 139 0
113 143 0
114 137 0
117 148 0
114 147 0
115 145 0
113 142 0
112 142 0
119 148 0
111 134 0
112 133 0
115 144 0
113 139 0
114 140 0
115 137 0
108 133 0
114 142 0
118 147 0
112 140 0
116 146 0
115 136 0
114 140 0
119 146 0
115 140 0
109 126 0
112 137 0
105 124 0
112 139 0
110 135 0
111 135 0
111 138 0
116 141 0
114 143 0
114 137 0
115 142 0
113 133 0
115 146 0
109 131 0
111 134 0
115 136 0
105 125 0
108 130 0
108 125 0
105 125 0
100 114 0
109 130 0
114 137 0
110 135 0
112 129 0
114 139 0
108 129 0
103 117 0
117 147 0
107 128 0
103 110 0
110 123 0
109 132 0
103 120 0
106 123 0
105 120 0
107 123 0
105 123 0
110 130 0
108 121 0
115 131 0
106 123 0
113 137 0
109 120 0
104 119 0
103 121 0
107 126 0
108 121 0
105 118 0
112 129 0
104 118 0
107 125 0
108 125 0
103 117 0
107 123 0
100 110 0
101 118 0
105 114 0
104 119 0
106 121 0
101 109 0
98 103 0
104 115 0
101 111 0
100 110 0
94 100 0
94 105 0
96 97 0
97 106 0
105 116 0
96 97 0
95 104 0
99 109 0
99 102 0
98 104 0
104 113 0
92 96 0
95 101 0
94 103 0
91 92 0
99 103 0
84 78 0
93 91 0
103 114 0
94 99 0
91 89 0
102 109 0
101 109 0
91 89 0
86 89 0
92 88 0
86 85 0
86 82 0
88 89 0
86 85 0
80 71 0
92 92 0
84 80 0
91 84 0
83 75 0
88 85 0
92 85 0
92 96 0
86 82 0
85 84 0
77 65 0
77 65 0
69 62 0
92 88 0
80 70 0
90 81 0
90 95 0
81 79 0
88 83 0
85 84 0
89 90 0
90 85 0
82 72 0
87 82 0
88 83 0
86 84 0
87 82 0
81 68 0
91 97 0
86 85 0
78 68 0
84 79 0
86 80 0
84 81 0
82 70 0
83 79 0
85 79 0
79 74 0
89 92 0
96 93 0
86 83 0
75 71 0
86 81 0
83 76 0
90 93 0
100 105 0
87 87 0
84 75 0
92 89 0
85 83 0
89 85 0
80 73 0
78 68 0
81 74 0
86 78 0
94 93 0
93 94 0
87 82 0
103 109 0
90 93 0
83 78 0
91 90 0
95 103 0
92 83 0
91 95 0
92 87 0
83 81 0
90 87 0
93 92 0
88 84 0
96 97 0
91 97 0
95 91 0
101 109 0
100 106 0
92 94 0
95 101 0
89 89 0
101 112 0
99 104 0
97 104 0
103 111 0
97 104 0
103 108 0
96 104 0
100 102 0
96 100 0
96 98 0
107 117 0
93 93 0
101 111 0
97 101 0
97 101 0
103 118 0
94 96 0
104 114 0
101 111 0
100 109 0
108 125 0
101 107 0
103 115 0
110 126 0
108 120 0
106 120 0
104 121 0
101 110 0
103 114 0
105 117 0
106 122 0
108 126 0
106 120 0
107 126 0
106 117 0
112 133 0
108 125 0
103 116 0
114 130 0
110 128 0
102 122 0
108 122 0
106 122 0
107 128 0
103 122 0
112 133 0
102 120 0
105 120 0
110 134 0
109 133 0
107 128 0
109 133 0
106 122 0
108 129 0
107 126 0
109 135 0
107 127 0
113 131 0
105 118 0
111 129 0
113 134 0
111 138 0
108 133 0
116 142 0
112 135 0
113 141 0
116 146 0
114 141 0
112 136 0
110 134 0
115 147 0
111 138 0
111 131 0
112 137 0
110 137 0
113 137 0
113 137 0
118 143 0
115 145 0
110 135 0
113 137 0
118 145 0
112 137 0
111 138 0
114 134 0
111 130 0
114 140 0
114 137 0
118 147 0
113 134 0
115 142 0
114 141 0
113 141 0
114 139 0
115 144 0
115 142 0
113 139 0
115 144 0
113 144 0
110 135 0
114 140 0
117 143 0
115 140 0
115 147 0
116 144 0
116 148 0
115 140 0
115 144 0
110 134 0
109 137 0
116 148 0
113 141 0
113 141 0
117 149 0
118 149 0
115 148 0
111 138 0
117 149 0
115 147 0
119 147 0
114 142 0
113 144 0
113 144 0
119 148 0
114 137 0
114 144 0
114 145 0
114 140 0
116 146 0
115 145 0
115 146 0
113 143 0
115 142 0
111 140 0
120 146 0
116 148 0
117 150 0
118 147 0
118 147 0
115 143 0
113 139 0
113 139 0
116 151 0
114 145 0
113 139 0
119 152 0
117 150 0
112 142 0
115 144 0
115 144 0
118 147 0
117 147 0
116 146 0
115 149 0
117 150 0
115 146 0
115 144 0
118 146 0
120 152 0
118 147 0
118 152 0
113 146 0
117 145 0
118 147 0
114 145 0
118 151 0
115 144 0
115 146 0
116 146 0
112 138 0
116 148 0
116 148 0
118 151 0
116 146 0
114 145 0
116 148 0
118 149 0
116 146 0
115 147 0
114 142 0
121 154 0
117 148 0
117 145 0
113 139 0
115 145 0
116 144 0
116 144 0
117 150 0
115 146 0
115 140 0
118 145 0
115 141 0
118 147 0
116 141 0
112 142 0
112 142 0
110 136 0
114 145 0
116 144 0
114 141 0
111 138 0
112 140 0
113 139 0
114 141 0
115 147 0
113 141 0
113 141 0
115 145 0
124 156 0
112 133 0
115 142 0
112 138 0
119 147 0
111 138 0
115 142 0
114 137 0
115 140 0
117 143 0
113 140 0
114 139 0
113 143 0
115 140 0
116 139 0
115 145 0
120 152 0
114 136 0
115 147 0
108 129 0
115 142 0
109 133 0
112 140 0
109 127 0
116 143 0
109 131 0
112 136 0
113 138 0
114 141 0
118 142 0
110 136 0
108 131 0
113 139 0
104 121 0
111 137 0
108 128 0
115 143 0
107 130 0
107 127 0
112 137 0
114 141 0
114 131 0
107 123 0
111 131 0
106 124 0
107 121 0
111 132 0
105 127 0
109 124 0
107 120 0
106 124 0
112 131 0
107 129 0
107 125 0
110 132 0
109 133 0
104 111 0
107 126 0
110 133 0
110 124 0
111 131 0
105 120 0
110 133 0
109 129 0
101 113 0
100 108 0
110 129 0
107 125 0
104 117 0
102 113 0
103 111 0
102 115 0
99 116 0
105 123 0
106 121 0
97 107 0
108 125 0
102 114 0
103 114 0
110 125 0
103 115 0
105 118 0
104 116 0
105 122 0
107 118 0
101 107 0
99 105 0
102 113 0
99 103 0
106 113 0
105 110 0
94 100 0
98 104 0
97 112 0
98 108 0
100 111 0
88 86 0
88 93 0
102 109 0
83 78 0
101 111 0
97 104 0
96 94 0
95 102 0
97 102 0
93 92 0
89 85 0
91 95 0
97 93 0
96 101 0
91 90 0
93 87 0
89 88 0
92 89 0
85 89 0
88 87 0
91 89 0
100 111 0
86 78 0
87 80 0
90 91 0
84 80 0
89 95 0
84 77 0
82 76 0
83 72 0
98 98 0
84 77 0
75 66 0
95 95 0
90 84 0
89 82 0
92 95 0
84 84 0
81 78 0
88 83 0
82 74 0
90 82 0
80 77 0
84 80 0
91 91 0
93 90 0
80 71 0
88 83 0
94 99 0
78 69 0
84 79 0
86 80 0
87 83 0
84 84 0
84 78 0
81 68 0
81 72 0
90 84 0
83 79 0
80 67 0
91 82 0
80 69 0
85 83 0
80 59 0
90 89 0
93 92 0
88 79 0
78 69 0
76 64 0
90 88 0
93 81 0
86 80 0
85 78 0
76 65 0
99 108 0
91 91 0
91 95 0
84 76 0
93 93 0
84 82 0
95 96 0
90 85 0
95 97 0
103 107 0
92 93 0
98 108 0
90 91 0
91 93 0
95 97 0
102 110 0
92 92 0
96 101 0
93 93 0
99 100 0
96 98 0
97 104 0
94 95 0
98 100 0
95 98 0
100 109 0
104 117 0
92 97 0
100 112 0
95 97 0
94 104 0
102 113 0
98 99 0
107 123 0
107 119 0
98 102 0
99 105 0
99 101 0
103 118 0
101 105 0
100 109 0
106 115 0
90 90 0
105 115 0
103 113 0
102 116 0
109 129 0
101 110 0
97 109 0
106 123 0
100 101 0
102 117 0
107 123 0
109 125 0
97 110 0
102 112 0
104 114 0
112 131 0
103 113 0
110 125 0
108 124 0
106 125 0
109 128 0
108 129 0
109 127 0
111 132 0
106 124 0
98 100 0
115 136 0
114 143 0
105 121 0
113 129 0
111 134 0
109 128 0
111 136 0
112 139 0
108 125 0
112 130 0
109 128 0
112 133 0
111 132 0
108 127 0
110 131 0
104 123 0
104 123 0
108 124 0
112 138 0
113 140 0
109 126 0
113 139 0
111 130 0
108 132 0
106 124 0
110 130 0
110 128 0
114 138 0
112 133 0
114 139 0
107 121 0
107 127 0
109 134 0
111 132 0
108 131 0
113 139 0
112 137 0
112 140 0
110 136 0
111 136 0
108 134 0
116 141 0
112 137 0
112 142 0
113 134 0
110 132 0
108 131 0
113 141 0
113 141 0
116 144 0
113 137 0
117 149 0
117 147 0
110 132 0
111 141 0
116 140 0
114 143 0
116 142 0
110 130 0
120 148 0
113 140 0
118 145 0
114 145 0
111 138 0
114 144 0
116 144 0
113 143 0
117 147 0
113 139 0
111 136 0
113 136 0
116 146 0
118 147 0
114 146 0
112 142 0
110 128 0
118 143 0
117 146 0
115 140 0
111 136 0
117 150 0
112 142 0
120 148 0
116 149 0
116 152 0
120 150 0
118 149 0
113 137 0
118 151 0
115 147 0
116 146 0
112 140 0
116 144 0
117 146 0
112 141 0
115 144 0
115 143 0
116 148 0
116 148 0
114 145 0
119 150 0
117 147 0
113 143 0
117 147 0
116 146 0
119 153 0
118 149 0
116 147 0
117 150 0
117 144 0
112 139 0
116 146 0
120 152 0
111 140 0
120 149 0
119 150 0
119 148 0
116 144 0
114 139 0
116 144 0
116 150 0
115 145 0
117 150 0
112 140 0
117 147 0
116 150 0
117 149 0
114 137 0
118 147 0
116 148 0
115 144 0
117 147 0
117 148 0
114 146 0
120 152 0
111 140 0
115 145 0
116 148 0
111 141 0
113 141 0
113 139 0
114 143 0
113 150 0
111 132 0
116 144 0
117 145 0
113 146 0
114 143 0
114 141 0
113 143 0
113 141 0
115 146 0
112 135 0
114 143 0
113 141 0
112 136 0
109 132 0
116 148 0
116 141 0
113 141 0
118 147 0
115 142 0
113 142 0
116 142 0
113 141 0
112 140 0
114 143 0
115 136 0
112 138 0
115 144 0
115 136 0
115 142 0
112 138 0
111 131 0
114 140 0
110 135 0
112 129 0
111 136 0
112 135 0
111 133 0
111 135 0
113 139 0
107 128 0
116 148 0
113 136 0
112 135 0
112 130 0
111 136 0
106 126 0
110 134 0
107 130 0
117 146 0
108 126 0
111 138 0
110 128 0
111 130 0
109 135 0
115 136 0
110 132 0
112 125 0
107 130 0
107 125 0
107 124 0
113 135 0
108 126 0
108 125 0
105 120 0
109 126 0
111 136 0
112 138 0
113 142 0
105 123 0
110 128 0
109 129 0
108 127 0
116 146 0
106 122 0
112 131 0
115 136 0
114 134 0
109 129 0
104 112 0
107 128 0
104 119 0
108 121 0
110 125 0
105 117 0
106 127 0
104 118 0
107 119 0
111 129 0
103 112 0
106 123 0
104 116 0
107 123 0
105 121 0
103 120 0
101 114 0
105 120 0
95 108 0
103 117 0
101 108 0
99 107 0
103 116 0
107 119 0
97 101 0
101 108 0
93 98 0
98 98 0
100 107 0
103 113 0
106 121 0
101 110 0
103 119 0
98 107 0
90 87 0
92 92 0
99 105 0
106 119 0
94 95 0
96 95 0
100 105 0
101 109 0
96 100 0
96 102 0
90 89 0
94 102 0
93 93 0
101 105 0
91 89 0
95 92 0
101 110 0
93 91 0
95 99 0
99 103 0
99 104 0
92 88 0
87 82 0
88 90 0
84 76 0
98 104 0
90 86 0
94 98 0
89 90 0
88 82 0
80 80 0
90 93 0
87 80 0
86 85 0
86 85 0
89 86 0
88 82 0
84 81 0
90 82 0
80 73 0
81 75 0
85 84 0
82 71 0
83 76 0
77 71 0
94 94 0
82 71 0
88 82 0
85 78 0
88 83 0
78 65 0
75 71 0
89 87 0
82 75 0
83 80 0
78 68 0
73 65 0
88 84 0
76 62 0
90 87 0
91 86 0
80 73 0
85 80 0
83 71 0
87 79 0
88 80 0
85 76 0
94 90 0
80 76 0
94 97 0
86 80 0
89 87 0
89 86 0
78 68 0
82 75 0
86 74 0
87 87 0
101 112 0
87 79 0
85 80 0
91 85 0
90 88 0
98 103 0
86 78 0
95 97 0
87 80 0
87 77 0
87 85 0
99 99 0
87 84 0
87 86 0
95 100 0
96 98 0
89 90 0
94 97 0
88 78 0
92 87 0
95 93 0
92 90 0
95 95 0
95 96 0
93 93 0
97 107 0
94 95 0
97 104 0
106 119 0
102 116 0
101 118 0
99 104 0
106 116 0
97 101 0
96 98 0
96 100 0
100 106 0
108 127 0
99 111 0
102 117 0
102 108 0
108 118 0
100 112 0
103 117 0
95 101 0
108 122 0
100 112 0
105 125 0
102 110 0
108 125 0
102 113 0
110 130 0
109 125 0
101 112 0
106 124 0
103 113 0
105 119 0
106 128 0
100 108 0
111 134 0
111 127 0
103 116 0
111 137 0
109 126 0
100 109 0
108 125 0
109 128 0
111 132 0
104 123 0
112 131 0
116 141 0
100 112 0
110 131 0
111 130 0
109 126 0
117 147 0
111 125 0
111 132 0
113 135 0
110 134 0
107 129 0
115 142 0
111 132 0
108 126 0
109 129 0
112 136 0
109 131 0
105 118 0
116 140 0
103 124 0
114 137 0
106 127 0
111 136 0
116 142 0
108 133 0
110 129 0
112 135 0
118 151 0
114 139 0
113 139 0
112 135 0
109 126 0
115 137 0
114 140 0
108 127 0
108 129 0
110 130 0
116 145 0
115 140 0
111 136 0
112 136 0
112 140 0
112 138 0
115 144 0
114 143 0
114 147 0
114 141 0
115 144 0
114 141 0
117 146 0
115 140 0
111 136 0
109 137 0
114 145 0
115 140 0
116 148 0
110 130 0
111 137 0
118 148 0
116 140 0
114 145 0
114 141 0
117 148 0
116 146 0
119 150 0
116 144 0
109 138 0
115 147 0
118 145 0
114 143 0
119 153 0
118 145 0
115 142 0
118 147 0
116 142 0
120 153 0
112 136 0
119 148 0
112 138 0
116 144 0
115 147 0
116 147 0
114 141 0
113 143 0
119 150 0
111 134 0
113 134 0
112 140 0
117 145 0
118 147 0
121 153 0
115 144 0
115 144 0
123 152 0
120 154 0
113 145 0
116 146 0
117 147 0
117 150 0
115 145 0
117 150 0
114 145 0
118 147 0
115 144 0
119 152 0
121 152 0
111 136 0
120 152 0
114 147 0
118 151 0
118 151 0
117 149 0
117 148 0
119 151 0
117 148 0
117 148 0
115 139 0
116 146 0
118 151 0
114 143 0
113 141 0
117 148 0
115 147 0
119 151 0
118 149 0
114 147 0
118 149 0
113 142 0
115 142 0
113 140 0
114 145 0
117 145 0
113 144 0
116 146 0
116 146 0
117 146 0
112 136 0
115 145 0
113 141 0
119 148 0
120 152 0
117 150 0
114 141 0
112 139 0
113 140 0
110 136 0
117 145 0
113 142 0
112 144 0
117 145 0
114 141 0
116 136 0
112 136 0
109 131 0
114 142 0
112 138 0
114 141 0
116 146 0
112 142 0
116 144 0
114 139 0
115 141 0
109 132 0
115 142 0
116 148 0
112 138 0
116 144 0
114 145 0
114 147 0
114 141 0
113 135 0
113 137 0
115 144 0
113 129 0
109 130 0
115 145 0
118 142 0
108 132 0
107 127 0
116 146 0
104 126 0
110 132 0
111 138 0
110 130 0
111 134 0
110 133 0
110 135 0
116 140 0
109 135 0
110 129 0
116 146 0
107 125 0
108 127 0
111 132 0
107 123 0
107 130 0
114 136 0
117 141 0
107 129 0
107 126 0
108 131 0
111 135 0
105 125 0
107 123 0
106 126 0
109 126 0
103 126 0
108 129 0
104 122 0
109 127 0
103 113 0
112 129 0
103 123 0
112 136 0
108 131 0
108 127 0
112 135 0
116 143 0
110 130 0
108 127 0
109 125 0
114 136 0
104 121 0
110 130 0
108 124 0
112 129 0
104 119 0
104 116 0
101 116 0
109 128 0
109 129 0
107 117 0
103 119 0
99 104 0
110 124 0
96 109 0
110 123 0
102 107 0
98 109 0
105 124 0
98 104 0
97 102 0
97 105 0
101 109 0
94 100 0
102 113 0
103 112 0
93 95 0
106 115 0
101 114 0
96 103 0
100 111 0
100 106 0
97 106 0
93 95 0
101 105 0
93 91 0
102 111 0
98 106 0
101 102 0
97 103 0
97 103 0
98 103 0
97 104 0
86 80 0
94 100 0
99 101 0
90 85 0
104 112 0
93 90 0
98 105 0
92 93 0
97 104 0
100 98 0
95 100 0
91 87 0
91 87 0
88 79 0
88 89 0
95 96 0
87 89 0
84 86 0
84 79 0
85 79 0
90 87 0
93 95 0
91 86 0
88 83 0
83 81 0
89 90 0
79 78 0
90 84 0
91 90 0
84 69 0
90 91 0
77 68 0
92 95 0
79 71 0
84 71 0
78 72 0
88 85 0
90 98 0
83 78 0
80 72 0
87 82 0
82 73 0
83 78 0
86 87 0
84 77 0
94 93 0
85 79 0
94 99 0
89 83 0
82 73 0
90 95 0
102 104 0
76 70 0
86 82 0
83 79 0
85 83 0
79 70 0
90 88 0
90 93 0
89 89 0
83 73 0
81 67 0
85 78 0
81 70 0
90 86 0
98 104 0
92 93 0
90 94 0
84 82 0
96 100 0
94 92 0
88 82 0
94 102 0
82 73 0
86 79 0
98 98 0
95 89 0
92 98 0
101 108 0
91 91 0
97 103 0
89 86 0
98 105 0
98 100 0
89 85 0
98 110 0
100 109 0
103 109 0
95 96 0
98 98 0
105 118 0
95 99 0
98 104 0
102 102 0
100 105 0
102 111 0
95 104 0
103 111 0
102 113 0
99 100 0
99 115 0
97 103 0
110 123 0
102 108 0
99 109 0
106 113 0
102 109 0
96 103 0
104 114 0
106 117 0
105 111 0
107 120 0
112 133 0
99 113 0
107 123 0
107 124 0
98 107 0
110 126 0
104 120 0
104 116 0
107 115 0
103 119 0
106 115 0
111 136 0
112 127 0
105 124 0
109 132 0
108 124 0
109 126 0
109 125 0
106 122 0
111 132 0
110 129 0
112 134 0
112 131 0
111 129 0
105 122 0
105 120 0
111 136 0
107 128 0
104 120 0
103 117 0
113 132 0
108 123 0
111 139 0
107 125 0
106 121 0
108 126 0
112 135 0
112 133 0
111 136 0
112 136 0
110 135 0
109 125 0
109 126 0
115 146 0
110 137 0
105 125 0
116 137 0
110 130 0
114 138 0
106 129 0
110 130 0
113 132 0
115 141 0
115 142 0
115 143 0
117 145 0
111 138 0
116 144 0
115 142 0
120 152 0
116 144 0
111 139 0
111 129 0
112 139 0
118 144 0
111 129 0
115 142 0
114 141 0
112 133 0
117 147 0
113 135 0
115 145 0
114 141 0
109 131 0
109 139 0
112 141 0
111 134 0
117 143 0
112 138 0
113 135 0
118 145 0
117 144 0
118 145 0
115 145 0
115 147 0
115 140 0
112 137 0
116 144 0
115 144 0
114 143 0
114 143 0
113 145 0
113 143 0
117 150 0
115 146 0
116 148 0
119 144 0
119 151 0
113 141 0
118 149 0
117 146 0
116 144 0
114 141 0
115 144 0
117 149 0
116 148 0
114 143 0
114 142 0
117 150 0
109 135 0
117 147 0
118 152 0
116 146 0
115 145 0
119 150 0
118 148 0
116 147 0
116 144 0
116 146 0
118 152 0
120 152 0
118 149 0
117 149 0
115 147 0
114 145 0
115 145 0
112 144 0
111 141 0
118 147 0
117 146 0
114 145 0
118 151 0
115 143 0
118 150 0
116 146 0
119 152 0
118 151 0
116 148 0
116 144 0
119 150 0
115 146 0
118 149 0
115 147 0
117 149 0
116 148 0
115 147 0
115 142 0
117 148 0
116 146 0
113 143 0
113 135 0
115 144 0
116 148 0
118 149 0
111 138 0
116 144 0
116 144 0
115 144 0
117 147 0
119 150 0
114 143 0
113 137 0
116 144 0
117 143 0
115 142 0
118 147 0
110 139 0
115 147 0
115 142 0
119 147 0
108 133 0
114 142 0
111 138 0
117 148 0
115 144 0
116 146 0
118 145 0
115 144 0
109 136 0
112 130 0
118 148 0
110 139 0
112 136 0
112 136 0
115 140 0
114 138 0
113 141 0
113 140 0
112 138 0
116 144 0
115 144 0
115 144 0
112 133 0
113 139 0
113 139 0
113 144 0
111 136 0
113 137 0
114 140 0
116 143 0
112 142 0
113 137 0
115 141 0
107 121 0
110 133 0
110 127 0
109 133 0
114 138 0
108 133 0
113 141 0
112 135 0
113 141 0
108 125 0
114 141 0
111 129 0
107 126 0
115 147 0
108 131 0
109 126 0
109 130 0
107 127 0
112 142 0
115 138 0
110 134 0
111 132 0
108 129 0
103 112 0
114 142 0
110 137 0
110 131 0
110 132 0
112 135 0
106 122 0
109 131 0
109 127 0
107 117 0
110 135 0
110 128 0
110 126 0
105 118 0
112 137 0
107 126 0
101 107 0
112 131 0
112 135 0
108 121 0
109 133 0
106 121 0
112 128 0
107 126 0
108 122 0
100 113 0
106 124 0
104 116 0
109 120 0
103 110 0
102 120 0
110 129 0
99 114 0
104 113 0
100 108 0
101 117 0
110 126 0
104 112 0
106 117 0
103 114 0
89 88 0
101 105 0
93 102 0
100 111 0
97 101 0
100 108 0
101 113 0
93 97 0
101 112 0
100 107 0
105 111 0
91 98 0
101 110 0
96 100 0
93 93 0
100 105 0
91 84 0
98 110 0
103 117 0
105 114 0
99 107 0
96 97 0
93 98 0
98 105 0
90 86 0
88 75 0
105 114 0
86 82 0
100 108 0
104 114 0
88 85 0
107 120 0
94 99 0
79 70 0
88 81 0
93 85 0
100 108 0
93 95 0
87 90 0
92 89 0
91 96 0
90 89 0
95 98 0
92 92 0
81 71 0
91 87 0
80 73 0
83 78 0
87 80 0
82 74 0
89 81 0
88 85 0
80 73 0
88 91 0
84 75 0
77 72 0
92 91 0
91 92 0
85 75 0
87 86 0
85 78 0
96 98 0
92 81 0
88 85 0
88 81 0
92 83 0
84 76 0
92 94 0
92 91 0
84 78 0
85 77 0
86 82 0
86 76 0
93 97 0
99 107 0
84 76 0
85 82 0
78 63 0
92 85 0
90 91 0
82 78 0
91 92 0
91 90 0
94 93 0
90 85 0
82 75 0
86 84 0
87 87 0
87 82 0
93 93 0
88 90 0
93 97 0
91 86 0
96 96 0
94 96 0
91 89 0
94 97 0
96 97 0
96 104 0
91 94 0
99 107 0
101 109 0
88 88 0
100 100 0
92 97 0
96 98 0
104 113 0
101 106 0
96 102 0
101 108 0
102 108 0
108 121 0
105 122 0
100 109 0
99 104 0
88 86 0
99 108 0
100 114 0
110 123 0
95 94 0
99 99 0
100 108 0
101 106 0
98 107 0
102 115 0
94 99 0
104 112 0
104 115 0
100 109 0
106 120 0
108 127 0
108 121 0
98 100 0
109 128 0
108 122 0
98 103 0
113 130 0
108 122 0
107 124 0
103 121 0
103 107 0
105 118 0
103 113 0
104 117 0
106 122 0
106 124 0
96 98 0
109 126 0
104 117 0
112 132 0
109 125 0
104 123 0
110 134 0
110 126 0
109 124 0
109 128 0
110 126 0
110 132 0
110 133 0
99 110 0
113 133 0
104 120 0
103 116 0
111 132 0
114 139 0
113 134 0
110 132 0
107 123 0
108 125 0
111 129 0
106 122 0
115 137 0
114 136 0
109 130 0
111 133 0
110 132 0
109 126 0
112 140 0
107 126 0
110 130 0
116 143 0
108 133 0
112 136 0
114 139 0
110 134 0
113 139 0
112 136 0
108 127 0
119 148 0
110 133 0
111 136 0
112 137 0
111 127 0
109 131 0
112 136 0
109 133 0
115 140 0
111 135 0
113 135 0
108 131 0
114 147 0
110 137 0
110 136 0
116 148 0
111 134 0
110 137 0
120 150 0
112 140 0
111 140 0
108 132 0
114 142 0
114 138 0
112 141 0
120 147 0
116 146 0
119 150 0
112 136 0
116 146 0
111 141 0
117 143 0
111 136 0
114 144 0
117 145 0
110 135 0
114 147 0
115 146 0
116 144 0
109 133 0
114 145 0
116 139 0
118 147 0
117 150 0
117 148 0
115 141 0
116 143 0
117 144 0
117 146 0
116 142 0
114 145 0
115 144 0
117 143 0
119 152 0
117 145 0
115 147 0
118 152 0
117 151 0
114 142 0
119 153 0
118 149 0
117 148 0
114 143 0
117 145 0
116 146 0
115 145 0
118 146 0
114 143 0
117 148 0
119 152 0
117 150 0
114 143 0
115 144 0
117 150 0
115 144 0
118 151 0
117 145 0
116 148 0
118 151 0
116 148 0
117 146 0
117 148 0
117 148 0
114 146 0
114 145 0
118 153 0
119 152 0
116 146 0
112 140 0
118 149 0
113 139 0
117 147 0
119 146 0
117 147 0
116 146 0
115 144 0
116 146 0
114 147 0
114 141 0
110 135 0
117 146 0
113 142 0
119 147 0
113 138 0
113 141 0
115 140 0
116 142 0
116 144 0
124 153 0
114 145 0
118 145 0
118 145 0
114 145 0
116 146 0
108 128 0
112 135 0
116 146 0
114 139 0
117 143 0
112 140 0
112 138 0
116 144 0
114 138 0
113 141 0
116 141 0
113 138 0
114 138 0
118 147 0
117 144 0
112 142 0
111 134 0
117 147 0
114 145 0
114 141 0
109 128 0
111 135 0
119 146 0
113 139 0
114 139 0
110 134 0
110 134 0
111 141 0
114 136 0
108 128 0
114 136 0
107 130 0
112 137 0
108 127 0
110 128 0
113 139 0
115 144 0
111 134 0
109 138 0
112 137 0
112 136 0
112 132 0
111 131 0
109 127 0
112 140 0
109 128 0
109 127 0
108 130 0
113 133 0
109 126 0
113 143 0
114 143 0
109 131 0
111 136 0
113 136 0
109 129 0
113 135 0
112 136 0
112 133 0
101 116 0
112 135 0
109 128 0
113 138 0
116 138 0
108 132 0
106 124 0
108 124 0
114 141 0
107 125 0
113 131 0
114 130 0
111 136 0
105 126 0
102 117 0
103 111 0
104 123 0
105 118 0
102 111 0
111 129 0
108 127 0
105 116 0
100 113 0
100 112 0
105 124 0
108 126 0
108 125 0
98 101 0
105 117 0
109 122 0
104 117 0
104 113 0
106 122 0
103 116 0
102 112 0
111 127 0
107 122 0
100 111 0
104 114 0
103 119 0
101 113 0
100 108 0
99 107 0
108 124 0
94 99 0
101 109 0
102 107 0
98 103 0
102 115 0
104 109 0
99 104 0
98 106 0
100 103 0
98 102 0
98 109 0
100 106 0
105 113 0
95 101 0
94 97 0
100 112 0
89 86 0
97 98 0
104 115 0
94 103 0
94 103 0
92 94 0
95 98 0
90 88 0
97 105 0
94 97 0
87 90 0
104 113 0
85 78 0
90 86 0
83 83 0
96 98 0
92 92 0
100 107 0
94 93 0
90 83 0
93 94 0
89 90 0
84 82 0
83 79 0
103 111 0
84 79 0
93 89 0
99 108 0
98 103 0
95 95 0
83 79 0
92 95 0
90 95 0
82 77 0
90 89 0
86 80 0
91 92 0
85 82 0
88 79 0
87 85 0
97 93 0
98 98 0
90 86 0
92 81 0
88 87 0
84 81 0
88 88 0
85 82 0
89 83 0
89 84 0
86 80 0
80 72 0
79 72 0
81 77 0
86 79 0
82 78 0
98 104 0
92 92 0
83 81 0
95 98 0
92 93 0
84 79 0
88 89 0
91 82 0
93 99 0
98 102 0
87 86 0
90 91 0
93 100 0
87 77 0
101 111 0
91 91 0
91 84 0
94 100 0
94 100 0
89 91 0
91 89 0
98 104 0
101 103 0
97 108 0
97 100 0
98 102 0
101 110 0
96 100 0
97 107 0
103 109 0
94 102 0
93 98 0
86 75 0
101 107 0
96 98 0
103 111 0
98 101 0
91 94 0
104 112 0
99 107 0
101 112 0
101 112 0
108 117 0
91 91 0
103 115 0
92 97 0
104 112 0
98 100 0
104 118 0
102 111 0
104 116 0
100 110 0
103 117 0
99 107 0
105 114 0
104 119 0
102 109 0
103 117 0
106 118 0
108 121 0
109 127 0
109 128 0
108 129 0
112 127 0
107 122 0
104 122 0
106 124 0
97 101 0
110 131 0
99 106 0
106 123 0
108 124 0
103 117 0
112 135 0
105 120 0
109 132 0
110 129 0
107 124 0
105 123 0
107 123 0
113 131 0
105 119 0
106 124 0
108 131 0
113 134 0
110 132 0
111 132 0
107 126 0
109 131 0
109 135 0
111 131 0
111 134 0
113 137 0
108 129 0
112 129 0
108 127 0
109 136 0
113 143 0
115 147 0
110 134 0
119 142 0
111 136 0
107 126 0
107 123 0
110 137 0
114 136 0
105 129 0
109 136 0
115 142 0
113 144 0
108 127 0
107 130 0
111 129 0
111 132 0
110 133 0
112 142 0
114 134 0
108 132 0
114 141 0
112 136 0
114 136 0
111 134 0
113 141 0
113 139 0
113 141 0
112 140 0
105 123 0
112 135 0
116 135 0
116 140 0
118 147 0
113 141 0
111 143 0
113 139 0
115 142 0
112 140 0
112 137 0
116 148 0
114 141 0
112 141 0
112 141 0
114 140 0
114 147 0
117 147 0
112 142 0
114 144 0
114 142 0
114 140 0
113 139 0
118 145 0
115 144 0
117 147 0
116 142 0
115 147 0
115 143 0
118 147 0
114 145 0
114 145 0
114 143 0
116 144 0
115 147 0
116 145 0
117 143 0
115 145 0
116 143 0
114 143 0
118 147 0
118 147 0
118 152 0
110 133 0
114 143 0
115 144 0
114 147 0
113 144 0
119 151 0
116 146 0
118 143 0
115 148 0
116 149 0
115 144 0
117 146 0
117 150 0
115 147 0
115 149 0
117 149 0
115 147 0
118 145 0
116 150 0
115 149 0
121 151 0
112 140 0
113 142 0
113 144 0
118 151 0
115 140 0
114 141 0
117 150 0
112 142 0
114 147 0
113 143 0
120 147 0
118 151 0
114 143 0
115 147 0
113 145 0
111 136 0
113 143 0
110 139 0
117 149 0
116 146 0
118 144 0
109 135 0
112 140 0
110 143 0
111 138 0
111 141 0
115 140 0
113 137 0
115 142 0
116 146 0
110 137 0
116 144 0
117 143 0
118 148 0
115 140 0
115 142 0
113 144 0
115 140 0
118 147 0
115 145 0
117 147 0
114 140 0
111 136 0
114 143 0
110 139 0
113 137 0
115 144 0
120 150 0
110 141 0
111 134 0
117 147 0
116 143 0
116 139 0
112 131 0
116 144 0
111 138 0
106 128 0
114 143 0
113 141 0
115 141 0
110 130 0
117 149 0
117 148 0
116 146 0
117 143 0
112 146 0
111 136 0
112 135 0
109 130 0
112 139 0
113 133 0
111 132 0
116 146 0
117 143 0
114 141 0
111 136 0
110 131 0
108 130 0
113 136 0
114 141 0
111 132 0
108 129 0
112 140 0
105 129 0
116 143 0
116 144 0
110 125 0
113 135 0
106 126 0
112 133 0
108 130 0
113 141 0
114 138 0
115 136 0
101 110 0
105 122 0
112 135 0
108 123 0
106 127 0
110 130 0
109 130 0
105 124 0
112 124 0
108 131 0
105 126 0
109 122 0
110 132 0
110 133 0
101 116 0
105 118 0
107 125 0
108 127 0
106 120 0
109 130 0
107 117 0
103 117 0
113 130 0
99 105 0
106 122 0
107 121 0
95 100 0
107 121 0
112 128 0
105 122 0
96 103 0
104 122 0
98 108 0
105 119 0
108 125 0
98 107 0
100 112 0
103 110 0
104 116 0
104 115 0
98 105 0
104 122 0
99 104 0
94 99 0
105 114 0
105 117 0
101 105 0
99 102 0
93 95 0
112 129 0
103 116 0
97 100 0
105 118 0
94 94 0
98 101 0
104 115 0
95 98 0
99 105 0
97 106 0
105 118 0
104 108 0
97 99 0
96 98 0
92 89 0
98 101 0
95 100 0
99 107 0
94 104 0
93 86 0
88 89 0
89 86 0
95 99 0
100 110 0
92 93 0
98 104 0
93 91 0
95 102 0
101 107 0
93 94 0
93 91 0
95 97 0
96 100 0
91 89 0
94 84 0
88 84 0
94 93 0
105 112 0
92 93 0
98 97 0
89 87 0
82 75 0
87 81 0
84 81 0
98 101 0
81 74 0
87 84 0
89 90 0
83 75 0
91 96 0
95 97 0
92 90 0
82 73 0
95 93 0
86 81 0
95 98 0
95 102 0
95 101 0
91 91 0
85 80 0
85 77 0
89 85 0
98 107 0
87 87 0
91 86 0
83 77 0
94 99 0
86 83 0
88 86 0
97 100 0
88 80 0
90 90 0
101 105 0
88 92 0
95 101 0
95 97 0
97 106 0
89 93 0
90 85 0
91 89 0
87 88 0
95 90 0
102 114 0
91 84 0
96 96 0
95 94 0
94 103 0
95 90 0
92 92 0
109 117 0
87 90 0
83 81 0
100 106 0
100 107 0
99 101 0
96 96 0
97 101 0
96 105 0
97 97 0
95 101 0
96 100 0
104 107 0
104 119 0
95 93 0
97 101 0
97 99 0
98 105 0
109 130 0
102 114 0
98 105 0
98 106 0
104 113 0
100 108 0
97 101 0
102 109 0
102 109 0
103 114 0
104 119 0
101 111 0
98 104 0
98 104 0
103 118 0
102 108 0
100 109 0
107 119 0
102 114 0
107 128 0
97 107 0
102 117 0
105 115 0
110 125 0
107 125 0
107 124 0
109 122 0
104 116 0
110 132 0
109 128 0
109 132 0
108 128 0
107 125 0
103 117 0
116 129 0
101 111 0
104 115 0
110 132 0
104 116 0
107 126 0
104 120 0
103 119 0
109 128 0
115 138 0
104 122 0
109 129 0
106 124 0
105 122 0
109 122 0
113 138 0
105 118 0
114 137 0
109 133 0
110 132 0
102 114 0
112 129 0
117 148 0
103 115 0
107 125 0
117 143 0
113 135 0
109 134 0
115 144 0
107 127 0
111 134 0
117 147 0
117 135 0
115 142 0
114 138 0
115 138 0
118 144 0
115 142 0
108 128 0
112 126 0
114 135 0
112 142 0
115 135 0
113 136 0
114 141 0
112 133 0
109 134 0
110 121 0
113 135 0
115 145 0
115 139 0
116 143 0
109 134 0
118 149 0
115 143 0
113 139 0
116 144 0
113 139 0
117 148 0
114 139 0
114 138 0
112 140 0
114 142 0
114 138 0
115 142 0
117 147 0
112 142 0
111 138 0
115 142 0
116 142 0
111 140 0
112 142 0
114 140 0
115 147 0
112 142 0
118 149 0
115 147 0
115 141 0
116 148 0
115 140 0
115 142 0
119 153 0
117 145 0
119 152 0
116 146 0
118 149 0
118 145 0
120 145 0
118 151 0
118 146 0
118 149 0
114 138 0
114 145 0
115 145 0
115 142 0
121 149 0
114 146 0
116 146 0
119 150 0
114 145 0
114 143 0
117 150 0
115 147 0
115 147 0
115 147 0
119 147 0
116 146 0
115 145 0
115 145 0
114 143 0
119 149 0
115 140 0
119 148 0
122 152 0
119 146 0
114 139 0
117 147 0
116 146 0
117 146 0
120 152 0
113 140 0
115 149 0
112 142 0
112 144 0
115 144 0
120 150 0
119 151 0
115 145 0
114 141 0
116 149 0
116 148 0
114 145 0
114 141 0
116 146 0
118 149 0
113 144 0
115 138 0
113 140 0
114 138 0
112 144 0
115 149 0
113 141 0
116 146 0
115 144 0
115 145 0
111 140 0
117 148 0
112 135 0
118 149 0
117 143 0
114 138 0
119 150 0
114 143 0
114 137 0
113 139 0
113 144 0
114 141 0
112 140 0
116 143 0
118 145 0
117 148 0
113 143 0
114 143 0
116 141 0
114 143 0
112 136 0
101 120 0
110 133 0
115 142 0
116 144 0
113 141 0
113 134 0
116 142 0
110 132 0
114 147 0
113 141 0
113 144 0
114 141 0
112 136 0
112 139 0
111 134 0
115 144 0
103 121 0
112 135 0
111 133 0
114 136 0
115 140 0
112 133 0
113 139 0
109 129 0
107 119 0
104 120 0
111 129 0
109 131 0
110 130 0
108 129 0
116 140 0
106 130 0
111 125 0
110 131 0
109 134 0
111 126 0
113 139 0
109 128 0
111 136 0
116 139 0
112 130 0
108 126 0
109 130 0
113 135 0
110 128 0
101 115 0
112 134 0
110 126 0
104 123 0
111 125 0
110 134 0
115 138 0
106 124 0
109 129 0
107 121 0
105 125 0
105 114 0
109 125 0
107 126 0
104 120 0
108 125 0
112 129 0
102 118 0
100 111 0
106 122 0
103 123 0
109 129 0
110 130 0
108 125 0
111 131 0
102 111 0
102 111 0
107 123 0
98 109 0
98 104 0
102 114 0
103 114 0
103 111 0
109 120 0
106 120 0
94 97 0
106 126 0
100 109 0
109 122 0
101 107 0
100 113 0
100 106 0
95 97 0
107 119 0
100 114 0
102 107 0
99 104 0
106 122 0
96 99 0
103 111 0
101 107 0
90 94 0
96 101 0
104 109 0
100 108 0
96 100 0
98 103 0
104 111 0
95 99 0
104 109 0
90 88 0
107 114 0
98 100 0
96 104 0
95 95 0
100 112 0
98 112 0
96 97 0
94 95 0
89 83 0
92 98 0
99 101 0
101 103 0
94 91 0
96 102 0
93 89 0
86 82 0
94 100 0
103 111 0
103 111 0
89 85 0
97 101 0
93 95 0
90 86 0
89 87 0
94 87 0
90 94 0
92 96 0
90 87 0
94 95 0
85 77 0
92 89 0
96 89 0
94 98 0
94 97 0
93 95 0
86 81 0
86 82 0
78 70 0
83 73 0
86 84 0
91 90 0
83 78 0
83 86 0
91 100 0
93 96 0
92 91 0
77 71 0
87 91 0
80 72 0
99 102 0
87 82 0
92 95 0
95 101 0
89 89 0
82 78 0
85 75 0
88 91 0
90 93 0
96 103 0
97 101 0
86 88 0
90 93 0
88 81 0
97 104 0
84 82 0
90 86 0
86 88 0
98 103 0
97 99 0
98 101 0
96 96 0
82 71 0
94 96 0
95 96 0
93 93 0
86 87 0
103 112 0
90 90 0
102 113 0
103 103 0
101 108 0
102 112 0
92 89 0
91 90 0
96 102 0
98 101 0
98 103 0
99 109 0
101 110 0
102 107 0
100 108 0
92 93 0
101 106 0
105 122 0
101 110 0
101 107 0
97 105 0
101 113 0
94 100 0
96 104 0
102 110 0
104 112 0
98 97 0
102 111 0
101 110 0
101 114 0
106 123 0
106 118 0
95 104 0
108 122 0
100 112 0
106 122 0
104 118 0
101 114 0
110 123 0
104 118 0
101 118 0
109 128 0
104 118 0
112 131 0
99 107 0
102 117 0
104 117 0
102 117 0
104 115 0
109 128 0
106 122 0
116 142 0
107 124 0
109 134 0
112 136 0
106 122 0
111 134 0
111 129 0
106 126 0
115 138 0
106 120 0
104 117 0
111 131 0
108 132 0
107 122 0
106 123 0
115 131 0
106 124 0
110 126 0
114 136 0
114 141 0
113 137 0
112 133 0
106 121 0
108 131 0
109 127 0
104 125 0
118 143 0
110 131 0
109 131 0
114 143 0
108 125 0
116 144 0
108 131 0
103 122 0
123 152 0
108 131 0
113 139 0
114 138 0
113 139 0
108 131 0
107 129 0
108 129 0
111 134 0
106 127 0
112 138 0
112 142 0
114 141 0
115 141 0
114 143 0
118 147 0
116 144 0
112 137 0
116 148 0
110 135 0
113 139 0
115 138 0
115 142 0
114 141 0
109 127 0
109 129 0
111 139 0
111 128 0
116 146 0
117 145 0
116 148 0
115 144 0
112 136 0
111 134 0
110 132 0
114 139 0
114 143 0
119 144 0
116 146 0
116 148 0
113 143 0
107 130 0
109 131 0
116 144 0
114 147 0
112 138 0
109 135 0
113 143 0
114 136 0
118 147 0
110 134 0
114 138 0
114 140 0
109 136 0
118 149 0
119 148 0
114 140 0
115 144 0
111 136 0
113 139 0
115 144 0
115 147 0
120 150 0
116 146 0
117 148 0
113 143 0
117 145 0
117 148 0
117 147 0
116 147 0
116 150 0
115 145 0
115 144 0
120 154 0
116 148 0
113 139 0
117 150 0
118 145 0
116 148 0
117 148 0
116 148 0
117 141 0
112 140 0
116 150 0
118 147 0
116 146 0
117 143 0
116 143 0
117 148 0
118 147 0
114 145 0
119 150 0
115 147 0
114 146 0
116 143 0
116 146 0
118 152 0
110 134 0
117 148 0
112 140 0
114 143 0
110 138 0
114 143 0
116 142 0
119 151 0
115 145 0
115 145 0
117 149 0
114 141 0
113 145 0
117 146 0
117 150 0
114 140 0
119 153 0
117 147 0
117 150 0
115 148 0
112 138 0
116 139 0
112 139 0
114 143 0
116 144 0
111 143 0
119 148 0
117 147 0
113 141 0
114 140 0
114 136 0
114 141 0
115 140 0
121 149 0
115 142 0
114 141 0
114 149 0
112 135 0
111 132 0
118 146 0
114 141 0
112 136 0
115 142 0
115 148 0
117 147 0
110 141 0
119 149 0
116 139 0
114 145 0
113 140 0
113 140 0
114 142 0
113 136 0
112 136 0
108 131 0
111 135 0
113 139 0
117 145 0
108 129 0
114 131 0
114 143 0
105 131 0
108 132 0
107 129 0
112 135 0
114 137 0
110 133 0
108 125 0
110 128 0
113 139 0
117 143 0
102 113 0
114 139 0
111 133 0
107 127 0
113 135 0
113 133 0
109 129 0
112 133 0
108 123 0
111 139 0
109 127 0
109 129 0
106 119 0
114 136 0
114 136 0
113 139 0
106 128 0
105 125 0
105 127 0
109 129 0
113 128 0
109 128 0
106 119 0
112 137 0
111 127 0
109 128 0
111 132 0
103 115 0
108 127 0
108 125 0
109 123 0
104 118 0
102 116 0
105 119 0
107 127 0
107 120 0
106 121 0
105 120 0
104 121 0
101 114 0
109 120 0
100 108 0
101 111 0
93 97 0
102 113 0
110 127 0
98 104 0
103 115 0
102 113 0
102 118 0
95 97 0
102 111 0
95 101 0
102 111 0
103 115 0
106 120 0
102 111 0
103 111 0
105 114 0
100 104 0
99 105 0
104 119 0
87 90 0
95 94 0
97 102 0
99 105 0
103 117 0
101 112 0
93 97 0
93 97 0
100 104 0
99 99 0
99 106 0
102 109 0
101 110 0
107 123 0
96 101 0
88 86 0
99 108 0
98 107 0
77 69 0
90 89 0
87 87 0
92 91 0
101 111 0
90 84 0
95 91 0
98 96 0
97 106 0
88 76 0
95 95 0
91 92 0
89 93 0
99 109 0
90 93 0
94 96 0
87 81 0
91 87 0
86 84 0
74 62 0
98 97 0
96 100 0
95 94 0
98 101 0
91 90 0
81 74 0
91 85 0
98 101 0
99 97 0
94 91 0
89 87 0
94 100 0
83 82 0
95 101 0
96 89 0
95 93 0
89 89 0
92 97 0
93 96 0
90 88 0
99 108 0
93 97 0
87 85 0
92 93 0
81 75 0
86 85 0
90 81 0
88 87 0
78 68 0
88 84 0
97 98 0
84 79 0
81 67 0
99 105 0
96 100 0
89 87 0
93 101 0
97 97 0
94 98 0
102 102 0
93 96 0
89 94 0
89 86 0
93 96 0
94 90 0
93 96 0
101 110 0
94 99 0
98 99 0
95 100 0
93 88 0
94 93 0
94 95 0
94 100 0
87 82 0
93 94 0
98 105 0
103 107 0
92 87 0
100 102 0
104 115 0
99 110 0
103 112 0
103 111 0
104 114 0
103 113 0
102 117 0
100 110 0
97 102 0
99 107 0
91 89 0
100 105 0
103 123 0
103 112 0
101 108 0
102 109 0
101 114 0
94 93 0
104 115 0
106 123 0
101 109 0
101 112 0
106 126 0
102 112 0
97 97 0
110 127 0
104 115 0
103 117 0
102 115 0
107 124 0
107 129 0
101 108 0
107 123 0
102 112 0
106 118 0
109 128 0
108 125 0
108 125 0
111 129 0
100 117 0
103 119 0
107 121 0
106 119 0
112 135 0
107 127 0
107 124 0
109 126 0
110 135 0
105 118 0
111 136 0
108 131 0
106 124 0
106 120 0
108 124 0
110 128 0
106 126 0
112 131 0
111 135 0
111 129 0
112 130 0
107 134 0
111 134 0
108 126 0
109 135 0
107 128 0
108 125 0
110 133 0
117 141 0
107 128 0
108 130 0
108 123 0
105 118 0
113 137 0
103 119 0
110 132 0
108 128 0
113 133 0
112 140 0
109 124 0
104 123 0
115 142 0
113 144 0
111 135 0
108 131 0
110 129 0
114 141 0
116 143 0
112 134 0
108 133 0
113 139 0
112 138 0
114 136 0
113 139 0
117 147 0
117 145 0
111 138 0
116 144 0
111 134 0
116 146 0
117 143 0
110 134 0
111 130 0
112 140 0
116 144 0
109 133 0
113 137 0
112 133 0
120 146 0
114 143 0
115 137 0
115 140 0
113 141 0
116 146 0
113 141 0
115 140 0
117 141 0
119 146 0
115 146 0
116 142 0
118 151 0
113 145 0
117 146 0
109 138 0
120 152 0
116 146 0
116 146 0
115 144 0
118 149 0
116 146 0
111 137 0
117 140 0
119 149 0
112 140 0
117 150 0
115 145 0
114 145 0
114 140 0
116 148 0
112 140 0
116 143 0
117 150 0
121 150 0
117 150 0
114 143 0
116 144 0
113 143 0
115 147 0
119 152 0
117 152 0
115 151 0
118 149 0
118 147 0
115 151 0
119 153 0
113 142 0
115 143 0
115 147 0
117 146 0
114 145 0
116 144 0
115 149 0
117 145 0
117 143 0
119 148 0
115 149 0
119 148 0
109 138 0
118 147 0
115 144 0
119 152 0
115 144 0
116 144 0
117 147 0
115 147 0
113 144 0
114 143 0
116 144 0
115 142 0
117 148 0
110 134 0
116 148 0
113 139 0
116 148 0
116 148 0
119 146 0
115 145 0
111 139 0
106 124 0
114 145 0
117 147 0
117 141 0
110 135 0
117 147 0
119 151 0
112 139 0
114 141 0
117 150 0
109 133 0
118 147 0
115 149 0
111 132 0
111 139 0
113 141 0
111 142 0
114 143 0
115 142 0
111 140 0
115 142 0
116 148 0
113 137 0
115 140 0
113 137 0
108 127 0
118 148 0
116 145 0
105 124 0
115 142 0
115 138 0
113 140 0
114 139 0
114 140 0
117 142 0
110 132 0
115 140 0
108 130 0
115 142 0
112 138 0
113 135 0
113 136 0
112 139 0
108 128 0
106 123 0
115 142 0
108 132 0
110 126 0
111 132 0
112 135 0
113 136 0
115 138 0
114 142 0
115 140 0
104 123 0
111 134 0
113 137 0
110 135 0
105 123 0
109 129 0
115 142 0
107 128 0
113 135 0
106 120 0
105 121 0
98 109 0
108 127 0
110 124 0
114 136 0
101 114 0
113 137 0
114 141 0
102 116 0
106 124 0
106 121 0
110 126 0
109 135 0
103 114 0
108 131 0
111 126 0
103 117 0
98 110 0
106 119 0
102 111 0
107 122 0
109 124 0
101 115 0
106 118 0
108 127 0
109 127 0
99 113 0
104 123 0
97 97 0
102 117 0
108 129 0
111 131 0
103 111 0
105 118 0
100 111 0
107 124 0
101 108 0
102 120 0
99 112 0
101 113 0
102 111 0
104 112 0
110 125 0
105 116 0
103 111 0
111 131 0
104 120 0
100 110 0
103 117 0
97 107 0
98 94 0
104 116 0
93 97 0
96 101 0
95 99 0
94 98 0
101 109 0
98 108 0
91 90 0
99 101 0
99 100 0
99 102 0
93 91 0
97 100 0
92 91 0
99 107 0
96 100 0
91 92 0
93 95 0
89 84 0
95 96 0
91 92 0
100 105 0
102 106 0
96 94 0
98 101 0
89 94 0
93 96 0
97 98 0
93 87 0
98 98 0
102 111 0
88 85 0
99 106 0
88 86 0
99 101 0
85 88 0
99 98 0
98 100 0
84 77 0
86 81 0
88 79 0
98 107 0
87 87 0
96 101 0
92 95 0
88 83 0
89 81 0
93 96 0
84 82 0
90 85 0
91 93 0
94 93 0
92 90 0
86 77 0
90 90 0
100 102 0
98 102 0
91 91 0
95 99 0
92 95 0
84 83 0
93 94 0
92 90 0
86 86 0
95 95 0
96 97 0
86 82 0
102 109 0
90 89 0
97 101 0
93 93 0
92 91 0
90 89 0
93 92 0
91 88 0
95 97 0
93 92 0
89 90 0
94 96 0
101 112 0
93 94 0
89 89 0
96 98 0
95 91 0
107 115 0
104 111 0
97 106 0
95 105 0
95 103 0
99 102 0
104 117 0
95 91 0
100 104 0
102 106 0
97 105 0
101 108 0
93 97 0
102 108 0
96 102 0
97 101 0
103 116 0
107 121 0
98 107 0
104 120 0
98 110 0
102 105 0
101 107 0
103 115 0
102 113 0
98 106 0
107 123 0
95 95 0
101 114 0
104 117 0
100 113 0
105 118 0
103 113 0
104 116 0
93 97 0
104 116 0
109 131 0
98 103 0
102 110 0
103 117 0
102 114 0
116 139 0
108 128 0
102 111 0
103 110 0
105 117 0
108 129 0
105 122 0
104 115 0
105 126 0
110 124 0
107 123 0
106 119 0
110 134 0
102 116 0
106 123 0
107 125 0
110 127 0
113 137 0
109 126 0
108 121 0
108 120 0
107 125 0
104 123 0
111 136 0
105 123 0
109 128 0
111 135 0
113 135 0
109 129 0
110 134 0
107 125 0
105 119 0
110 132 0
109 132 0
107 129 0
111 138 0
117 147 0
113 132 0
113 141 0
107 128 0
108 129 0
112 135 0
116 142 0
114 140 0
113 134 0
105 120 0
114 136 0
110 135 0
109 127 0
105 116 0
114 136 0
112 133 0
114 134 0
115 135 0
112 132 0
105 122 0
112 135 0
112 135 0
112 131 0
110 137 0
108 136 0
111 132 0
113 137 0
113 141 0
114 143 0
109 130 0
112 137 0
110 134 0
115 144 0
115 144 0
114 136 0
112 137 0
114 143 0
113 140 0
112 134 0
113 139 0
115 145 0
114 138 0
117 146 0
118 151 0
111 136 0
115 140 0
116 146 0
113 137 0
114 138 0
113 135 0
107 123 0
114 145 0
113 141 0
116 141 0
112 136 0
115 142 0
118 147 0
113 141 0
117 147 0
114 145 0
117 147 0
116 146 0
116 143 0
114 140 0
115 140 0
116 145 0
115 141 0
116 142 0
114 142 0
115 147 0
115 142 0
113 139 0
115 142 0
111 142 0
117 150 0
116 146 0
112 140 0
119 148 0
116 148 0
116 148 0
115 140 0
114 147 0
115 142 0
118 147 0
115 140 0
116 150 0
118 151 0
115 146 0
119 144 0
116 143 0
117 152 0
116 142 0
117 147 0
115 147 0
118 147 0
115 147 0
119 149 0
117 150 0
115 147 0
115 149 0
115 143 0
116 149 0
115 144 0
113 141 0
118 149 0
112 144 0
115 145 0
116 148 0
109 131 0
112 142 0
114 143 0
117 147 0
116 148 0
115 143 0
115 146 0
117 147 0
111 138 0
114 140 0
115 140 0
113 139 0
114 147 0
114 143 0
112 138 0
116 145 0
119 150 0
120 150 0
113 141 0
119 150 0
112 135 0
115 142 0
115 144 0
113 141 0
115 138 0
117 143 0
113 137 0
114 141 0
116 137 0
109 133 0
112 138 0
115 140 0
112 138 0
116 150 0
115 137 0
117 147 0
114 145 0
112 135 0
108 129 0
116 148 0
115 144 0
113 141 0
109 131 0
115 145 0
108 133 0
117 145 0
110 133 0
108 127 0
114 139 0
113 143 0
113 139 0
112 135 0
115 140 0
111 136 0
111 130 0
108 128 0
114 143 0
114 138 0
110 135 0
111 131 0
111 135 0
110 131 0
113 137 0
109 123 0
114 141 0
107 122 0
109 133 0
112 133 0
110 126 0
111 132 0
106 123 0
111 136 0
115 138 0
116 144 0
109 133 0
111 130 0
111 135 0
106 130 0
112 134 0
100 119 0
111 132 0
110 130 0
107 119 0
104 121 0
111 129 0
110 128 0
111 131 0
106 124 0
109 130 0
105 119 0
102 116 0
102 111 0
99 111 0
109 125 0
109 122 0
104 118 0
107 119 0
103 126 0
114 134 0
108 125 0
113 134 0
100 112 0
101 112 0
103 116 0
107 121 0
104 119 0
105 118 0
102 112 0
107 123 0
106 122 0
103 110 0
111 129 0
101 116 0
107 125 0
98 111 0
98 110 0
101 116 0
99 112 0
95 103 0
102 120 0
92 100 0
104 112 0
101 107 0
97 104 0
108 125 0
100 109 0
98 106 0
103 115 0
108 117 0
109 120 0
105 114 0
93 97 0
107 122 0
98 106 0
101 104 0
100 102 0
91 87 0
99 105 0
96 98 0
98 108 0
94 97 0
105 120 0
100 110 0
86 86 0
99 109 0
89 90 0
98 107 0
100 107 0
98 107 0
96 101 0
95 100 0
101 107 0
104 115 0
94 92 0
92 96 0
92 94 0
102 107 0
98 103 0
95 96 0
92 90 0
85 74 0
100 113 0
103 110 0
90 85 0
99 102 0
93 94 0
95 95 0
92 96 0
92 92 0
98 103 0
87 83 0
98 101 0
91 87 0
102 105 0
95 99 0
99 107 0
98 104 0
94 93 0
82 76 0
93 88 0
93 90 0
93 89 0
91 92 0
94 95 0
92 91 0
88 88 0
89 91 0
92 83 0
96 92 0
99 99 0
87 82 0
85 76 0
87 76 0
90 89 0
93 89 0
103 106 0
88 85 0
95 99 0
102 112 0
93 94 0
89 94 0
97 107 0
96 97 0
89 89 0
96 96 0
96 99 0
92 98 0
103 113 0
96 96 0
94 97 0
98 101 0
103 113 0
94 98 0
91 100 0
99 109 0
97 98 0
97 108 0
94 98 0
94 100 0
87 77 0
104 120 0
102 113 0
108 126 0
93 94 0
104 114 0
101 112 0
100 109 0
89 89 0
106 120 0
99 107 0
98 102 0
102 109 0
94 94 0
93 102 0
97 106 0
95 102 0
104 110 0
104 112 0
93 89 0
103 111 0
91 100 0
101 112 0
104 117 0
107 123 0
103 117 0
101 113 0
105 117 0
98 103 0
98 107 0
104 123 0
109 129 0
109 130 0
99 104 0
99 108 0
102 116 0
102 119 0
107 123 0
110 130 0
106 119 0
104 123 0
107 121 0
107 121 0
111 125 0
104 113 0
106 122 0
108 123 0
103 113 0
111 128 0
104 120 0
107 123 0
103 115 0
104 122 0
111 134 0
108 125 0
105 123 0
108 119 0
107 123 0
111 130 0
113 133 0
119 141 0
105 124 0
108 133 0
114 134 0
100 110 0
116 139 0
105 124 0
109 131 0
110 134 0
110 132 0
112 135 0
108 129 0
107 126 0
113 139 0
111 133 0
115 142 0
111 133 0
115 142 0
109 129 0
109 126 0
110 132 0
116 137 0
113 134 0
112 134 0
110 133 0
111 133 0
110 135 0
111 136 0
115 140 0
112 136 0
111 134 0
112 140 0
114 137 0
107 124 0
110 133 0
111 141 0
114 138 0
114 147 0
113 139 0
111 134 0
110 136 0
115 144 0
112 131 0
110 132 0
116 138 0
118 149 0
108 133 0
117 141 0
114 140 0
110 134 0
114 139 0
113 135 0
107 126 0
113 141 0
114 145 0
114 147 0
113 138 0
110 136 0
114 143 0
116 145 0
115 147 0
112 140 0
115 146 0
115 142 0
113 139 0
111 137 0
110 139 0
112 138 0
115 145 0
113 143 0
111 136 0
114 145 0
118 149 0
118 149 0
113 141 0
119 148 0
112 142 0
113 141 0
116 146 0
108 133 0
113 139 0
115 144 0
116 146 0
111 136 0
117 147 0
120 150 0
113 144 0
115 144 0
117 147 0
116 148 0
120 152 0
115 142 0
116 146 0
117 147 0
116 148 0
119 153 0
116 146 0
116 150 0
114 143 0
115 147 0
115 147 0
116 151 0
116 148 0
116 148 0
116 148 0
117 143 0
114 145 0
115 149 0
115 142 0
117 145 0
111 136 0
114 145 0
114 141 0
115 145 0
111 144 0
113 141 0
119 148 0
114 139 0
114 141 0
116 146 0
117 148 0
118 148 0
113 141 0
118 149 0
113 141 0
115 149 0
117 149 0
116 146 0
114 138 0
116 146 0
117 144 0
113 143 0
115 142 0
111 134 0
115 144 0
115 145 0
112 133 0
115 141 0
115 140 0
112 138 0
112 138 0
119 148 0
109 125 0
110 135 0
111 138 0
119 148 0
112 137 0
118 147 0
114 143 0
114 142 0
116 150 0
115 143 0
113 139 0
118 147 0
116 143 0
110 135 0
114 139 0
114 147 0
106 127 0
114 140 0
108 128 0
108 131 0
115 144 0
113 143 0
113 136 0
112 141 0
111 139 0
115 142 0
110 132 0
115 144 0
107 130 0
119 148 0
107 131 0
112 136 0
112 136 0
118 142 0
110 134 0
113 138 0
110 133 0
113 135 0
114 139 0
111 132 0
110 126 0
110 136 0
114 143 0
111 132 0
106 124 0
113 134 0
112 137 0
106 123 0
113 139 0
110 128 0
111 130 0
112 133 0
109 129 0
110 122 0
109 131 0
111 134 0
108 129 0
109 131 0
105 119 0
107 124 0
107 124 0
108 129 0
106 124 0
105 119 0
103 121 0
112 127 0
106 124 0
109 133 0
112 135 0
110 132 0
106 126 0
105 126 0
110 127 0
103 110 0
104 121 0
107 128 0
98 107 0
104 117 0
109 122 0
108 127 0
107 119 0
103 117 0
106 128 0
105 121 0
100 108 0
101 109 0
107 119 0
108 126 0
108 120 0
106 118 0
102 114 0
102 115 0
106 126 0
104 120 0
102 116 0
97 104 0
101 109 0
103 114 0
108 124 0
106 116 0
105 124 0
104 115 0
108 125 0
107 123 0
101 102 0
102 110 0
101 108 0
93 102 0
105 115 0
104 115 0
100 104 0
102 109 0
107 123 0
92 93 0
96 100 0
104 111 0
101 112 0
101 111 0
90 93 0
107 116 0
102 117 0
89 84 0
100 102 0
105 110 0
97 105 0
99 102 0
99 101 0
95 101 0
99 102 0
92 99 0
100 103 0
94 95 0
100 107 0
96 100 0
105 118 0
83 78 0
98 104 0
99 104 0
87 92 0
94 102 0
96 93 0
87 83 0
93 96 0
92 93 0
86 85 0
91 95 0
89 83 0
92 89 0
94 98 0
89 86 0
89 83 0
90 91 0
100 103 0
90 91 0
90 88 0
96 99 0
104 114 0
98 99 0
89 87 0
103 112 0
98 103 0
95 93 0
96 94 0
93 95 0
96 93 0
98 100 0
99 103 0
93 95 0
96 101 0
92 97 0
97 101 0
93 95 0
90 86 0
89 87 0
98 99 0
95 86 0
96 95 0
91 88 0
100 107 0
93 94 0
87 86 0
95 89 0
96 96 0
96 102 0
96 102 0
90 86 0
96 101 0
95 90 0
106 120 0
89 85 0
99 105 0
104 117 0
100 103 0
96 100 0
89 88 0
105 115 0
99 103 0
99 111 0
99 107 0
104 108 0
103 108 0
91 94 0
95 96 0
93 94 0
100 110 0
99 109 0
105 116 0
105 124 0
98 109 0
90 89 0
95 97 0
108 121 0
101 103 0
99 108 0
96 100 0
103 119 0
107 121 0
98 101 0
95 105 0
98 103 0
102 108 0
102 113 0
102 115 0
108 119 0
103 115 0
103 112 0
104 110 0
94 97 0
108 123 0
100 103 0
108 124 0
95 102 0
105 112 0
103 112 0
109 120 0
103 116 0
102 114 0
99 107 0
105 120 0
110 127 0
114 132 0
115 142 0
110 127 0
107 121 0
106 119 0
105 120 0
111 132 0
103 120 0
106 124 0
110 126 0
98 107 0
109 128 0
108 123 0
106 126 0
108 124 0
110 127 0
105 121 0
105 119 0
109 131 0
101 120 0
106 122 0
113 136 0
108 132 0
110 130 0
98 109 0
115 142 0
113 140 0
107 123 0
111 131 0
112 135 0
104 123 0
107 127 0
114 137 0
110 132 0
105 116 0
112 127 0
108 129 0
116 141 0
108 129 0
114 139 0
109 131 0
111 136 0
113 141 0
111 138 0
106 128 0
114 143 0
113 135 0
112 131 0
118 146 0
109 131 0
112 135 0
117 147 0
112 138 0
116 146 0
113 141 0
114 140 0
109 132 0
119 151 0
110 124 0
114 142 0
116 147 0
113 139 0
114 142 0
114 136 0
111 134 0
117 147 0
110 134 0
114 145 0
113 143 0
115 146 0
112 138 0
117 143 0
112 139 0
115 142 0
108 131 0
116 146 0
112 140 0
113 137 0
113 143 0
109 128 0
114 141 0
112 137 0
115 138 0
113 135 0
113 137 0
116 145 0
117 147 0
115 146 0
114 136 0
116 142 0
112 138 0
115 142 0
115 146 0
117 144 0
115 144 0
113 140 0
120 148 0
116 146 0
117 141 0
120 150 0
114 142 0
117 148 0
111 140 0
108 138 0
113 141 0
116 150 0
116 145 0
111 142 0
120 150 0
117 149 0
118 149 0
117 150 0
118 151 0
109 129 0
113 137 0
118 151 0
118 146 0
116 148 0
117 150 0
112 136 0
114 142 0
118 151 0
115 147 0
113 139 0
118 147 0
116 148 0
113 139 0
119 153 0
115 138 0
117 148 0
113 143 0
119 151 0
120 154 0
115 144 0
116 144 0
116 148 0
118 147 0
113 139 0
113 139 0
115 144 0
112 144 0
116 142 0
116 146 0
115 147 0
118 147 0
114 142 0
113 141 0
112 135 0
110 139 0
117 146 0
113 142 0
108 131 0
116 143 0
118 147 0
114 143 0
118 147 0
118 147 0
110 134 0
116 144 0
110 130 0
117 150 0
111 140 0
114 140 0
116 148 0
111 136 0
110 132 0
108 132 0
116 144 0
114 141 0
119 146 0
113 141 0
112 137 0
105 128 0
114 141 0
115 147 0
112 135 0
114 137 0
112 138 0
114 141 0
116 139 0
118 149 0
114 134 0
115 142 0
112 131 0
111 134 0
113 134 0
111 130 0
110 141 0
110 130 0
114 136 0
114 139 0
109 128 0
110 135 0
121 147 0
112 134 0
109 132 0
112 133 0
109 133 0
116 144 0
113 143 0
112 137 0
111 136 0
116 137 0
114 137 0
113 133 0
112 136 0
112 137 0
108 130 0
112 131 0
113 131 0
111 135 0
102 122 0
105 122 0
119 148 0
114 135 0
103 119 0
112 134 0
109 131 0
111 132 0
108 124 0
105 120 0
113 128 0
110 131 0
107 119 0
106 124 0
105 122 0
104 118 0
110 130 0
100 117 0
115 133 0
114 138 0
107 123 0
108 124 0
104 121 0
105 123 0
113 139 0
102 117 0
103 126 0
108 129 0
108 127 0
102 118 0
103 109 0
104 108 0
101 118 0
106 116 0
98 111 0
101 112 0
107 121 0
100 106 0
105 115 0
107 130 0
108 124 0
103 119 0
99 108 0
106 120 0
104 121 0
102 111 0
100 112 0
99 107 0
101 106 0
99 109 0
100 105 0
106 110 0
100 112 0
107 120 0
102 113 0
101 111 0
104 117 0
98 107 0
95 101 0
101 106 0
97 103 0
98 105 0
105 117 0
108 120 0
98 105 0
97 106 0
93 97 0
99 107 0
92 99 0
94 93 0
107 121 0
93 96 0
103 117 0
100 103 0
104 113 0
92 91 0
100 106 0
102 113 0
97 97 0
86 83 0
82 76 0
100 108 0
100 107 0
100 102 0
101 110 0
90 91 0
96 103 0
99 102 0
90 91 0
92 97 0
105 112 0
87 88 0
98 101 0
98 99 0
89 84 0
102 109 0
97 104 0
96 102 0
92 97 0
95 97 0
97 100 0
100 112 0
87 85 0
94 95 0
91 93 0
97 103 0
82 72 0
97 103 0
97 103 0
87 81 0
97 100 0
105 112 0
89 92 0
96 90 0
96 103 0
84 79 0
91 94 0
92 86 0
85 80 0
99 101 0
97 99 0
97 99 0
96 99 0
92 93 0
87 86 0
91 93 0
96 101 0
99 111 0
90 97 0
88 94 0
94 93 0
95 97 0
99 105 0
101 105 0
100 104 0
93 97 0
95 105 0
103 112 0
100 104 0
106 121 0
96 98 0
102 111 0
100 106 0
105 117 0
101 111 0
96 102 0
99 105 0
92 94 0
99 105 0
94 98 0
99 98 0
102 108 0
107 115 0
107 124 0
99 107 0
94 105 0
107 121 0
96 105 0
98 102 0
108 128 0
102 111 0
99 110 0
100 114 0
98 106 0
98 109 0
99 102 0
104 114 0
95 102 0
104 121 0
88 90 0
106 117 0
104 114 0
98 110 0
101 104 0
104 117 0
96 98 0
103 117 0
110 128 0
98 108 0
104 123 0
103 117 0
106 124 0
107 123 0
108 125 0
105 114 0
101 112 0
109 127 0
99 110 0
107 119 0
108 127 0
107 127 0
104 118 0
105 123 0
97 102 0
109 123 0
103 115 0
104 123 0
107 126 0
101 115 0
101 111 0
110 128 0
108 125 0
107 123 0
106 122 0
116 139 0
109 130 0
112 133 0
108 130 0
101 115 0
115 142 0
110 136 0
108 127 0
106 126 0
113 138 0
109 128 0
117 145 0
113 136 0
107 124 0
109 125 0
111 138 0
114 138 0
111 135 0
105 121 0
108 131 0
112 140 0
108 127 0
108 125 0
111 134 0
112 142 0
109 130 0
111 138 0
113 137 0
109 135 0
111 132 0
110 133 0
111 133 0
116 144 0
111 129 0
111 133 0
112 137 0
114 134 0
116 141 0
113 139 0
107 126 0
108 132 0
113 141 0
112 137 0
110 135 0
115 144 0
108 124 0
107 133 0
108 131 0
114 143 0
112 137 0
114 142 0
114 139 0
114 139 0
113 137 0
110 130 0
111 137 0
113 142 0
118 145 0
114 140 0
115 141 0
114 141 0
117 147 0
116 142 0
115 145 0
112 140 0
118 149 0
120 150 0
120 152 0
114 141 0
114 141 0
117 143 0
116 148 0
115 147 0
115 145 0
116 144 0
116 144 0
112 140 0
116 146 0
112 139 0
109 134 0
116 148 0
115 142 0
111 136 0
116 144 0
119 146 0
118 149 0
113 141 0
117 146 0
117 145 0
116 150 0
113 141 0
110 134 0
117 145 0
116 146 0
115 145 0
118 142 0
118 147 0
113 141 0
111 142 0
112 137 0
114 143 0
117 150 0
115 143 0
114 143 0
116 144 0
114 141 0
116 142 0
116 148 0
117 148 0
114 147 0
119 148 0
118 144 0
112 140 0
116 148 0
118 152 0
120 147 0
115 146 0
110 141 0
115 145 0
111 133 0
117 142 0
113 143 0
116 146 0
120 150 0
116 148 0
111 138 0
116 142 0
113 138 0
116 141 0
112 136 0
117 147 0
115 146 0
114 141 0
116 146 0
116 148 0
115 141 0
109 133 0
107 132 0
116 141 0
114 145 0
115 138 0
119 150 0
115 146 0
121 151 0
113 143 0
115 142 0
116 146 0
111 136 0
115 144 0
116 144 0
114 143 0
114 136 0
111 130 0
104 128 0
114 140 0
112 128 0
111 132 0
113 139 0
110 139 0
113 137 0
114 141 0
114 143 0
113 139 0
114 140 0
109 134 0
112 138 0
116 144 0
112 133 0
109 133 0
115 145 0
112 142 0
111 138 0
113 141 0
114 141 0
113 137 0
113 141 0
116 145 0
114 145 0
118 147 0
113 133 0
104 123 0
114 136 0
120 143 0
112 135 0
118 142 0
111 137 0
116 142 0
117 141 0
116 142 0
114 136 0
111 136 0
110 131 0
111 134 0
112 131 0
104 123 0
105 121 0
107 123 0
114 136 0
107 121 0
106 124 0
115 138 0
108 122 0
109 124 0
108 114 0
113 135 0
111 132 0
106 119 0
112 138 0
108 127 0
112 139 0
109 128 0
110 127 0
105 124 0
109 125 0
113 136 0
104 119 0
106 122 0
109 128 0
107 126 0
111 134 0
102 117 0
107 123 0
112 129 0
100 113 0
108 126 0
105 119 0
107 124 0
100 107 0
103 117 0
102 111 0
102 114 0
99 108 0
111 129 0
101 120 0
105 114 0
101 107 0
107 118 0
105 117 0
105 114 0
107 124 0
105 118 0
103 111 0
104 115 0
102 112 0
96 109 0
100 108 0
106 118 0
101 116 0
106 111 0
98 107 0
97 105 0
95 101 0
99 108 0
97 108 0
102 112 0
87 88 0
87 87 0
95 92 0
101 112 0
100 106 0
99 109 0
100 100 0
105 117 0
98 103 0
103 115 0
94 101 0
105 111 0
99 102 0
94 101 0
104 111 0
100 105 0
101 110 0
102 114 0
99 101 0
89 94 0
94 101 0
94 102 0
97 103 0
94 97 0
93 99 0
101 106 0
93 91 0
98 101 0
100 99 0
96 97 0
95 103 0
94 97 0
96 100 0
92 95 0
87 82 0
94 91 0
100 102 0
97 105 0
92 88 0
97 103 0
108 120 0
100 104 0
91 96 0
94 95 0
93 94 0
100 101 0
92 96 0
86 86 0
92 93 0
102 111 0
97 102 0
93 100 0
104 112 0
88 89 0
92 89 0
92 94 0
101 106 0
89 89 0
97 100 0
93 90 0
97 100 0
91 93 0
95 99 0
89 86 0
87 83 0
93 99 0
96 97 0
97 101 0
103 113 0
105 112 0
98 98 0
104 113 0
89 89 0
84 84 0
99 105 0
99 109 0
102 105 0
96 103 0
95 100 0
107 122 0
95 96 0
95 94 0
92 97 0
95 99 0
101 113 0
93 97 0
96 102 0
97 100 0
94 100 0
101 107 0
90 91 0
89 90 0
102 111 0
95 97 0
101 109 0
95 95 0
106 123 0
90 84 0
104 115 0
100 113 0
103 115 0
101 110 0
103 117 0
96 100 0
99 113 0
111 127 0
101 108 0
103 114 0
101 103 0
110 128 0
99 110 0
102 109 0
111 127 0
109 126 0
104 113 0
103 117 0
105 117 0
113 130 0
103 117 0
103 111 0
106 125 0
99 108 0
100 109 0
104 116 0
103 119 0
109 126 0
106 114 0
105 116 0
112 127 0
111 124 0
113 129 0
110 128 0
107 121 0
106 115 0
108 127 0
105 119 0
104 118 0
106 126 0
110 128 0
106 120 0
110 128 0
107 124 0
105 127 0
106 115 0
118 143 0
109 131 0
115 140 0
107 126 0
105 123 0
111 127 0
102 121 0
113 132 0
103 121 0
110 134 0
112 132 0
111 127 0
105 119 0
104 123 0
109 128 0
111 130 0
113 141 0
110 134 0
106 124 0
108 124 0
110 131 0
114 141 0
109 126 0
109 132 0
113 137 0
108 131 0
110 134 0
113 145 0
118 149 0
108 128 0
111 132 0
113 135 0
114 138 0
115 140 0
106 126 0
108 131 0
114 145 0
115 142 0
117 147 0
115 140 0
115 140 0
106 128 0
112 135 0
112 140 0
116 146 0
112 138 0
112 140 0
105 122 0
113 135 0
117 145 0
115 146 0
112 139 0
117 148 0
111 137 0
113 137 0
112 133 0
116 147 0
113 141 0
115 145 0
111 137 0
112 141 0
116 144 0
108 130 0
113 137 0
116 140 0
117 142 0
114 141 0
112 141 0
118 147 0
111 142 0
114 141 0
117 148 0
117 150 0
113 143 0
116 146 0
119 150 0
114 143 0
111 132 0
114 141 0
113 141 0
112 138 0
113 137 0
113 139 0
116 144 0
113 144 0
111 137 0
118 153 0
115 140 0
116 144 0
116 146 0
121 154 0
114 143 0
116 146 0
115 144 0
117 148 0
114 141 0
113 141 0
113 141 0
112 133 0
110 138 0
113 141 0
115 146 0
114 143 0
112 142 0
111 142 0
115 147 0
116 146 0
120 148 0
117 145 0
117 148 0
116 150 0
113 141 0
111 140 0
118 149 0
116 144 0
119 149 0
114 143 0
113 140 0
114 141 0
113 144 0
117 150 0
110 129 0
111 140 0
117 147 0
116 144 0
111 138 0
118 147 0
115 145 0
114 139 0
115 145 0
113 141 0
113 139 0
111 134 0
112 138 0
116 144 0
114 143 0
115 145 0
114 145 0
117 146 0
112 136 0
116 141 0
116 144 0
114 141 0
117 145 0
115 142 0
115 138 0
119 151 0
103 125 0
110 134 0
112 138 0
113 134 0
111 137 0
110 135 0
115 142 0
113 138 0
117 150 0
115 144 0
108 128 0
112 136 0
113 141 0
115 141 0
116 142 0
117 140 0
111 138 0
117 143 0
117 147 0
115 142 0
110 137 0
110 134 0
115 138 0
115 143 0
117 145 0
112 137 0
111 136 0
113 137 0
110 134 0
113 144 0
114 139 0
113 133 0
106 125 0
114 140 0
107 125 0
113 131 0
114 138 0
109 133 0
106 125 0
113 142 0
114 139 0
107 121 0
117 145 0
112 138 0
110 133 0
109 132 0
110 128 0
112 136 0
110 132 0
107 125 0
107 124 0
108 123 0
113 137 0
103 113 0
113 135 0
107 122 0
107 118 0
109 121 0
108 127 0
110 133 0
111 127 0
104 121 0
106 124 0
107 126 0
106 115 0
109 123 0
108 124 0
107 125 0
110 128 0
107 127 0
103 116 0
109 130 0
110 126 0
105 113 0
106 120 0
106 120 0
101 112 0
106 121 0
101 111 0
105 116 0
109 131 0
104 115 0
109 126 0
104 119 0
98 99 0
103 111 0
105 115 0
103 111 0
109 122 0
108 127 0
104 123 0
104 122 0
99 107 0
104 118 0
99 111 0
103 117 0
107 121 0
110 133 0
108 123 0
108 132 0
98 103 0
106 121 0
103 108 0
94 104 0
101 110 0
101 112 0
101 116 0
103 111 0
101 112 0
103 113 0
97 100 0
101 111 0
98 105 0
95 92 0
99 105 0
101 111 0
93 97 0
91 93 0
96 96 0
90 95 0
100 111 0
97 102 0
107 124 0
105 112 0
97 97 0
96 108 0
101 110 0
86 84 0
106 124 0
88 81 0
101 104 0
102 108 0
90 93 0
100 109 0
98 102 0
109 120 0
101 107 0
102 114 0
100 104 0
88 89 0
88 91 0
99 109 0
105 113 0
96 90 0
95 96 0
101 106 0
98 109 0
97 99 0
94 98 0
106 124 0
92 95 0
97 102 0
102 106 0
95 98 0
97 110 0
87 85 0
95 103 0
88 81 0
95 96 0
101 114 0
92 99 0
88 87 0
108 118 0
89 92 0
93 96 0
92 98 0
101 101 0
95 94 0
96 96 0
99 108 0
94 103 0
97 101 0
95 89 0
89 87 0
90 85 0
102 109 0
102 109 0
88 86 0
104 115 0
100 106 0
97 100 0
97 104 0
99 100 0
97 98 0
102 111 0
100 112 0
104 106 0
98 105 0
104 110 0
98 102 0
95 104 0
94 101 0
97 104 0
96 108 0
92 96 0
96 100 0
98 103 0
102 109 0
101 106 0
98 105 0
99 105 0
98 104 0
98 105 0
99 109 0
98 106 0
95 103 0
102 110 0
105 114 0
108 125 0
97 105 0
95 101 0
97 99 0
105 112 0
110 121 0
94 99 0
101 115 0
96 107 0
108 120 0
96 106 0
100 105 0
103 113 0
101 116 0
103 113 0
101 117 0
101 112 0
107 124 0
102 108 0
94 96 0
105 116 0
108 127 0
103 116 0
101 113 0
106 125 0
108 129 0
104 117 0
107 117 0
105 120 0
103 118 0
103 115 0
111 129 0
106 119 0
104 118 0
112 128 0
106 128 0
103 112 0
105 120 0
115 140 0
111 130 0
101 108 0
108 120 0
102 113 0
102 113 0
110 127 0
97 111 0
109 129 0
110 128 0
111 132 0
103 124 0
105 125 0
115 140 0
109 131 0
112 129 0
106 129 0
107 126 0
109 128 0
102 123 0
105 120 0
109 124 0
117 144 0
115 144 0
107 125 0
109 128 0
116 143 0
110 131 0
113 134 0
112 136 0
108 123 0
109 130 0
107 129 0
110 136 0
108 128 0
111 132 0
107 128 0
115 145 0
112 137 0
114 138 0
115 144 0
112 137 0
114 136 0
113 138 0
113 135 0
107 132 0
109 131 0
110 132 0
108 129 0
115 138 0
116 141 0
108 125 0
115 143 0
112 140 0
111 138 0
113 137 0
116 146 0
114 134 0
109 131 0
113 135 0
112 132 0
112 138 0
117 143 0
117 145 0
114 141 0
116 139 0
112 137 0
111 136 0
118 145 0
113 137 0
116 143 0
115 142 0
113 139 0
116 144 0
115 145 0
113 145 0
116 146 0
113 141 0
113 137 0
112 133 0
112 142 0
116 144 0
111 134 0
115 147 0
114 143 0
113 137 0
112 140 0
119 148 0
114 140 0
111 140 0
114 142 0
111 136 0
114 145 0
119 151 0
113 139 0
115 145 0
120 152 0
114 145 0
114 141 0
117 148 0
115 144 0
115 147 0
116 148 0
114 143 0
117 146 0
112 140 0
116 150 0
113 141 0
115 144 0
113 140 0
112 140 0
115 146 0
115 145 0
114 143 0
111 138 0
113 146 0
116 146 0
118 147 0
117 150 0
115 143 0
120 148 0
118 147 0
118 148 0
117 150 0
115 145 0
118 149 0
115 147 0
116 148 0
119 149 0
116 146 0
119 151 0
112 138 0
111 135 0
116 150 0
114 147 0
118 149 0
116 146 0
114 143 0
112 142 0
116 148 0
114 140 0
111 136 0
115 143 0
114 140 0
114 145 0
113 133 0
119 148 0
112 138 0
120 148 0
114 143 0
114 143 0
111 131 0
108 135 0
114 143 0
112 137 0
113 143 0
113 137 0
110 133 0
114 139 0
117 146 0
115 142 0
113 140 0
114 141 0
115 142 0
117 148 0
118 149 0
116 146 0
116 144 0
116 144 0
112 137 0
116 139 0
109 127 0
108 132 0
111 132 0
110 135 0
111 140 0
110 135 0
113 139 0
110 136 0
115 144 0
104 123 0
111 134 0
111 138 0
120 145 0
106 129 0
110 137 0
108 131 0
111 137 0
111 134 0
114 138 0
111 136 0
109 129 0
115 145 0
112 136 0
110 130 0
109 131 0
115 138 0
114 140 0
111 136 0
114 141 0
113 137 0
112 131 0
111 140 0
106 123 0
105 123 0
110 132 0
110 134 0
110 130 0
104 121 0
107 127 0
107 127 0
116 139 0
107 128 0
107 121 0
115 135 0
101 119 0
108 125 0
112 132 0
109 129 0
111 131 0
111 133 0
105 123 0
106 121 0
105 125 0
104 124 0
102 120 0
105 122 0
110 127 0
108 128 0
105 113 0
113 133 0
109 126 0
107 118 0
101 109 0
107 125 0
114 136 0
106 117 0
105 116 0
108 129 0
105 119 0
110 126 0
108 119 0
99 107 0
99 109 0
103 119 0
105 121 0
109 130 0
99 98 0
104 116 0
103 117 0
108 125 0
106 117 0
105 117 0
108 122 0
107 122 0
104 111 0
105 118 0
100 104 0
98 106 0
106 115 0
105 119 0
104 119 0
102 116 0
99 101 0
109 124 0
96 102 0
102 104 0
101 110 0
105 117 0
112 131 0
95 98 0
104 114 0
104 114 0
106 115 0
95 99 0
100 115 0
96 94 0
97 103 0
85 78 0
88 85 0
99 104 0
100 110 0
102 113 0
107 123 0
99 101 0
97 102 0
106 112 0
98 101 0
106 121 0
91 89 0
101 104 0
104 114 0
104 113 0
99 103 0
89 89 0
100 106 0
101 106 0
106 124 0
97 101 0
89 90 0
95 89 0
82 76 0
98 99 0
101 111 0
100 108 0
85 80 0
87 84 0
90 86 0
96 97 0
98 106 0
97 101 0
91 90 0
97 101 0
91 94 0
102 113 0
98 99 0
89 87 0
98 99 0
101 106 0
95 97 0
95 98 0
89 87 0
96 101 0
103 113 0
96 106 0
95 97 0
103 113 0
98 101 0
100 108 0
106 113 0
96 99 0
104 112 0
98 103 0
104 115 0
94 95 0
107 114 0
101 106 0
101 104 0
104 122 0
97 106 0
92 91 0
92 94 0
95 92 0
101 109 0
106 118 0
95 102 0
105 112 0
94 94 0
101 115 0
101 107 0
100 113 0
100 107 0
99 110 0
96 100 0
96 103 0
101 107 0
95 97 0
102 115 0
107 121 0
104 114 0
103 111 0
97 106 0
107 126 0
99 101 0
101 112 0
106 113 0
100 108 0
101 112 0
94 100 0
101 113 0
97 111 0
101 108 0
97 101 0
103 110 0
108 123 0
105 118 0
108 120 0
101 112 0
97 99 0
107 121 0
101 111 0
106 115 0
99 104 0
104 114 0
107 123 0
108 125 0
101 112 0
105 123 0
100 107 0
97 108 0
106 124 0
112 131 0
106 128 0
104 117 0
110 128 0
108 131 0
110 126 0
101 116 0
111 133 0
110 127 0
115 138 0
107 125 0
107 119 0
107 126 0
112 140 0
106 128 0
113 135 0
109 129 0
107 126 0
108 127 0
112 128 0
109 126 0
110 135 0
108 125 0
111 134 0
112 138 0
111 130 0
102 120 0
115 137 0
106 113 0
114 132 0
106 127 0
105 119 0
109 130 0
113 141 0
107 126 0
110 130 0
109 133 0
111 136 0
112 134 0
111 138 0
113 137 0
105 122 0
111 132 0
108 126 0
115 142 0
107 125 0
111 134 0
107 132 0
109 137 0
112 140 0
111 136 0
114 143 0
114 138 0
114 137 0
112 138 0
109 136 0
114 139 0
111 134 0
112 139 0
111 134 0
111 138 0
108 125 0
115 143 0
118 145 0
115 138 0
114 141 0
112 137 0
114 143 0
120 145 0
111 139 0
116 144 0
109 131 0
108 129 0
108 131 0
111 136 0
117 148 0
112 136 0
117 145 0
110 132 0
112 138 0
116 145 0
113 146 0
110 136 0
116 144 0
113 139 0
116 146 0
116 148 0
114 143 0
114 141 0
117 146 0
115 144 0
116 152 0
117 143 0
112 135 0
117 145 0
116 144 0
115 143 0
116 144 0
116 148 0
111 136 0
115 144 0
115 140 0
112 143 0
118 149 0
116 146 0
113 133 0
114 145 0
114 140 0
113 141 0
118 147 0
115 147 0
113 141 0
119 150 0
117 146 0
115 140 0
115 142 0
117 145 0
113 142 0
115 146 0
117 147 0
118 147 0
119 149 0
115 146 0
118 147 0
114 143 0
115 136 0
115 147 0
115 144 0
114 143 0
113 148 0
114 143 0
117 146 0
113 137 0
113 144 0
116 144 0
113 141 0
117 150 0
114 143 0
115 142 0
113 139 0
112 140 0
114 143 0
116 142 0
114 144 0
115 140 0
115 144 0
120 145 0
108 131 0
111 136 0
113 140 0
113 145 0
112 140 0
114 144 0
115 144 0
115 140 0
118 147 0
117 145 0
110 138 0
112 133 0
113 137 0
118 144 0
114 138 0
113 141 0
113 142 0
116 148 0
114 139 0
118 141 0
116 144 0
110 133 0
117 143 0
115 144 0
114 139 0
117 145 0
118 147 0
115 146 0
111 138 0
115 142 0
118 147 0
116 144 0
115 144 0
111 134 0
113 145 0
113 141 0
115 144 0
117 143 0
109 134 0
117 147 0
113 130 0
112 133 0
107 130 0
118 147 0
112 135 0
103 124 0
101 115 0
113 139 0
116 143 0
112 135 0
111 134 0
116 140 0
112 135 0
114 138 0
111 134 0
112 141 0
109 136 0
104 117 0
115 145 0
106 121 0
110 130 0
108 136 0
104 120 0
110 135 0
115 140 0
115 141 0
110 134 0
115 145 0
105 117 0
107 127 0
109 129 0
112 133 0
110 137 0
102 111 0
107 123 0
111 135 0
108 126 0
109 131 0
109 129 0
109 129 0
109 127 0
109 131 0
102 113 0
101 116 0
107 121 0
105 122 0
110 131 0
105 119 0
104 117 0
105 124 0
109 129 0
106 122 0
99 110 0
109 131 0
102 118 0
109 126 0
117 139 0
103 115 0
106 120 0
104 114 0
108 124 0
104 108 0
102 110 0
101 114 0
106 118 0
110 130 0
108 120 0
106 112 0
102 116 0
110 125 0
98 103 0
105 116 0
105 115 0
99 110 0
107 123 0
107 125 0
108 120 0
100 109 0
98 113 0
101 112 0
99 110 0
96 104 0
104 115 0
104 121 0
105 121 0
98 105 0
100 108 0
102 116 0
98 99 0
100 108 0
98 105 0
101 101 0
103 111 0
101 115 0
97 99 0
100 104 0
98 107 0
100 108 0
103 117 0
98 108 0
96 101 0
101 108 0
100 107 0
97 103 0
91 90 0
96 103 0
94 99 0
93 93 0
93 90 0
96 100 0
97 107 0
100 106 0
95 102 0
88 82 0
101 109 0
97 98 0
106 114 0
91 85 0
93 98 0
102 102 0
94 102 0
101 108 0
101 110 0
95 94 0
100 112 0
96 98 0
98 101 0
92 94 0
93 95 0
96 102 0
87 81 0
98 101 0
97 97 0
93 87 0
94 99 0
103 116 0
89 92 0
93 101 0
102 108 0
86 81 0
95 99 0
91 88 0
91 94 0
98 97 0
92 84 0
97 98 0
96 96 0
98 97 0
99 96 0
95 102 0
102 109 0
90 87 0
88 90 0
91 93 0
99 99 0
94 94 0
97 102 0
97 104 0
105 114 0
99 109 0
103 106 0
90 96 0
87 86 0
102 114 0
99 104 0
95 96 0
100 110 0
102 111 0
103 113 0
104 105 0
100 108 0
106 117 0
97 105 0
101 116 0
100 100 0
103 115 0
100 104 0
100 108 0
106 118 0
110 126 0
96 101 0
97 103 0
96 98 0
100 106 0
102 112 0
105 117 0
106 108 0
98 103 0
105 108 0
105 118 0
101 112 0
106 124 0
104 113 0
95 98 0
99 105 0
104 113 0
103 115 0
105 117 0
99 106 0
102 114 0
105 112 0
104 118 0
104 112 0
109 130 0
105 118 0
110 130 0
102 106 0
112 131 0
94 100 0
111 133 0
101 113 0
102 113 0
107 121 0
109 127 0
104 116 0
106 116 0
109 126 0
111 130 0
113 135 0
112 133 0
107 124 0
112 135 0
102 108 0
108 123 0
107 121 0
111 127 0
109 128 0
104 121 0
109 124 0
111 130 0
111 128 0
106 122 0
111 129 0
108 129 0
107 118 0
114 134 0
104 124 0
113 135 0
109 129 0
105 124 0
106 127 0
110 127 0
108 131 0
110 129 0
112 137 0
107 123 0
105 123 0
110 137 0
112 136 0
109 134 0
110 132 0
108 128 0
109 130 0
111 134 0
109 126 0
108 129 0
111 132 0
113 139 0
112 135 0
112 135 0
106 124 0
107 129 0
111 134 0
113 139 0
113 141 0
107 128 0
117 145 0
113 134 0
112 138 0
113 137 0
117 142 0
110 134 0
116 141 0
111 132 0
118 149 0
115 142 0
116 150 0
113 139 0
118 143 0
113 137 0
111 132 0
114 145 0
111 134 0
110 136 0
115 139 0
116 140 0
111 138 0
118 149 0
111 136 0
115 142 0
118 149 0
116 143 0
111 138 0
111 134 0
118 151 0
114 143 0
115 144 0
112 142 0
113 142 0
117 149 0
117 150 0
114 143 0
115 142 0
114 137 0
118 145 0
110 132 0
108 129 0
116 143 0
114 140 0
112 137 0
116 145 0
116 144 0
116 146 0
114 141 0
113 141 0
115 140 0
116 142 0
117 147 0
115 147 0
116 146 0
117 147 0
116 141 0
113 138 0
117 147 0
118 153 0
114 143 0
115 144 0
115 146 0
114 145 0
114 143 0
116 146 0
119 148 0
116 145 0
117 146 0
114 143 0
113 145 0
116 146 0
114 140 0
116 148 0
115 149 0
115 144 0
115 140 0
115 144 0
115 142 0
115 142 0
114 143 0
114 141 0
122 151 0
112 140 0
116 139 0
113 141 0
111 137 0
116 148 0
117 149 0
115 147 0
117 145 0
115 138 0
112 140 0
113 143 0
118 149 0
114 139 0
111 134 0
112 140 0
115 143 0
114 143 0
113 141 0
110 134 0
115 143 0
110 136 0
109 134 0
115 146 0
118 149 0
116 144 0
114 140 0
109 140 0
113 141 0
111 138 0
119 150 0
115 143 0
109 136 0
118 147 0
117 141 0
112 137 0
117 137 0
109 128 0
107 128 0
107 128 0
114 141 0
113 140 0
115 138 0
111 137 0
112 139 0
112 137 0
111 140 0
115 142 0
117 143 0
113 138 0
115 138 0
115 144 0
114 141 0
116 144 0
112 138 0
106 127 0
112 137 0
111 131 0
106 125 0
110 134 0
117 150 0
111 133 0
113 141 0
111 132 0
112 136 0
111 134 0
114 143 0
109 125 0
107 128 0
113 139 0
114 139 0
110 133 0
107 129 0
103 113 0
113 134 0
113 139 0
115 140 0
109 124 0
101 111 0
112 138 0
109 131 0
109 129 0
109 127 0
116 148 0
107 128 0
108 128 0
108 127 0
109 129 0
106 122 0
112 135 0
114 138 0
107 124 0
107 130 0
107 127 0
105 122 0
110 134 0
105 121 0
111 130 0
104 120 0
106 119 0
112 135 0
107 125 0
99 115 0
112 128 0
109 125 0
107 119 0
109 124 0
109 131 0
102 113 0
110 130 0
107 126 0
115 132 0
107 123 0
106 122 0
106 120 0
104 118 0
100 109 0
110 123 0
103 116 0
107 121 0
97 107 0
103 117 0
102 114 0
108 122 0
102 110 0
99 107 0
103 113 0
104 113 0
101 111 0
101 117 0
101 115 0
98 114 0
98 103 0
96 98 0
101 114 0
105 117 0
106 122 0
103 120 0
99 102 0
103 114 0
112 133 0
100 108 0
100 100 0
108 118 0
95 97 0
96 108 0
95 101 0
105 114 0
100 108 0
95 104 0
101 112 0
99 105 0
108 116 0
100 109 0
97 100 0
100 104 0
99 111 0
102 111 0
97 106 0
102 115 0
94 96 0
93 92 0
85 82 0
108 118 0
108 110 0
95 98 0
101 108 0
100 104 0
105 109 0
95 98 0
107 118 0
91 92 0
96 94 0
92 87 0
98 104 0
90 83 0
98 106 0
94 101 0
98 100 0
95 95 0
91 92 0
101 108 0
96 97 0
97 105 0
98 105 0
89 81 0
95 98 0
97 102 0
104 112 0
105 105 0
93 91 0
99 105 0
100 111 0
108 121 0
85 78 0
95 99 0
100 110 0
89 82 0
93 97 0
103 113 0
105 111 0
97 107 0
97 104 0
97 103 0
96 103 0
97 104 0
100 111 0
101 113 0
109 120 0
100 110 0
93 102 0
103 110 0
99 100 0
99 111 0
93 97 0
105 116 0
100 108 0
101 105 0
93 91 0
93 93 0
100 110 0
100 108 0
103 114 0
102 112 0
103 117 0
103 114 0
105 111 0
102 112 0
98 101 0
100 107 0
100 105 0
94 99 0
108 126 0
98 103 0
104 115 0
99 105 0
104 114 0
98 108 0
98 98 0
102 112 0
105 119 0
105 119 0
102 111 0
94 98 0
98 108 0
105 117 0
100 110 0
103 118 0
106 117 0
96 106 0
97 108 0
100 111 0
101 112 0
101 111 0
103 117 0
104 112 0
104 123 0
96 101 0
105 124 0
104 118 0
107 122 0
113 134 0
107 119 0
102 114 0
108 124 0
104 116 0
102 109 0
105 120 0
97 106 0
106 123 0
100 109 0
103 115 0
107 124 0
108 130 0
104 115 0
108 129 0
117 145 0
104 114 0
108 124 0
109 124 0
107 123 0
107 125 0
109 122 0
97 107 0
112 127 0
104 117 0
110 130 0
109 129 0
112 135 0
108 123 0
113 135 0
108 127 0
111 128 0
108 132 0
108 126 0
111 131 0
110 124 0
107 123 0
112 134 0
108 132 0
106 124 0
110 128 0
113 133 0
111 132 0
114 136 0
106 123 0
109 129 0
106 126 0
107 130 0
109 130 0
114 136 0
110 125 0
110 134 0
109 127 0
110 132 0
110 134 0
112 134 0
109 131 0
109 127 0
113 139 0
118 149 0
104 121 0
110 135 0
109 131 0
112 135 0
111 134 0
114 138 0
113 137 0
118 145 0
112 134 0
118 144 0
116 140 0
117 145 0
114 143 0
115 140 0
110 132 0
114 139 0
111 136 0
109 131 0
113 137 0
117 145 0
115 142 0
117 145 0
114 136 0
115 145 0
114 141 0
112 135 0
110 137 0
112 140 0
120 150 0
112 140 0
112 140 0
114 147 0
112 135 0
115 144 0
112 140 0
110 139 0
115 142 0
112 137 0
110 135 0
111 138 0
114 138 0
111 136 0
116 148 0
115 146 0
113 139 0
115 146 0
118 145 0
117 148 0
111 136 0
119 148 0
116 146 0
118 145 0
116 144 0
118 149 0
116 148 0
116 144 0
116 148 0
120 146 0
114 141 0
116 146 0
116 148 0
115 142 0
115 144 0
118 149 0
113 141 0
114 145 0
112 138 0
112 143 0
115 148 0
117 149 0
116 144 0
114 143 0
116 148 0
112 143 0
118 147 0
113 137 0
118 149 0
113 139 0
115 140 0
117 150 0
113 142 0
118 147 0
113 137 0
118 149 0
116 146 0
118 149 0
116 150 0
112 137 0
116 146 0
117 147 0
116 144 0
112 136 0
115 142 0
119 151 0
112 137 0
113 139 0
113 143 0
117 143 0
118 145 0
112 139 0
112 138 0
115 144 0
113 137 0
109 135 0
115 147 0
114 141 0
112 139 0
111 138 0
109 128 0
111 136 0
111 136 0
112 140 0
111 133 0
117 148 0
111 136 0
117 143 0
115 140 0
115 141 0
114 139 0
114 139 0
109 131 0
117 145 0
113 139 0
113 142 0
113 137 0
110 136 0
112 132 0
112 137 0
113 138 0
109 135 0
109 123 0
108 126 0
110 130 0
113 139 0
114 141 0
112 131 0
110 134 0
110 130 0
110 139 0
111 137 0
113 137 0
110 133 0
111 133 0
111 131 0
106 124 0
105 122 0
110 130 0
105 118 0
117 141 0
111 134 0
109 131 0
112 133 0
115 144 0
105 124 0
114 136 0
108 125 0
113 139 0
111 126 0
111 132 0
110 128 0
114 140 0
106 124 0
105 125 0
107 126 0
110 134 0
110 132 0
109 129 0
105 116 0
109 126 0
111 134 0
114 141 0
109 130 0
112 131 0
113 139 0
104 117 0
109 127 0
100 119 0
108 125 0
111 130 0
114 135 0
108 124 0
112 133 0
101 109 0
102 118 0
109 131 0
105 115 0
106 124 0
106 118 0
110 126 0
111 133 0
104 117 0
108 120 0
105 124 0
103 120 0
101 117 0
106 124 0
105 122 0
103 110 0
99 104 0
102 113 0
104 117 0
110 125 0
102 110 0
100 108 0
105 120 0
105 116 0
100 108 0
104 114 0
111 124 0
107 121 0
101 103 0
109 129 0
101 116 0
105 122 0
112 136 0
100 108 0
109 124 0
100 114 0
102 112 0
107 122 0
96 104 0
92 98 0
102 109 0
100 107 0
99 104 0
99 113 0
101 114 0
99 112 0
98 103 0
99 105 0
98 106 0
103 112 0
96 99 0
104 117 0
101 107 0
93 99 0
97 94 0
91 93 0
106 116 0
98 107 0
104 117 0
99 102 0
105 118 0
97 106 0
91 91 0
91 95 0
101 110 0
108 118 0
93 102 0
94 89 0
101 109 0
99 102 0
102 110 0
97 99 0
99 104 0
101 112 0
109 123 0
105 110 0
100 110 0
104 111 0
85 87 0
99 103 0
104 114 0
102 109 0
96 108 0
100 108 0
95 101 0
97 105 0
89 93 0
93 94 0
94 96 0
93 99 0
104 119 0
101 108 0
91 89 0
99 103 0
90 90 0
101 109 0
93 94 0
97 102 0
92 95 0
94 95 0
92 94 0
93 87 0
95 99 0
102 112 0
95 93 0
100 111 0
103 109 0
94 99 0
102 109 0
99 110 0
96 103 0
102 111 0
101 106 0
95 101 0
102 107 0
100 108 0
101 112 0
102 110 0
109 126 0
101 110 0
92 94 0
99 102 0
103 107 0
97 107 0
98 110 0
105 118 0
98 106 0
90 87 0
100 109 0
97 101 0
103 119 0
104 114 0
97 108 0
100 107 0
103 117 0
103 111 0
103 108 0
99 112 0
102 105 0
105 116 0
106 122 0
106 116 0
101 108 0
106 122 0
107 116 0
104 120 0
104 116 0
105 119 0
111 129 0
110 128 0
102 119 0
109 127 0
106 122 0
102 119 0
109 130 0
108 118 0
105 110 0
107 117 0
104 118 0
103 113 0
107 123 0
105 115 0
102 111 0
109 128 0
105 127 0
107 118 0
107 122 0
108 123 0
107 127 0
109 120 0
105 122 0
105 114 0
106 122 0
105 122 0
107 123 0
104 114 0
111 134 0
110 127 0
110 132 0
108 127 0
116 137 0
105 122 0
108 114 0
109 124 0
108 125 0
110 134 0
104 119 0
111 135 0
115 137 0
105 115 0
106 119 0
104 119 0
112 140 0
115 139 0
115 139 0
111 132 0
110 128 0
107 128 0
108 125 0
109 128 0
110 126 0
107 128 0
113 132 0
115 143 0
111 129 0
109 128 0
112 142 0
115 147 0
113 133 0
114 141 0
111 131 0
109 129 0
115 138 0
110 130 0
112 136 0
110 135 0
107 124 0
117 143 0
112 135 0
113 137 0
116 140 0
116 144 0
111 131 0
116 144 0
114 137 0
115 146 0
118 142 0
115 144 0
105 120 0
111 135 0
113 139 0
114 136 0
115 137 0
115 143 0
117 147 0
112 137 0
117 145 0
119 148 0
111 132 0
113 139 0
117 143 0
115 145 0
112 133 0
113 135 0
109 135 0
116 145 0
115 142 0
113 139 0
114 142 0
115 144 0
114 141 0
117 146 0
111 134 0
115 140 0
115 144 0
114 139 0
116 146 0
111 141 0
118 145 0
117 143 0
114 143 0
109 133 0
112 140 0
114 144 0
116 141 0
113 137 0
114 141 0
112 137 0
115 145 0
111 136 0
113 141 0
115 142 0
118 146 0
113 139 0
115 146 0
118 153 0
114 143 0
109 140 0
114 145 0
113 142 0
114 146 0
114 136 0
111 141 0
116 146 0
114 143 0
116 146 0
113 143 0
107 127 0
118 149 0
119 151 0
116 143 0
113 141 0
113 141 0
116 150 0
115 147 0
113 145 0
114 139 0
116 146 0
113 139 0
116 141 0
115 143 0
117 143 0
113 139 0
113 143 0
116 142 0
115 147 0
113 137 0
116 141 0
117 145 0
114 143 0
120 154 0
113 141 0
117 149 0
115 142 0
113 140 0
118 149 0
117 145 0
109 133 0
118 147 0
115 142 0
112 143 0
111 138 0
111 138 0
113 139 0
116 148 0
113 139 0
113 140 0
116 146 0
114 143 0
116 146 0
107 133 0
109 133 0
117 145 0
113 137 0
117 149 0
112 144 0
113 141 0
113 140 0
109 135 0
113 143 0
109 134 0
111 139 0
114 140 0
111 137 0
113 142 0
113 137 0
113 128 0
109 131 0
114 143 0
111 134 0
113 137 0
117 145 0
109 128 0
115 147 0
106 122 0
117 139 0
115 136 0
113 137 0
113 141 0
110 138 0
112 139 0
112 133 0
115 144 0
109 128 0
115 142 0
116 143 0
112 142 0
113 139 0
107 127 0
111 134 0
105 124 0
105 123 0
113 137 0
111 135 0
112 134 0
111 132 0
104 126 0
109 130 0
104 119 0
111 128 0
107 125 0
113 135 0
113 137 0
114 135 0
106 128 0
112 137 0
106 124 0
109 133 0
109 125 0
110 123 0
108 129 0
100 111 0
109 126 0
108 127 0
110 125 0
105 120 0
110 130 0
115 138 0
107 122 0
106 118 0
111 137 0
104 121 0
103 120 0
109 129 0
107 125 0
107 121 0
104 116 0
110 126 0
109 126 0
100 110 0
106 128 0
109 124 0
111 125 0
99 103 0
104 114 0
95 99 0
99 106 0
108 125 0
107 120 0
106 122 0
111 128 0
104 120 0
98 103 0
98 102 0
111 132 0
97 101 0
109 124 0
101 110 0
109 128 0
104 111 0
107 122 0
107 125 0
99 109 0
95 103 0
100 107 0
105 111 0
114 132 0
104 122 0
97 97 0
97 102 0
99 104 0
101 110 0
101 107 0
95 96 0
103 115 0
103 115 0
103 113 0
97 108 0
94 96 0
98 105 0
105 118 0
105 111 0
98 104 0
98 100 0
92 103 0
97 107 0
100 111 0
105 120 0
96 101 0
95 103 0
102 111 0
106 118 0
100 106 0
104 113 0
101 113 0
100 112 0
97 110 0
103 113 0
103 109 0
92 98 0
103 112 0
101 101 0
102 109 0
97 97 0
101 110 0
98 103 0
94 99 0
97 107 0
105 111 0
103 110 0
104 113 0
99 103 0
89 89 0
102 105 0
97 105 0
99 101 0
105 115 0
99 105 0
88 84 0
100 102 0
98 104 0
102 111 0
101 110 0
96 100 0
94 101 0
95 99 0
101 110 0
96 105 0
101 107 0
96 101 0
99 105 0
98 110 0
95 98 0
106 112 0
95 98 0
90 93 0
104 117 0
97 102 0
93 89 0
90 91 0
95 102 0
100 113 0
102 108 0
97 108 0
105 115 0
94 94 0
108 124 0
92 93 0
100 104 0
105 122 0
88 90 0
102 113 0
103 117 0
94 100 0
89 91 0
105 118 0
103 112 0
100 110 0
98 109 0
104 114 0
99 113 0
98 103 0
97 100 0
102 114 0
99 100 0
111 127 0
104 117 0
107 116 0
109 125 0
100 112 0
105 121 0
106 125 0
102 111 0
98 110 0
99 106 0
101 106 0
107 120 0
105 114 0
107 121 0
105 120 0
100 110 0
99 109 0
110 126 0
107 123 0
104 115 0
106 123 0
110 130 0
107 125 0
109 127 0
106 121 0
104 120 0
104 124 0
107 119 0
102 116 0
110 132 0
107 119 0
109 124 0
108 128 0
104 115 0
104 118 0
109 130 0
101 104 0
107 125 0
109 131 0
110 133 0
106 123 0
110 134 0
109 129 0
107 128 0
115 138 0
109 128 0
108 129 0
109 124 0
105 120 0
110 132 0
116 141 0
102 121 0
110 132 0
111 137 0
110 133 0
113 131 0
109 128 0
111 132 0
110 133 0
115 140 0
112 137 0
118 144 0
107 130 0
107 120 0
110 132 0
108 124 0
110 133 0
108 127 0
108 128 0
110 134 0
108 131 0
111 136 0
115 140 0
110 132 0
110 132 0
112 132 0
104 118 0
110 132 0
111 138 0
112 137 0
109 127 0
108 128 0
110 134 0
111 134 0
110 131 0
108 132 0
115 145 0
110 133 0
112 135 0
107 131 0
116 140 0
115 145 0
107 130 0
113 139 0
109 131 0
109 135 0
115 144 0
113 140 0
113 136 0
111 140 0
115 143 0
118 146 0
115 142 0
115 140 0
116 144 0
115 140 0
117 146 0
112 138 0
114 143 0
106 129 0
114 140 0
115 142 0
115 140 0
111 136 0
115 145 0
118 142 0
113 141 0
109 135 0
114 145 0
113 137 0
110 141 0
114 143 0
116 141 0
113 143 0
114 141 0
116 141 0
118 147 0
112 135 0
113 141 0
114 139 0
118 147 0
115 144 0
116 148 0
113 141 0
120 148 0
118 147 0
114 143 0
114 139 0
115 140 0
114 143 0
114 147 0
119 151 0
118 147 0
118 145 0
114 146 0
113 142 0
113 141 0
113 135 0
114 145 0
119 153 0
116 150 0
115 142 0
117 145 0
114 141 0
114 140 0
116 146 0
115 147 0
119 151 0
107 130 0
115 142 0
115 140 0
120 150 0
112 144 0
112 137 0
117 147 0
120 146 0
112 140 0
119 151 0
114 138 0
108 130 0
114 143 0
112 136 0
114 147 0
119 147 0
114 148 0
115 144 0
113 135 0
116 143 0
113 144 0
110 138 0
109 131 0
114 141 0
115 144 0
114 145 0
114 144 0
115 143 0
109 134 0
111 140 0
109 132 0
111 131 0
115 140 0
115 142 0
113 141 0
111 136 0
114 147 0
115 143 0
111 136 0
106 124 0
107 129 0
113 143 0
113 141 0
113 135 0
110 136 0
117 143 0
106 126 0
115 142 0
110 136 0
114 141 0
115 147 0
113 143 0
113 135 0
110 133 0
118 143 0
113 137 0
116 146 0
114 143 0
112 134 0
114 141 0
107 127 0
105 126 0
111 138 0
109 131 0
113 136 0
107 127 0
110 129 0
110 134 0
113 137 0
110 132 0
103 120 0
111 132 0
112 139 0
110 126 0
108 132 0
109 130 0
114 141 0
113 139 0
108 123 0
111 124 0
105 126 0
109 130 0
104 122 0
112 138 0
113 137 0
108 127 0
107 132 0
107 127 0
111 123 0
108 128 0
103 119 0
112 134 0
113 132 0
111 132 0
102 116 0
111 130 0
113 134 0
109 126 0
108 123 0
108 120 0
106 122 0
112 130 0
113 130 0
106 120 0
100 109 0
102 112 0
108 127 0
111 129 0
105 119 0
104 112 0
112 132 0
110 130 0
109 126 0
105 120 0
108 127 0
104 111 0
96 105 0
102 111 0
106 118 0
96 108 0
102 107 0
111 129 0
107 117 0
109 124 0
106 116 0
96 100 0
101 113 0
104 116 0
103 113 0
104 115 0
100 106 0
97 103 0
105 116 0
94 106 0
110 128 0
105 118 0
106 118 0
105 116 0
107 117 0
105 118 0
102 114 0
102 109 0
103 115 0
103 115 0
101 105 0
101 112 0
98 107 0
108 117 0
102 108 0
97 103 0
94 100 0
102 116 0
101 113 0
104 114 0
103 113 0
100 108 0
99 107 0
102 111 0
106 117 0
103 120 0
103 113 0
107 121 0
106 121 0
89 87 0
98 103 0
95 97 0
101 110 0
104 111 0
98 107 0
102 110 0
98 102 0
101 105 0
104 122 0
104 112 0
90 87 0
100 103 0
97 103 0
94 91 0
96 101 0
95 99 0
100 108 0
97 101 0
101 110 0
92 97 0
101 108 0
98 99 0
109 123 0
96 104 0
101 112 0
93 93 0
99 100 0
102 116 0
96 98 0
96 101 0
102 110 0
94 100 0
102 112 0
100 111 0
98 107 0
97 103 0
107 123 0
100 103 0
101 108 0
92 88 0
103 114 0
105 116 0
99 112 0
93 95 0
94 96 0
100 96 0
94 99 0
101 105 0
104 114 0
89 87 0
89 87 0
102 109 0
106 118 0
98 104 0
104 114 0
96 106 0
98 108 0
101 114 0
110 128 0
110 129 0
100 108 0
98 108 0
96 102 0
100 114 0
103 111 0
104 115 0
98 99 0
110 129 0
102 110 0
103 112 0
103 117 0
103 109 0
112 127 0
101 105 0
105 116 0
96 100 0
101 108 0
90 91 0
102 116 0
95 103 0
106 118 0
95 98 0
103 113 0
96 96 0
107 123 0
110 126 0
106 122 0
103 118 0
110 129 0
106 117 0
98 107 0
107 121 0
105 120 0
105 116 0
96 101 0
107 122 0
107 121 0
110 129 0
108 126 0
104 115 0
104 114 0
108 128 0
104 123 0
106 119 0
99 108 0
103 115 0
101 116 0
98 111 0
109 134 0
102 116 0
102 116 0
106 122 0
104 121 0
112 136 0
103 115 0
109 129 0
102 109 0
109 129 0
108 129 0
106 125 0
104 117 0
105 124 0
112 135 0
108 123 0
104 121 0
111 132 0
111 131 0
109 132 0
106 120 0
110 129 0
104 118 0
114 134 0
101 111 0
112 137 0
108 127 0
110 125 0
108 129 0
109 127 0
111 132 0
108 129 0
115 138 0
117 142 0
111 122 0
113 135 0
108 125 0
113 135 0
113 137 0
117 141 0
106 128 0
116 137 0
115 145 0
115 138 0
111 138 0
111 134 0
108 128 0
113 144 0
114 136 0
110 128 0
108 134 0
118 141 0
107 130 0
110 134 0
111 134 0
113 133 0
116 148 0
113 139 0
111 138 0
115 137 0
115 145 0
113 137 0
114 140 0
111 137 0
112 138 0
111 135 0
111 141 0
111 136 0
116 141 0
111 138 0
110 138 0
108 133 0
116 141 0
110 134 0
116 142 0
116 144 0
110 137 0
113 141 0
112 130 0
113 137 0
113 141 0
110 135 0
115 145 0
112 136 0
112 142 0
114 147 0
110 134 0
115 145 0
109 130 0
115 138 0
116 142 0
118 149 0
113 139 0
119 151 0
118 149 0
115 140 0
115 144 0
112 144 0
114 147 0
118 147 0
111 138 0
117 150 0
115 140 0
118 149 0
116 146 0
113 137 0
113 139 0
113 137 0
115 146 0
115 147 0
116 144 0
116 141 0
117 148 0
115 144 0
114 140 0
113 144 0
116 148 0
113 137 0
116 149 0
116 147 0
114 142 0
116 149 0
114 145 0
116 146 0
118 146 0
116 144 0
118 149 0
110 139 0
115 144 0
117 147 0
114 141 0
116 144 0
114 138 0
112 138 0
116 146 0
116 146 0
109 131 0
114 143 0
111 132 0
113 134 0
115 142 0
111 131 0
116 146 0
117 145 0
117 145 0
113 144 0
115 145 0
115 142 0
115 140 0
114 141 0
117 147 0
118 147 0
115 147 0
117 148 0
116 142 0
115 147 0
110 130 0
110 137 0
114 147 0
115 142 0
117 147 0
112 136 0
116 138 0
112 140 0
112 131 0
116 142 0
112 142 0
111 136 0
108 131 0
110 137 0
113 136 0
115 139 0
110 132 0
109 130 0
115 142 0
109 126 0
113 139 0
108 130 0
110 132 0
112 142 0
108 127 0
112 138 0
111 136 0
115 142 0
112 138 0
117 141 0
105 127 0
114 139 0
112 135 0
114 136 0
110 128 0
112 133 0
113 143 0
110 134 0
112 132 0
105 123 0
110 134 0
108 133 0
114 136 0
112 134 0
105 120 0
111 134 0
108 125 0
106 122 0
113 137 0
109 131 0
106 128 0
114 135 0
110 131 0
111 132 0
110 134 0
113 143 0
109 129 0
115 144 0
113 143 0
109 131 0
113 134 0
107 123 0
113 133 0
111 125 0
104 116 0
105 122 0
114 139 0
108 124 0
108 129 0
115 140 0
117 141 0
102 119 0
103 116 0
100 116 0
110 128 0
106 127 0
111 129 0
106 128 0
102 122 0
111 136 0
107 122 0
109 128 0
104 116 0
102 116 0
106 127 0
100 110 0
108 120 0
112 131 0
102 114 0
108 121 0
104 120 0
111 131 0
104 117 0
110 128 0
110 125 0
110 127 0
107 123 0
101 111 0
101 111 0
102 114 0
110 132 0
110 125 0
112 129 0
112 137 0
103 121 0
108 124 0
101 111 0
106 113 0
109 129 0
107 127 0
109 120 0
89 91 0
104 116 0
102 118 0
102 113 0
113 132 0
101 110 0
98 103 0
105 121 0
93 98 0
101 114 0
106 118 0
92 100 0
99 106 0
96 97 0
101 110 0
99 102 0
97 107 0
100 104 0
104 114 0
107 118 0
99 107 0
109 123 0
100 109 0
106 119 0
108 125 0
97 105 0
92 98 0
98 103 0
102 113 0
102 116 0
99 109 0
104 115 0
106 115 0
95 102 0
98 104 0
106 117 0
99 108 0
106 118 0
101 105 0
104 117 0
98 110 0
104 117 0
106 120 0
102 109 0
98 100 0
101 114 0
104 120 0
94 95 0
99 106 0
100 115 0
97 103 0
101 110 0
95 95 0
108 120 0
101 107 0
85 85 0
100 103 0
91 92 0
99 103 0
99 106 0
105 119 0
94 99 0
104 117 0
94 93 0
98 101 0
95 103 0
94 101 0
100 107 0
98 107 0
98 104 0
98 97 0
97 108 0
95 101 0
97 105 0
101 108 0
98 102 0
101 108 0
103 115 0
95 103 0
101 112 0
106 117 0
97 93 0
88 92 0
101 109 0
105 115 0
94 92 0
103 118 0
99 107 0
107 120 0
97 106 0
98 104 0
104 114 0
99 111 0
98 101 0
102 115 0
102 114 0
98 101 0
99 105 0
103 117 0
96 99 0
101 108 0
104 119 0
100 112 0
109 120 0
101 112 0
105 118 0
109 131 0
97 106 0
104 116 0
105 118 0
107 115 0
102 114 0
100 113 0
97 101 0
100 108 0
105 118 0
105 115 0
107 128 0
103 115 0
106 122 0
103 125 0
105 114 0
103 119 0
107 123 0
106 128 0
101 110 0
111 125 0
108 130 0
107 117 0
106 118 0
100 115 0
107 127 0
107 117 0
105 112 0
101 112 0
107 120 0
107 129 0
105 117 0
105 118 0
106 118 0
111 132 0
107 126 0
108 122 0
107 127 0
102 114 0
113 130 0
111 131 0
101 119 0
105 123 0
103 118 0
111 130 0
104 114 0
109 127 0
108 129 0
105 124 0
103 122 0
106 125 0
107 130 0
114 132 0
115 137 0
113 141 0
110 134 0
115 140 0
116 141 0
105 121 0
113 137 0
101 118 0
108 132 0
108 124 0
107 121 0
110 134 0
106 120 0
111 138 0
112 134 0
106 124 0
108 123 0
114 143 0
114 143 0
111 130 0
109 131 0
115 144 0
109 135 0
109 132 0
110 130 0
110 137 0
108 127 0
116 141 0
104 122 0
114 140 0
113 139 0
109 129 0
105 126 0
112 138 0
111 139 0
109 134 0
112 135 0
116 141 0
119 151 0
108 131 0
115 143 0
115 142 0
111 136 0
117 140 0
109 130 0
114 140 0
115 139 0
115 144 0
113 132 0
111 135 0
109 131 0
110 132 0
114 136 0
117 143 0
117 147 0
117 147 0
115 142 0
119 150 0
111 139 0
108 132 0
115 138 0
118 153 0
109 136 0
114 145 0
115 142 0
114 145 0
115 144 0
113 140 0
117 148 0
114 143 0
116 141 0
113 134 0
117 145 0
117 152 0
115 147 0
113 139 0
120 150 0
114 143 0
117 145 0
117 145 0
116 140 0
115 142 0
115 145 0
121 152 0
115 144 0
111 139 0
112 144 0
115 145 0
110 134 0
120 152 0
115 142 0
114 143 0
116 145 0
116 147 0
116 142 0
110 137 0
117 148 0
113 143 0
118 147 0
116 145 0
113 143 0
117 150 0
114 143 0
114 138 0
117 145 0
115 146 0
110 137 0
114 140 0
115 145 0
113 137 0
118 150 0
121 149 0
112 140 0
114 140 0
116 140 0
113 145 0
114 141 0
117 143 0
115 146 0
114 143 0
112 139 0
116 136 0
115 144 0
114 144 0
112 133 0
107 127 0
112 136 0
117 141 0
116 141 0
112 136 0
113 143 0
115 138 0
114 139 0
114 136 0
115 146 0
111 134 0
112 140 0
115 142 0
112 138 0
114 139 0
111 134 0
108 133 0
116 139 0
112 129 0
108 127 0
106 128 0
112 137 0
113 135 0
111 135 0
114 139 0
114 140 0
115 145 0
111 136 0
114 143 0
108 130 0
110 134 0
113 135 0
109 134 0
116 141 0
111 136 0
112 131 0
115 144 0
109 126 0
111 134 0
112 127 0
113 141 0
114 139 0
114 141 0
110 134 0
115 138 0
116 142 0
116 142 0
108 126 0
109 129 0
107 121 0
116 142 0
107 123 0
113 141 0
112 138 0
105 125 0
112 140 0
106 122 0
120 150 0
102 119 0
113 133 0
109 129 0
109 124 0
105 118 0
108 122 0
113 135 0
111 128 0
110 130 0
106 122 0
115 143 0
104 119 0
109 128 0
109 131 0
107 125 0
102 111 0
108 125 0
112 126 0
111 124 0
110 127 0
105 118 0
109 125 0
109 124 0
102 116 0
112 134 0
112 133 0
106 126 0
102 114 0
105 121 0
108 125 0
108 125 0
107 125 0
104 119 0
108 123 0
108 122 0
106 127 0
109 125 0
105 121 0
104 120 0
101 114 0
103 110 0
102 116 0
104 118 0
110 124 0
105 118 0
107 128 0
99 111 0
108 117 0
100 107 0
108 130 0
102 109 0
100 112 0
102 114 0
105 120 0
108 125 0
98 108 0
107 128 0
100 108 0
98 107 0
93 101 0
101 108 0
110 126 0
101 114 0
102 116 0
99 102 0
95 102 0
109 128 0
98 106 0
95 94 0
91 92 0
97 99 0
101 112 0
99 104 0
97 104 0
108 122 0
94 91 0
103 117 0
104 122 0
107 119 0
102 108 0
104 112 0
104 111 0
108 122 0
107 121 0
99 107 0
105 120 0
102 113 0
100 110 0
101 109 0
103 110 0
99 105 0
100 107 0
97 102 0
104 109 0
97 102 0
102 114 0
108 120 0
95 105 0
96 102 0
104 116 0
98 100 0
101 103 0
106 120 0
106 113 0
101 109 0
103 109 0
99 104 0
94 98 0
98 108 0
104 114 0
101 110 0
101 113 0
96 103 0
100 105 0
93 91 0
101 111 0
91 91 0
98 103 0
102 115 0
96 109 0
100 111 0
99 101 0
100 111 0
94 100 0
101 110 0
91 97 0
99 107 0
95 95 0
104 114 0
98 101 0
100 110 0
102 105 0
101 106 0
112 125 0
98 102 0
99 105 0
101 117 0
91 91 0
104 118 0
99 94 0
104 112 0
102 113 0
101 112 0
101 112 0
103 113 0
90 97 0
101 110 0
101 115 0
91 92 0
105 114 0
101 110 0
101 116 0
93 94 0
101 111 0
102 113 0
106 119 0
99 110 0
99 103 0
96 106 0
98 107 0
106 123 0
108 126 0
109 122 0
107 125 0
104 116 0
102 113 0
101 116 0
103 113 0
111 123 0
101 109 0
99 102 0
106 119 0
97 100 0
107 123 0
104 115 0
109 122 0
102 110 0
107 126 0
106 119 0
104 114 0
110 128 0
103 109 0
104 120 0
95 104 0
106 118 0
104 119 0
106 122 0
105 118 0
114 138 0
101 110 0
112 131 0
108 121 0
105 120 0
111 132 0
103 110 0
106 128 0
112 133 0
101 108 0
108 126 0
97 109 0
106 122 0
105 124 0
108 130 0
105 115 0
108 127 0
109 122 0
111 132 0
111 126 0
105 127 0
109 125 0
108 127 0
106 126 0
110 130 0
109 128 0
109 135 0
115 136 0
114 140 0
104 120 0
110 130 0
112 142 0
112 133 0
108 128 0
114 139 0
111 131 0
117 144 0
113 135 0
114 140 0
115 142 0
105 122 0
105 124 0
110 128 0
110 130 0
111 140 0
111 130 0
110 133 0
110 128 0
105 121 0
113 138 0
115 140 0
112 137 0
113 138 0
114 139 0
110 135 0
107 128 0
117 143 0
110 130 0
111 132 0
109 133 0
109 133 0
108 132 0
114 136 0
111 136 0
110 136 0
114 134 0
117 145 0
109 124 0
117 145 0
112 133 0
110 137 0
110 134 0
112 140 0
117 146 0
107 125 0
113 135 0
115 142 0
113 137 0
109 137 0
111 134 0
116 144 0
111 136 0
113 137 0
119 143 0
115 142 0
117 143 0
112 138 0
114 145 0
110 135 0
113 141 0
117 147 0
116 146 0
115 143 0
114 143 0
115 142 0
115 138 0
116 146 0
111 138 0
114 139 0
118 149 0
114 139 0
115 145 0
113 139 0
111 135 0
116 146 0
116 143 0
113 139 0
112 140 0
111 137 0
116 144 0
117 149 0
117 147 0
112 133 0
117 148 0
118 147 0
113 137 0
113 139 0
116 146 0
117 147 0
110 134 0
118 151 0
118 151 0
114 143 0
117 148 0
119 151 0
115 144 0
115 144 0
116 148 0
113 139 0
113 142 0
116 144 0
113 137 0
116 146 0
116 148 0
113 139 0
115 146 0
112 140 0
113 139 0
116 148 0
115 144 0
116 146 0
111 136 0
116 143 0
116 148 0
114 140 0
110 139 0
114 143 0
115 147 0
114 142 0
113 137 0
116 146 0
114 143 0
114 139 0
115 144 0
112 137 0
114 140 0
112 142 0
114 139 0
113 139 0
113 137 0
113 141 0
118 144 0
116 146 0
110 135 0
115 142 0
113 135 0
114 143 0
111 132 0
106 120 0
120 150 0
111 134 0
108 128 0
114 141 0
112 135 0
117 147 0
115 146 0
114 139 0
116 141 0
111 136 0
110 132 0
113 142 0
115 144 0
114 138 0
107 127 0
112 140 0
107 122 0
116 144 0
114 139 0
112 126 0
109 129 0
103 123 0
114 142 0
107 125 0
115 142 0
111 135 0
111 132 0
109 135 0
110 135 0
110 135 0
111 140 0
115 136 0
110 124 0
111 133 0
107 123 0
112 133 0
111 132 0
111 136 0
112 137 0
107 128 0
114 137 0
108 130 0
109 126 0
111 136 0
106 122 0
109 129 0
107 125 0
108 125 0
105 130 0
114 134 0
111 136 0
109 131 0
109 128 0
110 128 0
113 133 0
112 133 0
111 134 0
110 134 0
108 125 0
110 130 0
114 132 0
109 127 0
109 129 0
111 131 0
109 124 0
112 130 0
108 125 0
111 132 0
111 136 0
110 125 0
113 135 0
108 126 0
105 124 0
110 132 0
106 117 0
109 122 0
106 122 0
107 124 0
104 115 0
104 121 0
102 118 0
99 107 0
105 120 0
108 131 0
107 119 0
103 119 0
101 111 0
104 112 0
100 114 0
103 118 0
102 116 0
107 122 0
101 114 0
106 115 0
104 117 0
105 118 0
105 118 0
102 110 0
103 119 0
104 110 0
98 109 0
107 123 0
108 124 0
99 108 0
96 94 0
100 109 0
102 115 0
101 105 0
104 112 0
96 99 0
100 113 0
94 107 0
108 127 0
103 113 0
103 115 0
100 110 0
98 103 0
104 115 0
103 108 0
97 98 0
103 111 0
94 101 0
98 103 0
99 111 0
93 91 0
101 106 0
99 106 0
92 95 0
92 94 0
101 110 0
93 95 0
102 111 0
98 102 0
104 114 0
98 103 0
100 111 0
91 92 0
101 109 0
101 114 0
103 112 0
101 116 0
98 110 0
96 101 0
105 114 0
100 112 0
88 81 0
101 105 0
95 99 0
99 111 0
104 122 0
89 86 0
96 102 0
93 98 0
103 112 0
103 111 0
101 112 0
92 92 0
96 103 0
98 105 0
104 110 0
100 115 0
103 111 0
96 102 0
102 109 0
92 92 0
103 112 0
97 98 0
92 99 0
102 113 0
104 112 0
99 110 0
103 111 0
91 90 0
93 98 0
107 122 0
105 117 0
98 103 0
98 103 0
104 116 0
100 113 0
104 114 0
99 106 0
106 120 0
109 123 0
110 121 0
96 99 0
99 108 0
109 123 0
112 131 0
107 121 0
108 118 0
109 126 0
107 124 0
103 115 0
107 118 0
104 112 0
102 114 0
100 103 0
101 112 0
100 107 0
100 113 0
108 119 0
104 116 0
100 110 0
105 117 0
103 116 0
88 93 0
103 116 0
99 104 0
101 112 0
99 110 0
107 118 0
105 122 0
96 100 0
105 121 0
102 115 0
103 117 0
99 106 0
110 129 0
101 115 0
108 131 0
95 96 0
111 125 0
100 112 0
101 116 0
109 128 0
102 116 0
108 124 0
111 135 0
113 135 0
109 127 0
110 136 0
104 123 0
107 129 0
112 138 0
103 117 0
101 108 0
101 114 0
107 125 0
109 128 0
109 129 0
115 138 0
106 122 0
105 119 0
104 116 0
101 118 0
103 119 0
109 124 0
113 139 0
105 123 0
104 110 0
115 140 0
102 117 0
112 133 0
114 140 0
112 139 0
107 128 0
107 118 0
106 123 0
108 130 0
112 140 0
108 120 0
114 138 0
107 130 0
115 136 0
108 128 0
102 114 0
111 132 0
107 126 0
117 140 0
114 143 0
108 132 0
108 131 0
108 124 0
108 129 0
113 135 0
113 131 0
112 133 0
104 123 0
111 138 0
114 138 0
113 137 0
111 136 0
114 144 0
112 139 0
116 144 0
110 133 0
114 138 0
110 128 0
110 134 0
115 145 0
115 138 0
115 139 0
113 139 0
113 141 0
116 146 0
112 138 0
112 137 0
114 138 0
108 131 0
114 137 0
114 139 0
115 140 0
111 133 0
111 143 0
113 141 0
113 137 0
113 139 0
113 139 0
112 137 0
116 142 0
110 132 0
112 139 0
114 145 0
112 129 0
116 142 0
115 148 0
116 147 0
112 138 0
114 136 0
117 145 0
115 143 0
114 145 0
115 140 0
113 138 0
111 136 0
111 136 0
110 136 0
117 143 0
119 149 0
116 144 0
114 147 0
115 142 0
112 141 0
117 145 0
113 141 0
114 143 0
119 148 0
116 142 0
114 148 0
112 138 0
120 152 0
117 148 0
113 141 0
115 142 0
111 135 0
114 136 0
116 144 0
113 139 0
112 140 0
113 145 0
118 145 0
116 148 0
118 147 0
117 145 0
117 145 0
119 151 0
120 144 0
116 148 0
115 146 0
116 144 0
119 152 0
114 139 0
115 145 0
116 146 0
115 145 0
116 143 0
117 143 0
114 147 0
115 143 0
114 145 0
113 139 0
117 148 0
116 142 0
115 144 0
114 141 0
112 137 0
112 137 0
120 148 0
116 146 0
113 141 0
112 135 0
117 144 0
115 144 0
113 135 0
117 152 0
113 133 0
110 134 0
112 141 0
113 132 0
113 142 0
114 141 0
113 140 0
116 148 0
113 140 0
115 142 0
114 141 0
116 144 0
115 144 0
116 144 0
109 128 0
113 139 0
114 132 0
113 141 0
113 137 0
112 138 0
113 137 0
110 130 0
113 140 0
112 135 0
116 138 0
108 133 0
112 135 0
115 143 0
112 135 0
113 135 0
111 134 0
116 144 0
112 138 0
115 140 0
111 134 0
109 135 0
111 132 0
113 135 0
111 132 0
105 120 0
106 128 0
109 128 0
113 135 0
110 137 0
109 126 0
111 140 0
114 136 0
110 128 0
111 138 0
108 128 0
110 134 0
107 123 0
111 133 0
110 130 0
106 126 0
104 121 0
108 130 0
109 133 0
112 138 0
107 128 0
112 133 0
107 127 0
109 133 0
110 136 0
103 126 0
106 126 0
113 135 0
109 125 0
107 129 0
107 119 0
107 124 0
111 131 0
104 123 0
112 137 0
111 131 0
106 113 0
109 124 0
111 133 0
111 134 0
108 129 0
111 130 0
111 136 0
110 126 0
106 119 0
109 130 0
103 124 0
108 127 0
97 106 0
102 117 0
107 125 0
104 118 0
108 129 0
107 121 0
99 104 0
97 104 0
112 133 0
109 124 0
106 115 0
98 102 0
107 125 0
102 111 0
104 121 0
111 132 0
101 110 0
104 118 0
111 123 0
100 111 0
107 125 0
106 125 0
103 109 0
110 126 0
103 111 0
103 112 0
101 115 0
104 117 0
108 119 0
104 118 0
99 105 0
100 106 0
113 126 0
104 112 0
96 100 0
107 118 0
99 107 0
100 114 0
107 123 0
106 125 0
104 118 0
104 108 0
106 112 0
95 103 0
100 115 0
96 102 0
105 115 0
101 110 0
96 102 0
109 123 0
97 104 0
103 115 0
101 105 0
103 108 0
101 109 0
104 116 0
105 117 0
104 115 0
101 111 0
92 91 0
99 104 0
102 108 0
94 97 0
93 93 0
101 107 0
99 105 0
102 108 0
100 106 0
101 110 0
99 106 0
96 107 0
104 114 0
99 110 0
100 110 0
98 105 0
96 97 0
95 102 0
101 116 0
104 110 0
98 106 0
100 111 0
99 106 0
100 107 0
98 94 0
104 116 0
103 113 0
96 107 0
105 116 0
100 106 0
97 102 0
104 118 0
103 115 0
93 91 0
93 98 0
100 110 0
99 107 0
106 120 0
96 107 0
95 95 0
101 112 0
99 113 0
99 107 0
100 107 0
104 117 0
104 116 0
100 106 0
101 112 0
97 100 0
97 103 0
95 100 0
104 115 0
100 110 0
108 121 0
98 100 0
103 111 0
99 111 0
98 105 0
106 122 0
101 112 0
103 111 0
102 118 0
104 117 0
105 125 0
102 111 0
105 117 0
106 116 0
98 106 0
107 123 0
94 108 0
106 119 0
100 104 0
103 116 0
102 115 0
105 114 0
97 108 0
107 127 0
105 118 0
107 126 0
107 122 0
103 112 0
101 110 0
98 103 0
108 127 0
109 118 0
111 129 0
100 110 0
98 115 0
103 117 0
100 110 0
108 127 0
106 124 0
110 129 0
103 117 0
106 114 0
104 119 0
106 118 0
107 129 0
109 133 0
102 112 0
102 115 0
107 125 0
106 118 0
109 129 0
110 134 0
111 130 0
104 115 0
106 117 0
101 116 0
107 126 0
111 134 0
109 125 0
104 125 0
106 126 0
105 121 0
112 140 0
107 121 0
106 127 0
111 134 0
109 120 0
112 131 0
107 127 0
109 133 0
112 132 0
114 139 0
106 121 0
112 137 0
106 120 0
108 128 0
115 139 0
107 127 0
107 127 0
107 125 0
109 132 0
108 126 0
111 134 0
107 126 0
113 134 0
110 136 0
105 125 0
108 129 0
111 136 0
112 133 0
107 126 0
109 126 0
110 130 0
115 142 0
111 136 0
109 131 0
111 133 0
115 144 0
105 127 0
108 129 0
107 130 0
106 131 0
107 130 0
112 136 0
112 138 0
112 133 0
112 142 0
101 113 0
112 137 0
113 139 0
113 135 0
106 128 0
117 143 0
114 141 0
110 135 0
118 145 0
110 134 0
113 133 0
116 142 0
116 137 0
109 135 0
114 137 0
115 142 0
113 144 0
117 145 0
118 147 0
110 136 0
109 131 0
114 143 0
115 142 0
116 144 0
115 141 0
112 135 0
113 137 0
112 140 0
116 146 0
116 146 0
114 141 0
114 136 0
119 150 0
113 141 0
120 148 0
111 138 0
118 149 0
114 139 0
111 138 0
113 144 0
117 147 0
120 150 0
117 150 0
114 143 0
114 140 0
111 136 0
112 142 0
114 139 0
115 140 0
111 137 0
116 148 0
109 139 0
115 147 0
118 145 0
116 146 0
110 136 0
116 148 0
114 141 0
113 141 0
117 143 0
116 150 0
112 140 0
114 141 0
118 151 0
116 148 0
116 148 0
117 145 0
114 143 0
116 142 0
114 143 0
115 147 0
112 135 0
117 143 0
114 141 0
117 150 0
110 132 0
114 143 0
110 135 0
109 134 0
113 142 0
115 143 0
117 150 0
111 138 0
107 132 0
114 145 0
117 144 0
115 142 0
112 140 0
112 134 0
118 149 0
114 141 0
116 149 0
115 145 0
116 146 0
117 143 0
112 138 0
115 144 0
117 147 0
111 137 0
110 139 0
113 141 0
113 142 0
114 140 0
115 147 0
109 135 0
120 152 0
110 132 0
115 142 0
117 145 0
110 136 0
110 133 0
109 135 0
117 148 0
111 139 0
111 136 0
117 139 0
111 134 0
113 139 0
110 133 0
109 131 0
115 136 0
112 136 0
118 146 0
109 135 0
112 136 0
115 144 0
118 145 0
109 140 0
112 140 0
112 136 0
114 141 0
116 137 0
110 135 0
115 138 0
112 133 0
112 131 0
112 136 0
109 130 0
114 140 0
105 122 0
104 119 0
106 122 0
108 129 0
114 141 0
110 130 0
107 126 0
104 124 0
117 143 0
115 137 0
110 134 0
104 114 0
108 129 0
112 133 0
106 125 0
110 128 0
109 124 0
106 129 0
106 120 0
113 135 0
107 123 0
110 133 0
113 129 0
106 115 0
107 130 0
99 113 0
106 117 0
114 142 0
107 128 0
115 138 0
113 130 0
110 132 0
112 135 0
106 126 0
110 130 0
106 122 0
108 125 0
102 113 0
103 117 0
104 118 0
102 115 0
106 121 0
110 132 0
114 135 0
108 125 0
116 137 0
103 111 0
108 129 0
105 121 0
99 113 0
107 125 0
103 121 0
112 129 0
102 115 0
104 114 0
107 118 0
105 117 0
104 111 0
105 117 0
100 106 0
100 104 0
110 127 0
110 123 0
102 112 0
108 124 0
105 113 0
108 119 0
105 118 0
101 111 0
108 123 0
107 126 0
97 105 0
105 123 0
107 118 0
105 121 0
99 109 0
102 114 0
102 112 0
98 104 0
115 129 0
101 113 0
99 105 0
105 115 0
97 103 0
101 108 0
98 106 0
102 113 0
97 107 0
98 109 0
105 118 0
102 112 0
92 90 0
108 121 0
99 112 0
107 121 0
98 109 0
101 110 0
96 100 0
103 117 0
104 114 0
103 110 0
101 113 0
108 120 0
105 118 0
95 104 0
104 107 0
106 121 0
102 113 0
98 105 0
98 107 0
96 102 0
101 115 0
99 108 0
90 94 0
103 114 0
98 101 0
104 112 0
99 101 0
101 105 0
95 103 0
96 99 0
94 93 0
103 113 0
103 115 0
100 103 0
104 112 0
104 118 0
107 117 0
103 115 0
102 111 0
98 103 0
90 87 0
108 125 0
103 113 0
103 113 0
104 108 0
96 100 0
97 104 0
95 99 0
99 107 0
104 117 0
91 95 0
94 96 0
104 111 0
93 98 0
102 112 0
102 112 0
105 111 0
100 105 0
97 108 0
105 123 0
99 98 0
112 126 0
92 90 0
107 123 0
109 119 0
106 115 0
101 114 0
97 100 0
98 100 0
103 119 0
101 108 0
106 117 0
104 114 0
101 110 0
98 110 0
105 113 0
102 107 0
107 122 0
105 112 0
96 98 0
98 107 0
108 130 0
106 121 0
102 113 0
105 118 0
105 118 0
110 128 0
103 117 0
104 117 0
100 115 0
96 109 0
102 117 0
96 103 0
106 121 0
105 122 0
110 128 0
105 112 0
107 123 0
106 122 0
106 119 0
107 126 0
100 115 0
105 125 0
102 114 0
96 105 0
114 135 0
102 112 0
106 124 0
103 119 0
109 122 0
102 115 0
108 120 0
104 112 0
111 127 0
110 126 0
106 122 0
110 128 0
103 124 0
116 136 0
106 126 0
107 126 0
105 121 0
113 131 0
107 124 0
106 128 0
110 130 0
106 121 0
105 124 0
108 123 0
104 120 0
103 123 0
113 134 0
104 118 0
110 130 0
110 130 0
115 142 0
111 131 0
105 118 0
106 121 0
109 124 0
108 123 0
109 129 0
102 117 0
108 131 0
106 124 0
112 133 0
109 132 0
111 134 0
109 127 0
108 120 0
113 141 0
112 139 0
110 135 0
111 129 0
115 145 0
105 117 0
110 125 0
108 126 0
112 133 0
116 143 0
111 129 0
104 118 0
113 137 0
109 131 0
116 139 0
113 141 0
114 138 0
113 132 0
110 134 0
110 130 0
108 123 0
108 125 0
117 141 0
115 146 0
111 135 0
112 137 0
113 139 0
112 135 0
111 137 0
112 131 0
114 136 0
115 140 0
107 123 0
116 145 0
115 144 0
112 140 0
114 136 0
108 131 0
110 137 0
109 125 0
114 143 0
113 140 0
116 144 0
113 137 0
112 133 0
109 130 0
120 150 0
112 138 0
114 143 0
114 136 0
115 145 0
116 146 0
118 149 0
116 150 0
111 136 0
116 146 0
109 131 0
113 139 0
114 141 0
113 138 0
117 148 0
108 131 0
119 149 0
116 142 0
114 140 0
113 142 0
118 145 0
115 140 0
119 153 0
118 146 0
113 137 0
112 135 0
115 144 0
111 140 0
113 139 0
111 137 0
119 150 0
113 141 0
114 143 0
114 141 0
115 140 0
110 131 0
119 150 0
113 137 0
114 142 0
113 135 0
116 148 0
117 139 0
119 148 0
115 142 0
111 138 0
114 143 0
116 144 0
112 142 0
114 143 0
117 150 0
117 150 0
114 148 0
110 132 0
115 145 0
112 139 0
117 145 0
115 136 0
112 137 0
112 135 0
114 147 0
114 137 0
118 147 0
114 145 0
114 134 0
116 145 0
116 142 0
109 131 0
114 141 0
113 137 0
117 145 0
113 139 0
115 140 0
119 149 0
116 145 0
117 143 0
115 141 0
114 143 0
116 148 0
111 138 0
111 136 0
110 130 0
113 143 0
114 143 0
116 144 0
111 134 0
116 144 0
117 145 0
109 133 0
116 146 0
111 136 0
113 139 0
112 135 0
110 138 0
114 140 0
111 134 0
114 134 0
113 139 0
111 136 0
115 143 0
110 126 0
113 139 0
117 135 0
116 142 0
117 143 0
111 134 0
112 137 0
119 148 0
111 137 0
105 127 0
110 132 0
107 125 0
111 136 0
107 130 0
115 142 0
110 134 0
112 142 0
112 135 0
111 135 0
114 135 0
104 118 0
109 131 0
110 130 0
109 126 0
108 122 0
107 127 0
113 141 0
114 138 0
109 129 0
103 124 0
108 130 0
113 135 0
108 127 0
106 126 0
110 132 0
109 131 0
112 137 0
110 134 0
110 131 0
107 126 0
110 129 0
108 131 0
114 138 0
108 129 0
109 131 0
109 128 0
106 120 0
113 135 0
105 126 0
107 122 0
100 115 0
105 119 0
109 124 0
107 125 0
110 133 0
106 118 0
109 131 0
105 123 0
100 110 0
102 115 0
107 121 0
105 117 0
104 120 0
104 114 0
109 127 0
102 115 0
112 127 0
101 117 0
107 126 0
107 126 0
104 122 0
103 112 0
102 111 0
103 124 0
110 123 0
104 118 0
107 121 0
107 120 0
110 124 0
104 123 0
107 119 0
102 117 0
108 120 0
94 106 0
105 120 0
100 110 0
100 113 0
105 114 0
104 118 0
107 125 0
106 127 0
105 123 0
106 120 0
103 117 0
98 97 0
98 108 0
101 105 0
103 113 0
98 100 0
97 103 0
100 108 0
96 98 0
103 120 0
102 115 0
105 115 0
106 119 0
103 117 0
101 116 0
99 101 0
104 112 0
110 130 0
110 123 0
103 107 0
100 108 0
105 122 0
100 111 0
99 109 0
100 101 0
102 114 0
102 114 0
101 112 0
107 126 0
106 120 0
106 115 0
100 107 0
94 97 0
97 105 0
104 119 0
101 110 0
98 102 0
92 93 0
93 95 0
95 96 0
109 125 0
100 108 0
97 102 0
100 102 0
101 115 0
96 98 0
96 104 0
97 102 0
114 138 0
102 113 0
99 112 0
96 100 0
99 108 0
110 132 0
92 92 0
105 112 0
100 107 0
101 103 0
102 110 0
92 97 0
94 101 0
101 113 0
104 107 0
96 100 0
101 109 0
102 120 0
106 114 0
103 119 0
108 123 0
102 112 0
104 116 0
108 120 0
106 118 0
96 102 0
104 111 0
104 116 0
102 113 0
100 111 0
94 99 0
94 95 0
96 105 0
103 112 0
99 106 0
104 116 0
108 121 0
102 112 0
100 109 0
104 117 0
100 114 0
103 114 0
101 111 0
106 122 0
101 114 0
102 123 0
107 124 0
101 111 0
100 111 0
109 127 0
109 122 0
103 120 0
100 116 0
108 119 0
101 111 0
108 122 0
110 128 0
103 113 0
105 122 0
105 109 0
101 118 0
113 139 0
106 124 0
106 122 0
111 132 0
108 122 0
113 137 0
101 111 0
106 122 0
111 134 0
112 130 0
102 118 0
106 123 0
107 128 0
99 105 0
112 129 0
107 124 0
112 133 0
104 129 0
109 129 0
101 115 0
107 122 0
106 124 0
103 113 0
104 121 0
110 133 0
109 129 0
110 128 0
108 123 0
108 127 0
109 132 0
107 121 0
105 124 0
105 124 0
108 129 0
110 129 0
103 117 0
107 130 0
113 139 0
105 120 0
113 137 0
115 142 0
107 121 0
112 135 0
107 119 0
108 130 0
108 130 0
108 129 0
109 125 0
111 130 0
111 136 0
111 132 0
105 122 0
108 129 0
113 134 0
111 130 0
114 138 0
112 134 0
111 140 0
115 138 0
114 138 0
114 131 0
111 138 0
113 135 0
111 140 0
111 131 0
112 136 0
110 133 0
118 143 0
108 124 0
111 133 0
110 128 0
113 137 0
112 138 0
113 137 0
116 144 0
116 144 0
112 134 0
113 137 0
109 131 0
111 140 0
114 147 0
109 135 0
111 138 0
115 146 0
109 129 0
114 137 0
106 121 0
115 144 0
113 134 0
111 139 0
112 135 0
112 139 0
115 139 0
110 130 0
117 143 0
112 136 0
114 139 0
111 136 0
113 136 0
114 139 0
116 148 0
114 140 0
108 129 0
117 145 0
113 139 0
114 136 0
111 142 0
115 144 0
120 152 0
115 142 0
114 141 0
116 146 0
116 144 0
113 137 0
114 140 0
110 136 0
116 146 0
116 148 0
115 139 0
114 143 0
112 139 0
112 139 0
117 146 0
120 152 0
111 138 0
114 141 0
114 139 0
121 153 0
119 149 0
117 150 0
113 141 0
112 134 0
111 131 0
117 150 0
119 153 0
116 145 0
115 144 0
117 146 0
120 150 0
111 138 0
117 145 0
109 139 0
115 145 0
115 142 0
115 146 0
116 146 0
115 142 0
113 141 0
111 139 0
117 147 0
119 150 0
114 143 0
119 148 0
116 147 0
119 149 0
118 146 0
114 139 0
113 138 0
111 141 0
114 140 0
114 145 0
119 146 0
115 145 0
113 139 0
113 146 0
108 132 0
113 143 0
113 142 0
116 143 0
111 133 0
118 147 0
112 138 0
113 137 0
113 143 0
114 143 0
115 147 0
111 138 0
115 145 0
111 129 0
115 140 0
113 141 0
113 136 0
115 143 0
116 142 0
108 130 0
114 143 0
115 146 0
113 139 0
114 142 0
112 141 0
111 138 0
115 147 0
111 136 0
112 133 0
109 131 0
113 141 0
115 134 0
109 135 0
114 137 0
112 135 0
114 140 0
109 135 0
116 137 0
114 141 0
105 125 0
113 136 0
113 135 0
109 128 0
114 138 0
115 142 0
110 133 0
119 142 0
107 124 0
118 149 0
119 146 0
109 129 0
117 145 0
110 130 0
108 127 0
105 127 0
105 121 0
116 141 0
105 123 0
112 135 0
113 131 0
112 134 0
110 134 0
114 145 0
108 125 0
103 121 0
114 138 0
104 113 0
105 116 0
110 132 0
109 131 0
114 136 0
108 123 0
108 128 0
108 132 0
107 121 0
102 113 0
108 129 0
109 129 0
109 125 0
110 131 0
113 135 0
109 130 0
107 126 0
113 133 0
106 122 0
110 128 0
110 123 0
111 127 0
110 124 0
110 124 0
108 133 0
105 120 0
112 135 0
108 129 0
109 118 0
101 109 0
102 114 0
111 134 0
108 128 0
108 125 0
108 122 0
102 109 0
110 124 0
104 117 0
102 111 0
104 118 0
111 130 0
106 122 0
106 120 0
107 119 0
103 111 0
108 119 0
100 108 0
104 116 0
102 116 0
94 100 0
103 113 0
107 126 0
102 120 0
105 119 0
101 110 0
108 121 0
105 115 0
110 130 0
100 113 0
108 120 0
98 107 0
103 113 0
92 96 0
104 117 0
107 123 0
98 107 0
98 112 0
104 114 0
110 128 0
105 121 0
101 117 0
110 123 0
108 127 0
99 110 0
105 117 0
103 117 0
101 115 0
106 117 0
108 124 0
101 110 0
106 116 0
106 115 0
99 111 0
100 112 0
95 99 0
111 131 0
105 112 0
104 114 0
100 101 0
101 115 0
95 106 0
105 115 0
108 118 0
98 105 0
96 100 0
101 110 0
95 100 0
99 99 0
101 108 0
97 103 0
98 99 0
99 104 0
101 105 0
97 104 0
100 108 0
99 109 0
107 117 0
90 90 0
99 107 0
97 112 0
94 98 0
95 95 0
108 123 0
98 106 0
98 112 0
99 107 0
97 102 0
111 130 0
102 115 0
98 105 0
90 90 0
100 115 0
86 82 0
100 108 0
103 118 0
101 116 0
104 108 0
108 119 0
105 114 0
104 119 0
105 118 0
106 122 0
98 110 0
98 105 0
104 121 0
104 113 0
103 115 0
106 115 0
99 100 0
102 117 0
105 116 0
110 126 0
107 119 0
106 122 0
100 107 0
98 110 0
103 110 0
101 109 0
113 131 0
106 117 0
95 103 0
105 114 0
99 116 0
101 107 0
110 120 0
102 112 0
107 121 0
103 113 0
108 125 0
101 113 0
95 99 0
102 113 0
108 125 0
108 124 0
107 126 0
105 114 0
111 123 0
104 119 0
98 106 0
107 127 0
105 121 0
108 129 0
105 121 0
111 129 0
100 110 0
111 134 0
102 114 0
109 122 0
103 117 0
108 123 0
108 132 0
103 115 0
103 111 0
104 121 0
108 127 0
107 124 0
108 128 0
105 120 0
113 141 0
113 135 0
101 110 0
107 125 0
105 121 0
107 123 0
107 126 0
102 120 0
110 131 0
108 127 0
103 116 0
115 138 0
105 124 0
104 117 0
105 123 0
108 131 0
107 123 0
108 125 0
105 123 0
115 140 0
105 123 0
109 131 0
111 129 0
105 121 0
108 127 0
113 137 0
112 138 0
110 132 0
119 149 0
107 125 0
107 125 0
111 123 0
114 140 0
118 146 0
108 125 0
111 133 0
107 128 0
113 141 0
114 139 0
110 134 0
101 113 0
107 125 0
113 144 0
114 138 0
114 143 0
110 135 0
107 128 0
106 115 0
108 129 0
106 121 0
108 126 0
106 122 0
114 135 0
112 136 0
111 138 0
115 142 0
114 136 0
111 142 0
114 136 0
105 122 0
115 147 0
115 144 0
111 136 0
120 150 0
112 136 0
107 132 0
110 134 0
115 136 0
108 127 0
113 142 0
115 134 0
112 137 0
114 139 0
114 138 0
112 138 0
118 144 0
110 135 0
113 146 0
115 144 0
118 147 0
117 145 0
112 138 0
116 144 0
109 127 0
114 141 0
118 147 0
111 135 0
112 137 0
117 147 0
119 149 0
114 146 0
113 141 0
106 128 0
115 140 0
116 146 0
114 145 0
113 140 0
113 141 0
113 142 0
110 137 0
109 130 0
114 141 0
114 143 0
114 143 0
114 138 0
112 140 0
121 152 0
114 145 0
113 141 0
115 143 0
117 150 0
110 128 0
109 133 0
118 149 0
115 149 0
117 142 0
117 141 0
111 141 0
114 147 0
117 148 0
115 142 0
116 149 0
111 132 0
111 137 0
118 145 0
114 142 0
120 152 0
117 145 0
113 143 0
111 138 0
113 139 0
112 137 0
114 143 0
118 145 0
113 138 0
113 144 0
116 146 0
110 134 0
118 149 0
115 142 0
114 143 0
116 146 0
115 144 0
114 143 0
116 142 0
114 143 0
113 141 0
118 141 0
114 143 0
115 144 0
113 137 0
111 136 0
113 139 0
115 138 0
113 139 0
106 125 0
113 140 0
116 148 0
113 144 0
112 132 0
108 134 0
112 140 0
111 136 0
115 144 0
110 132 0
115 145 0
116 139 0
111 135 0
111 136 0
112 139 0
112 136 0
117 144 0
117 141 0
104 125 0
114 143 0
110 134 0
107 123 0
110 132 0
114 140 0
112 134 0
116 142 0
112 131 0
112 135 0
114 137 0
116 147 0
112 135 0
110 130 0
112 133 0
108 131 0
111 133 0
107 123 0
111 134 0
109 129 0
111 131 0
105 125 0
110 138 0
113 135 0
112 131 0
106 128 0
114 138 0
111 131 0
111 129 0
111 134 0
115 142 0
107 124 0
110 133 0
110 128 0
105 127 0
110 130 0
107 128 0
105 120 0
110 135 0
106 117 0
110 134 0
110 126 0
106 129 0
111 125 0
113 135 0
108 127 0
104 114 0
108 130 0
108 127 0
112 137 0
106 123 0
109 122 0
108 133 0
111 127 0
112 135 0
112 137 0
105 121 0
110 126 0
107 127 0
112 134 0
104 119 0
105 122 0
108 126 0
108 124 0
105 122 0
108 124 0
107 121 0
103 113 0
114 130 0
108 132 0
98 110 0
105 123 0
99 111 0
110 127 0
107 115 0
105 117 0
101 113 0
110 131 0
100 117 0
103 118 0
103 113 0
106 124 0
106 125 0
97 99 0
99 109 0
106 113 0
96 104 0
104 117 0
104 119 0
109 122 0
105 113 0
105 113 0
101 111 0
108 125 0
102 113 0
99 106 0
105 121 0
109 129 0
105 118 0
102 115 0
103 119 0
104 118 0
108 129 0
106 126 0
105 119 0
102 116 0
92 91 0
108 129 0
105 114 0
104 121 0
97 103 0
103 116 0
104 111 0
108 126 0
104 121 0
103 114 0
101 105 0
101 110 0
106 118 0
102 112 0
98 110 0
91 92 0
96 105 0
95 99 0
93 98 0
98 111 0
93 98 0
104 118 0
101 110 0
100 112 0
105 119 0
106 121 0
96 103 0
99 107 0
101 121 0
106 124 0
100 101 0
105 112 0
101 113 0
99 111 0
104 119 0
104 118 0
94 90 0
100 113 0
110 123 0
107 115 0
101 109 0
103 113 0
99 104 0
101 118 0
104 114 0
102 118 0
98 102 0
100 111 0
101 110 0
99 104 0
100 108 0
99 100 0
99 111 0
98 107 0
100 106 0
100 108 0
104 116 0
103 110 0
106 119 0
105 120 0
103 103 0
95 94 0
105 118 0
106 110 0
107 116 0
98 106 0
98 105 0
103 119 0
103 115 0
100 104 0
104 120 0
104 119 0
94 96 0
104 114 0
104 121 0
101 115 0
105 116 0
98 99 0
104 115 0
104 121 0
99 113 0
100 109 0
112 134 0
108 124 0
109 123 0
103 114 0
102 115 0
107 127 0
107 124 0
106 124 0
108 121 0
93 97 0
103 116 0
96 104 0
107 117 0
109 126 0
96 106 0
110 125 0
105 116 0
102 114 0
111 134 0
103 120 0
103 113 0
105 118 0
107 124 0
108 120 0
107 121 0
105 125 0
109 127 0
109 126 0
108 132 0
110 128 0
104 118 0
97 103 0
99 103 0
108 131 0
106 122 0
107 120 0
106 119 0
101 118 0
111 134 0
117 139 0
109 120 0
107 123 0
107 130 0
103 115 0
113 134 0
108 118 0
112 136 0
102 120 0
112 132 0
107 123 0
114 141 0
110 130 0
104 121 0
103 106 0
104 121 0
118 144 0
106 122 0
110 131 0
111 134 0
110 132 0
106 120 0
109 129 0
111 130 0
109 130 0
114 141 0
107 122 0
114 141 0
114 138 0
111 138 0
111 132 0
111 134 0
110 135 0
115 141 0
114 138 0
104 119 0
111 137 0
111 132 0
113 136 0
106 125 0
115 145 0
111 134 0
116 142 0
111 132 0
113 132 0
113 135 0
113 135 0
112 131 0
109 129 0
109 131 0
108 131 0
114 140 0
108 127 0
119 146 0
109 131 0
111 135 0
113 135 0
112 137 0
108 127 0
115 147 0
115 145 0
112 129 0
113 139 0
113 140 0
109 122 0
113 139 0
113 139 0
111 136 0
117 137 0
111 137 0
111 131 0
112 138 0
114 139 0
112 137 0
109 131 0
115 138 0
114 136 0
111 134 0
114 143 0
110 137 0
112 140 0
117 147 0
111 138 0
115 147 0
115 145 0
115 140 0
109 132 0
112 139 0
115 147 0
113 130 0
116 146 0
114 140 0
117 150 0
114 143 0
115 146 0
114 137 0
118 149 0
117 145 0
115 146 0
115 142 0
118 147 0
114 145 0
120 150 0
117 145 0
116 144 0
109 135 0
114 142 0
113 141 0
113 139 0
113 144 0
119 153 0
117 148 0
113 142 0
110 137 0
115 147 0
111 136 0
112 140 0
114 143 0
114 145 0
119 146 0
111 135 0
117 149 0
109 137 0
115 144 0
120 150 0
116 144 0
107 129 0
111 136 0
116 140 0
114 139 0
114 144 0
116 149 0
115 142 0
113 139 0
118 145 0
115 142 0
114 142 0
111 136 0
115 142 0
116 144 0
116 140 0
112 136 0
116 146 0
114 141 0
112 138 0
111 142 0
110 139 0
114 141 0
112 144 0
113 137 0
112 140 0
111 136 0
115 143 0
112 135 0
111 139 0
116 144 0
109 137 0
112 137 0
113 139 0
112 135 0
110 136 0
119 148 0
113 142 0
115 140 0
112 136 0
111 136 0
114 139 0
112 137 0
114 141 0
113 140 0
112 138 0
107 127 0
111 138 0
116 143 0
113 137 0
112 136 0
111 136 0
115 142 0
109 130 0
109 123 0
112 135 0
116 141 0
113 139 0
112 136 0
106 127 0
105 124 0
107 132 0
114 138 0
111 131 0
117 143 0
112 127 0
109 131 0
111 136 0
111 136 0
107 123 0
109 130 0
106 124 0
115 140 0
111 134 0
112 142 0
113 139 0
105 119 0
108 131 0
115 139 0
111 132 0
112 137 0
114 134 0
105 124 0
113 134 0
102 115 0
109 131 0
103 114 0
108 131 0
111 135 0
110 134 0
104 117 0
112 139 0
106 124 0
107 130 0
103 118 0
113 130 0
102 121 0
108 130 0
99 112 0
106 118 0
108 132 0
105 126 0
104 122 0
107 124 0
110 128 0
108 122 0
107 120 0
103 117 0
101 115 0
110 134 0
107 119 0
106 120 0
109 130 0
104 122 0
99 111 0
103 116 0
100 108 0
105 117 0
104 125 0
105 117 0
104 112 0
101 113 0
111 128 0
106 125 0
104 119 0
101 113 0
107 126 0
102 118 0
104 117 0
104 122 0
107 125 0
102 114 0
103 107 0
101 112 0
106 118 0
112 128 0
102 109 0
107 123 0
103 106 0
108 119 0
103 115 0
106 118 0
103 115 0
104 122 0
109 124 0
106 118 0
97 108 0
96 101 0
102 109 0
113 135 0
109 125 0
103 117 0
107 118 0
98 105 0
105 111 0
112 131 0
104 119 0
101 110 0
106 123 0
102 113 0
107 123 0
103 111 0
106 109 0
102 111 0
105 114 0
102 110 0
109 124 0
99 109 0
100 107 0
105 118 0
99 108 0
103 118 0
105 120 0
99 105 0
99 115 0
111 133 0
103 115 0
97 106 0
104 119 0
102 113 0
102 115 0
102 112 0
106 119 0
106 113 0
105 118 0
99 106 0
95 94 0
104 118 0
98 105 0
99 107 0
107 121 0
102 113 0
94 98 0
99 109 0
101 118 0
104 114 0
103 110 0
110 126 0
100 114 0
109 124 0
105 117 0
101 106 0
99 111 0
107 125 0
96 97 0
95 101 0
101 109 0
108 120 0
106 112 0
101 108 0
102 105 0
100 111 0
106 119 0
103 112 0
96 100 0
98 100 0
94 97 0
98 108 0
110 130 0
96 101 0
94 97 0
97 99 0
101 110 0
99 107 0
104 110 0
107 126 0
107 123 0
102 109 0
104 115 0
107 130 0
96 99 0
101 114 0
106 122 0
99 110 0
99 108 0
104 115 0
98 107 0
106 122 0
106 123 0
112 132 0
103 115 0
104 118 0
105 118 0
111 126 0
108 132 0
103 117 0
97 103 0
105 115 0
101 114 0
109 127 0
110 122 0
107 118 0
103 120 0
102 118 0
108 125 0
102 110 0
109 123 0
98 106 0
105 122 0
97 108 0
104 121 0
109 126 0
111 132 0
108 127 0
105 122 0
106 115 0
109 127 0
108 128 0
99 106 0
101 111 0
106 124 0
103 117 0
104 116 0
105 122 0
110 130 0
106 115 0
112 135 0
107 115 0
109 130 0
113 134 0
111 127 0
106 118 0
105 115 0
109 127 0
107 127 0
106 126 0
107 123 0
111 131 0
109 129 0
107 121 0
116 146 0
110 126 0
108 134 0
110 132 0
108 125 0
115 142 0
114 138 0
112 129 0
107 129 0
105 116 0
111 129 0
107 129 0
111 129 0
110 132 0
112 140 0
110 132 0
110 131 0
113 137 0
115 142 0
104 119 0
110 132 0
110 131 0
111 133 0
112 131 0
116 142 0
113 137 0
112 131 0
113 141 0
109 130 0
103 120 0
113 135 0
104 121 0
106 125 0
110 130 0
107 129 0
106 126 0
111 136 0
111 134 0
110 128 0
111 136 0
113 135 0
115 138 0
117 143 0
110 132 0
115 138 0
112 138 0
116 140 0
115 147 0
110 136 0
113 137 0
112 138 0
111 141 0
115 144 0
111 138 0
113 139 0
118 145 0
108 131 0
116 144 0
114 139 0
109 133 0
112 133 0
115 140 0
111 139 0
114 133 0
116 144 0
117 143 0
110 137 0
112 135 0
111 135 0
117 141 0
113 137 0
116 146 0
113 142 0
113 143 0
119 150 0
113 137 0
111 134 0
117 145 0
116 140 0
114 141 0
117 148 0
117 148 0
113 141 0
115 142 0
117 147 0
120 152 0
116 141 0
112 138 0
116 144 0
113 141 0
116 146 0
109 133 0
110 135 0
116 143 0
118 145 0
118 147 0
111 138 0
114 142 0
113 145 0
116 146 0
115 143 0
115 146 0
116 148 0
114 139 0
116 148 0
116 149 0
116 148 0
112 139 0
117 145 0
115 142 0
110 137 0
111 141 0
114 143 0
117 149 0
118 143 0
114 147 0
113 140 0
112 137 0
117 145 0
115 144 0
110 141 0
110 139 0
112 136 0
111 140 0
113 139 0
119 151 0
116 142 0
113 135 0
110 137 0
114 141 0
118 144 0
112 137 0
113 144 0
114 139 0
116 143 0
117 139 0
114 141 0
115 144 0
114 141 0
118 149 0
118 149 0
110 130 0
113 139 0
112 142 0
114 139 0
108 130 0
113 142 0
112 139 0
117 145 0
115 138 0
114 141 0
114 147 0
111 139 0
109 131 0
114 138 0
112 137 0
112 144 0
117 146 0
117 145 0
117 143 0
117 145 0
109 129 0
116 137 0
110 139 0
107 122 0
107 127 0
111 136 0
112 138 0
112 129 0
114 140 0
113 136 0
105 124 0
116 143 0
110 132 0
109 131 0
107 123 0
111 136 0
107 125 0
112 132 0
110 139 0
115 142 0
115 142 0
105 127 0
106 122 0
114 138 0
114 139 0
110 135 0
106 123 0
109 131 0
105 124 0
109 128 0
114 143 0
117 146 0
113 139 0
113 133 0
102 116 0
111 132 0
105 123 0
112 137 0
106 123 0
113 135 0
106 121 0
111 129 0
111 137 0
109 128 0
105 123 0
112 135 0
113 135 0
107 131 0
97 115 0
113 135 0
102 120 0
107 118 0
109 127 0
103 109 0
110 129 0
102 114 0
110 130 0
104 122 0
109 129 0
106 122 0
109 128 0
101 111 0
113 134 0
113 137 0
110 128 0
112 134 0
109 126 0
109 131 0
107 123 0
106 117 0
110 126 0
108 120 0
105 116 0
112 135 0
108 120 0
107 121 0
107 129 0
110 133 0
106 120 0
105 118 0
111 126 0
103 112 0
97 108 0
105 124 0
105 119 0
107 117 0
105 122 0
107 127 0
106 121 0
102 114 0
107 128 0
101 110 0
102 115 0
107 123 0
103 115 0
101 107 0
105 117 0
98 98 0
103 116 0
106 116 0
103 124 0
104 117 0
103 115 0
109 123 0
107 119 0
96 99 0
101 114 0
100 111 0
105 120 0
98 101 0
102 117 0
96 97 0
102 116 0
101 107 0
102 107 0
105 116 0
105 113 0
108 122 0
106 117 0
97 102 0
103 111 0
111 121 0
102 112 0
103 110 0
99 103 0
102 116 0
110 126 0
100 105 0
102 111 0
93 100 0
104 116 0
103 111 0
96 103 0
104 115 0
98 107 0
100 104 0
105 112 0
103 116 0
91 91 0
105 120 0
97 105 0
101 113 0
102 113 0
98 105 0
104 119 0
108 120 0
98 104 0
103 108 0
98 100 0
110 124 0
101 111 0
105 107 0
108 123 0
96 100 0
103 117 0
102 112 0
103 111 0
102 117 0
107 122 0
106 119 0
104 118 0
107 119 0
107 123 0
98 102 0
101 114 0
99 106 0
104 109 0
105 116 0
100 115 0
103 117 0
96 97 0
104 111 0
104 114 0
103 107 0
110 121 0
97 102 0
98 107 0
100 108 0
101 113 0
98 105 0
106 123 0
101 114 0
109 122 0
102 115 0
110 125 0
104 114 0
103 115 0
103 120 0
106 120 0
108 125 0
104 116 0
114 138 0
102 117 0
98 101 0
105 118 0
101 111 0
100 112 0
109 130 0
101 113 0
101 111 0
103 111 0
104 119 0
105 125 0
110 131 0
108 126 0
107 127 0
101 114 0
105 121 0
103 117 0
105 115 0
103 115 0
104 118 0
107 122 0
104 115 0
106 118 0
108 127 0
112 131 0
105 123 0
109 126 0
109 128 0
104 116 0
109 130 0
107 123 0
111 127 0
108 119 0
111 129 0
114 131 0
108 126 0
106 119 0
94 103 0
107 123 0
108 125 0
107 130 0
107 123 0
111 134 0
105 121 0
114 139 0
110 137 0
111 127 0
113 136 0
109 131 0
108 134 0
108 127 0
105 122 0
111 129 0
109 128 0
111 128 0
106 126 0
109 127 0
114 136 0
108 126 0
110 124 0
112 138 0
114 138 0
111 130 0
110 133 0
104 123 0
115 138 0
112 140 0
104 116 0
114 140 0
105 120 0
114 143 0
111 136 0
103 122 0
109 135 0
108 132 0
114 138 0
102 118 0
103 121 0
112 138 0
107 122 0
110 128 0
114 137 0
118 145 0
111 133 0
113 137 0
106 124 0
117 143 0
116 135 0
111 139 0
114 139 0
112 139 0
108 128 0
111 129 0
110 135 0
108 131 0
111 136 0
117 148 0
112 138 0
112 139 0
112 139 0
108 130 0
111 138 0
111 137 0
112 135 0
111 138 0
109 132 0
115 146 0
112 138 0
114 138 0
113 135 0
117 147 0
111 138 0
109 138 0
112 136 0
111 134 0
112 142 0
109 135 0
115 144 0
115 146 0
110 133 0
115 144 0
116 146 0
114 145 0
117 150 0
116 148 0
111 137 0
112 138 0
115 145 0
113 139 0
114 140 0
112 140 0
115 144 0
115 139 0
116 142 0
117 148 0
113 139 0
115 142 0
115 142 0
112 142 0
115 144 0
113 144 0
115 142 0
113 143 0
118 144 0
110 137 0
113 143 0
113 147 0
115 147 0
114 150 0
